; generated by PrusaSlicer 2.4.2+win64 on 2022-06-07 at 08:06:10 UTC


;
;
; 

; external perimeters extrusion width = 0.45mm
; perimeters extrusion width = 0.45mm
; infill extrusion width = 0.45mm
; solid infill extrusion width = 0.45mm
; top infill extrusion width = 0.40mm
; first layer extrusion width = 0.42mm

M73 P0 R72
M73 Q0 S73
M201 X1000 Y1000 Z200 E5000 ; sets maximum accelerations, mm/sec^2
M203 X200 Y200 Z12 E120 ; sets maximum feedrates, mm / sec
M204 P1250 R1250 T1250 ; sets acceleration (P, T) and retract acceleration (R), mm/sec^2
M205 X8.00 Y8.00 Z0.40 E4.50 ; sets the jerk limits, mm/sec
M205 S0 T0 ; sets the minimum extruding and travel feed rate, mm/sec
M107
;TYPE:Custom
M862.3 P "MK3S" ; printer model check
M862.1 P0.4 ; nozzle diameter check
M115 U3.11.0 ; tell printer latest fw version
G90 ; use absolute coordinates
M83 ; extruder relative mode
M104 S205 ; set extruder temp
M140 S60 ; set bed temp
M190 S60 ; wait for bed temp
M109 S205 ; wait for extruder temp
G28 W ; home all without mesh bed level
G80 ; mesh bed leveling
G1 Z0.2 F720
G1 Y-3 F1000 ; go outside print area
G92 E0
G1 X60 E9 F1000 ; intro line
G1 X100 E12.5 F1000 ; intro line
G92 E0
M221 S95

; Don't change E values below. Excessive value can damage the printer.
M907 E430 ; set extruder motor current
G21 ; set units to millimeters
G90 ; use absolute coordinates
M83 ; use relative distances for extrusion
M900 K0.05 ; Filament gcode LA 1.5
M900 K30 ; Filament gcode LA 1.0
M107
;LAYER_CHANGE
;Z:0.2
;HEIGHT:0.2
;BEFORE_LAYER_CHANGE
G92 E0.0
;0.2


G1 E-.8 F2100
G1 Z.4 F720
;AFTER_LAYER_CHANGE
;0.2
G1 X80.107 Y80.107 F10800
G1 Z.2 F720
G1 E.8 F2100
M204 S800
;TYPE:Skirt/Brim
;WIDTH:0.42
G1 F1200
G1 X81.794 Y78.419 E.07483
G1 X83.475 Y77.723 E.05704
G1 X117.194 Y77.726 E1.05724
G1 X154.055 Y79.574 E1.15721
G1 X155.975 Y79.802 E.0606
G1 X158.079 Y80.233 E.06735
G1 X159.957 Y80.786 E.06138
G1 X161.611 Y81.415 E.05547
G1 X163.555 Y82.338 E.06748
G1 X165.253 Y83.326 E.0616
G1 X166.869 Y84.447 E.06169
G1 X168.394 Y85.695 E.06178
G1 X169.819 Y87.062 E.06189
G1 X171.015 Y88.395 E.05617
G1 X172.225 Y89.964 E.06212
G1 X173.405 Y91.783 E.06798
G1 X174.348 Y93.531 E.06228
G1 X175.154 Y95.349 E.06237
G1 X175.764 Y97.053 E.05673
G1 X176.297 Y98.974 E.06252
G1 X176.71 Y101.111 E.06825
G1 X176.931 Y103.095 E.06259
G1 X177 Y104.909 E.05693
M73 Q0 S72
G1 X176.917 Y107.086 E.06828
G1 X176.71 Y108.889 E.05691
G1 X176.339 Y110.849 E.06255
G1 X175.819 Y112.773 E.0625
G1 X175.086 Y114.82 E.06817
G1 X174.266 Y116.633 E.06239
G1 X173.405 Y118.217 E.05654
G1 X172.353 Y119.852 E.06094
G1 X171.134 Y121.462 E.06334
G1 X169.689 Y123.072 E.06783
G1 X168.254 Y124.429 E.06191
G1 X166.869 Y125.553 E.05591
G1 X165.253 Y126.674 E.06169
G1 X163.555 Y127.662 E.0616
G1 X161.611 Y128.585 E.06748
G1 X159.776 Y129.274 E.06146
G1 X158.079 Y129.767 E.05539
G1 X156.164 Y130.168 E.06134
G1 X154.224 Y130.412 E.06131
G1 X117.075 Y132.277 E1.16625
G1 X83.475 Y132.277 E1.0535
G1 X81.794 Y131.581 E.05704
G1 X73.694 Y123.481 E.35917
G1 X72.998 Y121.8 E.05704
G1 X72.998 Y88.2 E1.0535
G1 X73.694 Y86.519 E.05704
G1 X80.064 Y80.149 E.28246
M204 S1000
; printing object 20_Insert_Lens_holder_v3 (1).stl id:0 copy 0
;WIPE_START
G1 F8640
G1 X81.794 Y78.419 E-.56491
G1 X82.575 Y78.096 E-.19509
;WIPE_END
G1 E-.04 F2100
G1 Z.6 F720
G1 X87.424 Y89.953 F10800
G1 Z.2 F720
G1 E.8 F2100
M204 S800
;TYPE:Perimeter
G1 F1200
G1 X88.644 Y88.991 E.04872
G1 X89.936 Y88.128 E.04872
G1 X91.292 Y87.369 E.04872
G1 X92.703 Y86.719 E.04872
G1 X94.16 Y86.181 E.04872
G1 X95.656 Y85.759 E.04872
G1 X97.18 Y85.456 E.04872
G1 X98.722 Y85.273 E.04872
G1 X100.191 Y85.216 E.04609
G1 X101.826 Y85.273 E.05129
G1 X103.37 Y85.456 E.04875
G1 X104.894 Y85.759 E.04872
G1 X106.39 Y86.181 E.04872
G1 X107.847 Y86.719 E.04872
G1 X109.258 Y87.369 E.04872
G1 X110.614 Y88.128 E.04872
G1 X111.836 Y88.945 E.04609
G1 X113.125 Y89.953 E.05129
G1 X114.267 Y91.008 E.04875
G1 X115.322 Y92.149 E.04872
G1 X116.284 Y93.369 E.04872
G1 X117.147 Y94.661 E.04872
G1 X117.906 Y96.017 E.04872
G1 X118.556 Y97.428 E.04872
G1 X119.094 Y98.885 E.04872
G1 X119.516 Y100.381 E.04872
G1 X119.819 Y101.905 E.04872
G1 X119.881 Y102.429 E.01656
G1 X120.002 Y103.447 E.03215
G1 X120.063 Y105 E.04872
G1 X120.002 Y106.553 E.04872
G1 X119.819 Y108.095 E.04872
G1 X119.516 Y109.619 E.04872
G1 X119.094 Y111.115 E.04872
G1 X118.556 Y112.572 E.04872
G1 X117.906 Y113.983 E.04872
G1 X117.147 Y115.339 E.04872
G1 X116.284 Y116.631 E.04872
G1 X115.322 Y117.851 E.04872
G1 X114.267 Y118.992 E.04872
G1 X113.126 Y120.047 E.04872
G1 X111.906 Y121.009 E.04872
G1 X110.614 Y121.872 E.04872
G1 X109.258 Y122.631 E.04872
G1 X107.847 Y123.281 E.04872
G1 X106.39 Y123.819 E.04872
G1 X104.894 Y124.241 E.04872
G1 X103.37 Y124.544 E.04872
G1 X101.828 Y124.727 E.04872
G1 X100.275 Y124.788 E.04872
G1 X98.722 Y124.727 E.04872
G1 X97.18 Y124.544 E.04872
G1 X95.656 Y124.241 E.04872
G1 X94.16 Y123.819 E.04872
G1 X92.703 Y123.281 E.04872
G1 X91.292 Y122.631 E.04872
G1 X89.936 Y121.872 E.04872
G1 X88.714 Y121.055 E.04609
G1 X87.425 Y120.047 E.0513
G1 X86.283 Y118.992 E.04875
G1 X85.228 Y117.851 E.04872
G1 X84.266 Y116.631 E.04872
G1 X83.403 Y115.339 E.04872
G1 X82.644 Y113.983 E.04872
G1 X81.994 Y112.572 E.04872
G1 X81.456 Y111.115 E.04872
G1 X81.034 Y109.619 E.04872
G1 X80.731 Y108.095 E.04872
G1 X80.548 Y106.553 E.04872
G1 X80.487 Y105 E.04872
G1 X80.548 Y103.447 E.04872
G1 X80.731 Y101.905 E.04872
G1 X81.034 Y100.381 E.04872
G1 X81.456 Y98.885 E.04872
G1 X81.994 Y97.428 E.04872
G1 X82.644 Y96.017 E.04872
G1 X83.403 Y94.661 E.04872
G1 X84.266 Y93.369 E.04872
G1 X85.228 Y92.149 E.04872
G1 X86.283 Y91.008 E.04872
G1 X87.38 Y89.994 E.04683
M204 S1000
G1 X87.669 Y90.24 F10800
M204 S800
;TYPE:External perimeter
G1 F1200
G1 X88.866 Y89.297 E.04779
G1 X90.133 Y88.45 E.04779
G1 X91.463 Y87.705 E.04779
G1 X92.847 Y87.067 E.04779
G1 X94.277 Y86.54 E.04779
G1 X95.744 Y86.126 E.04779
G1 X97.239 Y85.829 E.04779
G1 X98.752 Y85.65 E.04779
G1 X100.192 Y85.593 E.04519
G1 X101.797 Y85.649 E.05037
G1 X103.311 Y85.829 E.0478
G1 X104.806 Y86.126 E.04779
G1 X106.273 Y86.54 E.04779
G1 X107.703 Y87.067 E.04779
G1 X109.087 Y87.705 E.04779
G1 X110.417 Y88.45 E.04779
G1 X111.615 Y89.251 E.04519
G1 X112.881 Y90.24 E.05037
G1 X114 Y91.275 E.0478
G1 X115.035 Y92.394 E.04779
G1 X115.978 Y93.591 E.04779
G1 X116.291 Y94.059 E.01766
G1 X116.825 Y94.858 E.03013
G1 X117.57 Y96.188 E.04779
G1 X118.208 Y97.572 E.04779
G1 X118.735 Y99.002 E.04779
G1 X119.149 Y100.469 E.04779
G1 X119.446 Y101.964 E.04779
G1 X119.507 Y102.473 E.0161
G1 X119.625 Y103.477 E.03169
G1 X119.685 Y105 E.04779
G1 X119.625 Y106.523 E.04779
G1 X119.446 Y108.036 E.04779
G1 X119.149 Y109.531 E.04779
G1 X118.735 Y110.998 E.04779
G1 X118.208 Y112.428 E.04779
G1 X117.57 Y113.812 E.04779
G1 X116.825 Y115.142 E.04779
G1 X115.978 Y116.409 E.04779
G1 X115.035 Y117.606 E.04779
G1 X114 Y118.725 E.04779
G1 X112.881 Y119.76 E.04779
G1 X111.684 Y120.703 E.04779
G1 X110.417 Y121.55 E.04779
G1 X109.087 Y122.295 E.04779
G1 X107.703 Y122.933 E.04779
G1 X106.273 Y123.46 E.04779
G1 X104.806 Y123.874 E.04779
G1 X103.311 Y124.171 E.04779
G1 X101.798 Y124.35 E.04779
G1 X100.275 Y124.41 E.04779
G1 X98.752 Y124.35 E.04779
G1 X97.239 Y124.171 E.04779
G1 X95.744 Y123.874 E.04779
G1 X94.277 Y123.46 E.04779
G1 X92.847 Y122.933 E.04779
G1 X91.463 Y122.295 E.04779
G1 X90.133 Y121.55 E.04779
G1 X88.935 Y120.749 E.04519
G1 X87.669 Y119.76 E.05037
G1 X86.55 Y118.725 E.0478
G1 X85.515 Y117.606 E.04779
G1 X84.572 Y116.409 E.04779
G1 X83.725 Y115.142 E.04779
G1 X82.98 Y113.812 E.04779
G1 X82.342 Y112.428 E.04779
G1 X81.815 Y110.998 E.04779
G1 X81.401 Y109.531 E.04779
G1 X81.104 Y108.036 E.04779
G1 X80.925 Y106.523 E.04779
G1 X80.865 Y105 E.04779
G1 X80.925 Y103.477 E.04779
G1 X81.104 Y101.964 E.04779
G1 X81.401 Y100.469 E.04779
G1 X81.815 Y99.002 E.04779
G1 X82.342 Y97.572 E.04779
G1 X82.98 Y96.188 E.04779
G1 X83.725 Y94.858 E.04779
G1 X84.572 Y93.591 E.04779
G1 X85.515 Y92.394 E.04779
G1 X86.55 Y91.275 E.04779
G1 X87.625 Y90.281 E.04591
M204 S1000
G1 X87.596 Y89.847 F10800
;WIPE_START
G1 F8640
G1 X88.866 Y89.297 E-.36573
G1 X90.133 Y88.45 E-.35192
G1 X90.293 Y88.36 E-.04235
;WIPE_END
G1 E-.04 F2100
G1 Z.6 F720
G1 X79.203 Y88.987 F10800
G1 Z.2 F720
G1 E.8 F2100
M204 S800
;TYPE:Perimeter
G1 F1200
G1 X79.359 Y88.987 E.0049
G1 X84.262 Y84.084 E.21742
G1 X84.262 Y80.887 E.10023
G1 X116.288 Y80.887 E1.00415
G1 X116.288 Y84.084 E.10023
G1 X121.191 Y88.987 E.21742
G1 X124.388 Y88.987 E.10023
G1 X124.388 Y121.013 E1.00415
G1 X121.191 Y121.013 E.10023
G1 X116.288 Y125.916 E.21742
G1 X116.288 Y129.113 E.10023
G1 X84.262 Y129.113 E1.00415
G1 X84.262 Y125.916 E.10023
G1 X79.359 Y121.013 E.21742
G1 X76.162 Y121.013 E.10023
G1 X76.162 Y88.987 E1.00415
G1 X79.143 Y88.987 E.09345
M204 S1000
G1 X79.203 Y88.61 F10800
M204 S800
;TYPE:External perimeter
M73 Q1 S72
G1 F1200
G1 X83.885 Y83.927 E.20763
G1 X83.885 Y80.51 E.10715
M73 P1 R72
G1 X116.665 Y80.51 E1.02779
G1 X116.665 Y83.927 E.10715
G1 X121.348 Y88.61 E.20763
G1 X124.765 Y88.61 E.10715
G1 X124.765 Y121.39 E1.02779
G1 X121.347 Y121.39 E.10715
G1 X116.665 Y126.073 E.20763
G1 X116.665 Y129.49 E.10715
G1 X83.885 Y129.49 E1.02779
G1 X83.885 Y126.073 E.10715
G1 X80.006 Y122.194 E.172
G1 X79.202 Y121.39 E.03563
G1 X75.785 Y121.39 E.10715
G1 X75.785 Y88.61 E1.02779
G1 X79.143 Y88.61 E.10527
M204 S1000
G1 X79.602 Y88.624 F10800
;WIPE_START
G1 F8640
G1 X81.485 Y86.297 E-.76
;WIPE_END
G1 E-.04 F2100
G1 Z.6 F720
G1 X123.508 Y89.1 F10800
G1 Z.2 F720
G1 E.8 F2100
M204 S800
;TYPE:Solid infill
;WIDTH:0.421979
G1 F1200
G1 X124.105 Y89.697 E.0266
G1 X124.105 Y90.233 E.0169
G1 X123.142 Y89.27 E.04293
G1 X122.606 Y89.27 E.0169
G1 X124.105 Y90.769 E.06683
G1 X124.105 Y91.305 E.0169
G1 X121.9 Y89.1 E.09829
M204 S1000
;WIPE_START
G1 F8640
G1 X124.105 Y91.305 E-.72003
G1 X124.105 Y91.132 E-.03997
;WIPE_END
G1 E-.04 F2100
G1 Z.6 F720
G1 X116.175 Y81.767 F10800
G1 Z.2 F720
G1 E.8 F2100
M204 S800
G1 F1200
G1 X115.578 Y81.17 E.0266
G1 X115.042 Y81.17 E.0169
G1 X116.005 Y82.133 E.04293
G1 X116.005 Y82.669 E.0169
G1 X114.506 Y81.17 E.06683
G1 X113.97 Y81.17 E.0169
G1 X116.175 Y83.375 E.09829
M204 S1000
;WIPE_START
G1 F8640
G1 X113.97 Y81.17 E-.72003
G1 X114.143 Y81.17 E-.03997
;WIPE_END
G1 E-.04 F2100
G1 Z.6 F720
G1 X113.264 Y81 F10800
G1 Z.2 F720
G1 E.8 F2100
M204 S800
G1 F1200
G1 X116.005 Y83.741 E.12218
G1 X116.005 Y84.201 E.01449
G1 X121.074 Y89.27 E.22595
G1 X121.534 Y89.27 E.01449
G1 X124.105 Y91.841 E.11462
G1 X124.105 Y92.377 E.0169
G1 X112.898 Y81.17 E.49957
G1 X112.362 Y81.17 E.0169
G1 X124.105 Y92.913 E.52346
G1 X124.105 Y93.449 E.0169
G1 X111.826 Y81.17 E.54736
G1 X111.289 Y81.17 E.0169
M73 P1 R71
G1 X124.105 Y93.986 E.57125
G1 X124.105 Y94.522 E.0169
G1 X110.753 Y81.17 E.59515
G1 X110.217 Y81.17 E.0169
G1 X124.105 Y95.058 E.61904
G1 X124.105 Y95.594 E.0169
G1 X109.681 Y81.17 E.64294
G1 X109.145 Y81.17 E.0169
G1 X124.105 Y96.13 E.66683
G1 X124.105 Y96.666 E.0169
G1 X108.609 Y81.17 E.69073
G1 X108.073 Y81.17 E.0169
G1 X124.105 Y97.202 E.71462
G1 X124.105 Y97.738 E.0169
G1 X107.537 Y81.17 E.73852
G1 X107.001 Y81.17 E.0169
G1 X124.105 Y98.274 E.76241
G1 X124.105 Y98.81 E.0169
G1 X106.465 Y81.17 E.78631
G1 X105.929 Y81.17 E.0169
G1 X124.105 Y99.346 E.8102
G1 X124.105 Y99.882 E.0169
G1 X105.393 Y81.17 E.8341
G1 X104.857 Y81.17 E.0169
M73 Q1 S71
G1 X124.105 Y100.418 E.85799
G1 X124.105 Y100.954 E.0169
G1 X116.833 Y93.682 E.32416
G1 X116.513 Y93.203 E.01818
G1 X115.537 Y91.965 E.04967
G1 X114.467 Y90.808 E.04967
G1 X113.309 Y89.737 E.04973
G1 X112.002 Y88.716 E.05226
G1 X111.593 Y88.442 E.01552
G1 X104.321 Y81.17 E.32416
G1 X103.784 Y81.17 E.0169
G1 X110.17 Y87.556 E.28464
G1 X109.387 Y87.117 E.02829
G1 X109.032 Y86.953 E.01233
G1 X103.248 Y81.17 E.25779
G1 X102.712 Y81.17 E.0169
G1 X108.037 Y86.495 E.23735
G1 X107.176 Y86.169 E.02902
G1 X102.176 Y81.17 E.22285
G1 X101.64 Y81.17 E.0169
G1 X106.345 Y85.874 E.20969
G1 X105.598 Y85.664 E.02445
G1 X101.104 Y81.17 E.20031
G1 X100.568 Y81.17 E.0169
G1 X104.863 Y85.464 E.19143
G1 X104.193 Y85.331 E.0215
G1 X100.032 Y81.17 E.18549
G1 X99.496 Y81.17 E.0169
G1 X103.524 Y85.198 E.17956
G1 X102.906 Y85.116 E.01965
G1 X98.96 Y81.17 E.17591
G1 X98.424 Y81.17 E.0169
G1 X102.298 Y85.044 E.1727
G1 X101.704 Y84.986 E.01883
G1 X97.888 Y81.17 E.1701
G1 X97.352 Y81.17 E.0169
G1 X101.148 Y84.966 E.16922
G1 X100.592 Y84.947 E.01752
G1 X96.816 Y81.17 E.16835
G1 X96.28 Y81.17 E.0169
G1 X100.048 Y84.938 E.16797
G1 X99.532 Y84.958 E.01627
G1 X95.743 Y81.17 E.16888
G1 X95.207 Y81.17 E.0169
G1 X99.016 Y84.979 E.16978
G1 X98.515 Y85.013 E.01585
G1 X94.671 Y81.17 E.17131
G1 X94.135 Y81.17 E.0169
G1 X98.035 Y85.07 E.17384
G1 X97.556 Y85.127 E.01521
G1 X93.599 Y81.17 E.17637
G1 X93.063 Y81.17 E.0169
G1 X97.081 Y85.187 E.17907
G1 X96.633 Y85.276 E.01437
G1 X92.527 Y81.17 E.18304
G1 X91.991 Y81.17 E.0169
G1 X96.186 Y85.365 E.187
G1 X95.739 Y85.454 E.01437
G1 X91.455 Y81.17 E.19097
G1 X90.919 Y81.17 E.0169
G1 X95.311 Y85.562 E.19579
G1 X94.893 Y85.68 E.01369
G1 X90.383 Y81.17 E.20105
G1 X89.847 Y81.17 E.0169
G1 X94.475 Y85.798 E.20631
G1 X94.058 Y85.917 E.01367
G1 X89.311 Y81.17 E.21161
G1 X88.775 Y81.17 E.0169
G1 X93.666 Y86.062 E.21805
G1 X93.275 Y86.206 E.01316
G1 X88.238 Y81.17 E.22449
G1 X87.702 Y81.17 E.0169
G1 X92.883 Y86.351 E.23093
G1 X92.498 Y86.502 E.01304
G1 X87.166 Y81.17 E.23765
G1 X86.63 Y81.17 E.0169
G1 X92.131 Y86.671 E.24519
G1 X91.764 Y86.84 E.01273
M73 Q2 S71
G1 X86.094 Y81.17 E.25273
M73 P2 R71
G1 X85.558 Y81.17 E.0169
G1 X91.397 Y87.009 E.26027
G1 X91.039 Y87.187 E.01261
G1 X85.022 Y81.17 E.26819
G1 X84.545 Y81.17 E.01504
G1 X84.545 Y81.229 E.00186
G1 X90.695 Y87.379 E.27414
G1 X90.351 Y87.571 E.01241
G1 X84.545 Y81.765 E.25882
G1 X84.545 Y82.301 E.0169
G1 X90.008 Y87.764 E.24351
G1 X89.672 Y87.964 E.01232
G1 X84.545 Y82.837 E.22855
G1 X84.545 Y83.373 E.0169
G1 X89.351 Y88.179 E.21422
G1 X89.03 Y88.394 E.01218
G1 X84.545 Y83.909 E.1999
G1 X84.545 Y84.201 E.00919
G1 X84.423 Y84.323 E.00545
G1 X88.708 Y88.609 E.19102
G1 X88.393 Y88.829 E.01213
G1 X84.155 Y84.591 E.18892
G1 X83.887 Y84.859 E.01195
G1 X88.093 Y89.066 E.18751
G1 X87.793 Y89.302 E.01203
G1 X83.619 Y85.127 E.18609
G1 X83.351 Y85.395 E.01195
G1 X87.494 Y89.538 E.18468
G1 X87.197 Y89.778 E.01201
G1 X83.082 Y85.663 E.18341
G1 X82.814 Y85.931 E.01195
G1 X86.919 Y90.035 E.18294
G1 X86.64 Y90.293 E.01196
G1 X82.546 Y86.199 E.18247
G1 X82.278 Y86.467 E.01195
G1 X86.361 Y90.55 E.182
G1 X86.083 Y90.808 E.01196
G1 X82.01 Y86.735 E.18153
G1 X81.742 Y87.003 E.01195
G1 X85.825 Y91.086 E.182
G1 X85.568 Y91.365 E.01196
G1 X81.474 Y87.271 E.18247
G1 X81.206 Y87.539 E.01195
G1 X85.31 Y91.644 E.18294
G1 X85.053 Y91.922 E.01196
G1 X80.938 Y87.807 E.18341
G1 X80.67 Y88.076 E.01195
G1 X84.813 Y92.219 E.18468
G1 X84.577 Y92.518 E.01203
G1 X80.402 Y88.344 E.18609
G1 X80.134 Y88.612 E.01195
G1 X84.341 Y92.818 E.1875
G1 X84.104 Y93.118 E.01203
G1 X79.866 Y88.88 E.18892
G1 X79.598 Y89.148 E.01195
G1 X83.884 Y93.433 E.19102
G1 X83.669 Y93.754 E.01218
G1 X79.184 Y89.27 E.1999
G1 X78.648 Y89.27 E.0169
G1 X83.454 Y94.076 E.21422
G1 X83.239 Y94.397 E.01218
G1 X78.112 Y89.27 E.22855
G1 X77.576 Y89.27 E.0169
G1 X83.039 Y94.733 E.24351
G1 X82.846 Y95.076 E.01241
G1 X77.04 Y89.27 E.25882
G1 X76.504 Y89.27 E.0169
G1 X82.654 Y95.42 E.27414
G1 X82.462 Y95.764 E.01241
G1 X76.445 Y89.747 E.26819
G1 X76.445 Y90.283 E.0169
G1 X82.284 Y96.122 E.26028
G1 X82.115 Y96.489 E.01273
G1 X76.445 Y90.819 E.25274
G1 X76.445 Y91.355 E.0169
G1 X81.946 Y96.856 E.2452
G1 X81.777 Y97.223 E.01273
G1 X76.445 Y91.891 E.23766
G1 X76.445 Y92.427 E.0169
G1 X81.626 Y97.608 E.23093
G1 X81.481 Y98 E.01316
G1 X76.445 Y92.963 E.22449
G1 X76.445 Y93.499 E.0169
G1 X81.337 Y98.391 E.21805
G1 X81.192 Y98.783 E.01316
G1 X76.445 Y94.036 E.21161
G1 X76.445 Y94.572 E.0169
G1 X81.073 Y99.2 E.20631
G1 X80.955 Y99.618 E.01369
G1 X76.445 Y95.108 E.20105
G1 X76.445 Y95.644 E.0169
G1 X80.837 Y100.036 E.19579
G1 X80.729 Y100.464 E.01391
G1 X76.445 Y96.18 E.19097
G1 X76.445 Y96.716 E.0169
G1 X80.64 Y100.911 E.187
G1 X80.551 Y101.358 E.01437
