; generated by PrusaSlicer 2.4.2+win64 on 2022-05-24 at 06:46:23 UTC


;
;
; 

; external perimeters extrusion width = 0.45mm
; perimeters extrusion width = 0.45mm
; infill extrusion width = 0.45mm
; solid infill extrusion width = 0.45mm
; top infill extrusion width = 0.40mm
; first layer extrusion width = 0.42mm

M73 P0 R42
M73 C40
M73 Q0 S43
M73 D40
M201 X1000 Y1000 Z200 E5000 ; sets maximum accelerations, mm/sec^2
M203 X200 Y200 Z12 E120 ; sets maximum feedrates, mm / sec
M204 P1250 R1250 T1250 ; sets acceleration (P, T) and retract acceleration (R), mm/sec^2
M205 X8.00 Y8.00 Z0.40 E4.50 ; sets the jerk limits, mm/sec
M205 S0 T0 ; sets the minimum extruding and travel feed rate, mm/sec
M107
;TYPE:Custom
M862.3 P "MK3S" ; printer model check
M862.1 P0.4 ; nozzle diameter check
M115 U3.11.0 ; tell printer latest fw version
G90 ; use absolute coordinates
M83 ; extruder relative mode
M104 S205 ; set extruder temp
M140 S60 ; set bed temp
M190 S60 ; wait for bed temp
M109 S205 ; wait for extruder temp
G28 W ; home all without mesh bed level
G80 ; mesh bed leveling
G1 Z0.2 F720
G1 Y-3 F1000 ; go outside print area
G92 E0
G1 X60 E9 F1000 ; intro line
G1 X100 E12.5 F1000 ; intro line
G92 E0
M221 S95

; Don't change E values below. Excessive value can damage the printer.

M907 E538 ; set extruder motor current
G21 ; set units to millimeters
G90 ; use absolute coordinates
M83 ; use relative distances for extrusion
M900 K0.05 ; Filament gcode LA 1.5
M900 K30 ; Filament gcode LA 1.0
M107
;LAYER_CHANGE
;Z:0.2
;HEIGHT:0.2
;BEFORE_LAYER_CHANGE
G92 E0.0
;0.2


M73 Q0 S42
G1 E-.8 F2100
G1 Z.4 F720
;AFTER_LAYER_CHANGE
;0.2
G1 X101.265 Y82.103 F10800
G1 Z.2 F720
G1 E.8 F2100
M204 S800
;TYPE:Skirt/Brim
;WIDTH:0.42
G1 F1200
G1 X101.838 Y81.484 E.02644
G1 X102.544 Y80.971 E.02736
G1 X103.162 Y80.672 E.02153
G1 X121.638 Y75.017 E.60582
G1 X122.75 Y74.873 E.03517
G1 X132.843 Y74.875 E.31647
G1 X134.063 Y75.075 E.03874
G1 X152.338 Y80.672 E.59928
G1 X153.246 Y81.155 E.03226
G1 X153.91 Y81.722 E.02737
G1 X154.426 Y82.375 E.02609
G1 X154.828 Y83.163 E.02774
G1 X155.057 Y83.972 E.02638
G1 X155.127 Y84.748 E.02442
G1 X155.127 Y130.752 E1.44242
G1 X155.029 Y131.669 E.0289
G1 X154.692 Y132.651 E.03255
G1 X154.016 Y133.663 E.03815
G1 X153.116 Y134.432 E.03712
G1 X152.013 Y134.94 E.03808
G1 X150.845 Y135.125 E.03706
G1 X104.748 Y135.127 E1.44535
G1 X103.818 Y135.026 E.02932
G1 X102.846 Y134.69 E.03225
G1 X102.103 Y134.235 E.02733
G1 X101.484 Y133.663 E.02644
G1 X100.971 Y132.957 E.02736
G1 X100.618 Y132.19 E.02645
G1 X95.075 Y114.063 E.59436
G1 X94.875 Y112.843 E.03874
G1 X94.873 Y102.75 E.31647
G1 X94.943 Y101.973 E.02445
G1 X100.575 Y83.437 E.60741
G1 X100.809 Y82.847 E.01993
G1 X101.234 Y82.154 E.02548
M204 S1000
; printing object UC2_Baseplate_puzzle.stl id:0 copy 0
;WIPE_START
G1 F8640
G1 X101.838 Y81.484 E-.20829
G1 X102.544 Y80.971 E-.20149
G1 X103.162 Y80.672 E-.15858
G1 X103.956 Y80.429 E-.19164
;WIPE_END
G1 E-.04 F2100
G1 Z.6 F720
G1 X106.067 Y104.921 F10800
G1 Z.2 F720
G1 E.8 F2100
M204 S800
;TYPE:External perimeter
G1 F1200
G1 X106.299 Y104.875 E.00742
G1 X106.732 Y104.84 E.01362
G1 X107.201 Y104.875 E.01475
G1 X107.433 Y104.921 E.00744
G1 X107.864 Y105.061 E.01419
G1 X108.271 Y105.268 E.01432
G1 X108.623 Y105.523 E.01362
G1 X108.811 Y105.694 E.00798
G1 X109.105 Y106.039 E.01421
G1 X109.341 Y106.425 E.01419
G1 X109.441 Y106.64 E.00743
G1 X109.579 Y107.067 E.01406
G1 X109.625 Y107.299 E.00742
G1 X109.661 Y107.75 E.01419
G1 X109.625 Y108.201 E.01419
G1 X109.579 Y108.433 E.00742
G1 X109.441 Y108.86 E.01406
G1 X109.341 Y109.075 E.00743
G1 X109.105 Y109.461 E.01419
G1 X108.811 Y109.805 E.01419
G1 X108.637 Y109.966 E.00742
G1 X108.271 Y110.232 E.01419
G1 X107.864 Y110.439 E.01432
G1 X107.433 Y110.579 E.01419
G1 X107.201 Y110.625 E.00742
G1 X106.75 Y110.661 E.01419
G1 X106.299 Y110.625 E.01419
G1 X106.067 Y110.579 E.00742
G1 X105.636 Y110.439 E.01419
G1 X105.229 Y110.232 E.01432
G1 X104.877 Y109.977 E.01362
G1 X104.689 Y109.806 E.00798
G1 X104.395 Y109.461 E.01421
G1 X104.159 Y109.075 E.01419
G1 X104.059 Y108.86 E.00743
G1 X103.921 Y108.433 E.01406
G1 X103.875 Y108.201 E.00742
G1 X103.839 Y107.75 E.01419
G1 X103.875 Y107.299 E.01419
G1 X103.921 Y107.067 E.00742
G1 X104.059 Y106.64 E.01406
G1 X104.159 Y106.425 E.00743
G1 X104.395 Y106.039 E.01419
G1 X104.689 Y105.695 E.01419
G1 X104.863 Y105.534 E.00742
G1 X105.229 Y105.268 E.01419
G1 X105.636 Y105.061 E.01432
G1 X106.009 Y104.939 E.01231
M204 S1000
G1 X106.128 Y104.692 F10800
G1 X105.491 Y104.711
M204 S800
;TYPE:Perimeter
G1 F1200
G1 X105.031 Y104.946 E.01618
G1 X104.623 Y105.242 E.01582
G1 X104.417 Y105.433 E.00882
G1 X104.089 Y105.817 E.01582
G1 X103.825 Y106.247 E.01582
G1 X103.708 Y106.502 E.00882
G1 X103.555 Y106.971 E.01545
G1 X103.501 Y107.247 E.00882
G1 X103.461 Y107.75 E.01582
G1 X103.501 Y108.253 E.01582
G1 X103.555 Y108.529 E.00882
G1 X103.708 Y108.998 E.01545
G1 X103.825 Y109.253 E.00882
G1 X104.089 Y109.683 E.01582
G1 X104.418 Y110.068 E.01588
G1 X104.639 Y110.27 E.00939
G1 X105.032 Y110.555 E.01521
G1 X105.491 Y110.789 E.01617
G1 X105.971 Y110.945 E.01582
G1 X106.247 Y110.999 E.00882
G1 X106.75 Y111.039 E.01582
G1 X107.253 Y110.999 E.01582
G1 X107.529 Y110.945 E.00882
G1 X108.009 Y110.789 E.01582
G1 X108.469 Y110.554 E.01618
G1 X108.877 Y110.258 E.01582
G1 X109.083 Y110.067 E.00882
G1 X109.411 Y109.683 E.01582
G1 X109.675 Y109.253 E.01582
G1 X109.792 Y108.998 E.00882
G1 X109.969 Y108.408 E.0193
G1 X109.974 Y120.62 E.3829
G1 X109.876 Y120.444 E.00632
G1 X109.565 Y120.017 E.01657
G1 X109.192 Y119.643 E.01656
G1 X108.962 Y119.462 E.00919
G1 X108.521 Y119.192 E.01619
G1 X108.255 Y119.069 E.00919
G1 X107.764 Y118.91 E.01619
G1 X107.476 Y118.852 E.00922
G1 X106.937 Y118.811 E.01694
G1 X106.423 Y118.852 E.01615
G1 X106.136 Y118.91 E.00918
G1 X105.634 Y119.073 E.01656
G1 X105.153 Y119.318 E.01692
G1 X104.716 Y119.635 E.01692
G1 X104.343 Y120.008 E.01656
G1 X104.162 Y120.238 E.00919
G1 X103.886 Y120.689 E.01656
G1 X103.679 Y121.187 E.01692
G1 X103.553 Y121.712 E.01692
G1 X103.54 Y121.881 E.00532
G1 X103.537 Y111.962 E.31101
G1 X101.648 Y111.965 E.05922
G1 X101.438 Y111.998 E.00669
G1 X101.153 Y112.103 E.00952
G1 X100.844 Y112.328 E.01197
G1 X100.739 Y112.461 E.00532
G1 X100.603 Y112.461 E.00428
G1 X100.367 Y113.217 E.02482
G1 X100.283 Y113.383 E.00584
G1 X100.171 Y113.536 E.00596
G1 X100.036 Y113.671 E.00596
G1 X99.883 Y113.783 E.00596
G1 X99.724 Y113.864 E.00559
G1 X99.428 Y113.947 E.00964
G1 X99.25 Y113.961 E.00559
G1 X99.072 Y113.947 E.0056
G1 X98.776 Y113.864 E.00964
G1 X98.628 Y113.788 E.00523
G1 X98.386 Y113.597 E.00964
G1 X98.278 Y113.471 E.00523
G1 X98.133 Y113.213 E.00927
G1 X98.053 Y112.928 E.00927
G1 X98.037 Y112.723 E.00644
G1 X98.037 Y102.788 E.3115
G1 X98.076 Y102.456 E.01049
G1 X98.131 Y102.287 E.00559
G1 X98.217 Y102.117 E.00596
G1 X98.329 Y101.964 E.00596
G1 X98.464 Y101.829 E.00596
G1 X98.617 Y101.717 E.00596
G1 X98.787 Y101.631 E.00595
G1 X98.967 Y101.573 E.00596
G1 X99.155 Y101.543 E.00596
G1 X99.345 Y101.543 E.00596
G1 X99.533 Y101.573 E.00596
G1 X99.713 Y101.631 E.00596
G1 X99.872 Y101.712 E.00559
G1 X100.114 Y101.903 E.00964
G1 X100.23 Y102.038 E.00559
G1 X100.329 Y102.2 E.00596
G1 X100.406 Y102.387 E.00632
G1 X100.59 Y103.039 E.02126
G1 X100.734 Y103.039 E.00451
G1 X100.846 Y103.17 E.00541
G1 X101.075 Y103.351 E.00915
G1 X101.351 Y103.478 E.00951
G1 X101.637 Y103.535 E.00914
G1 X103.537 Y103.538 E.05959
G1 X103.537 Y93.582 E.31217
G1 X103.553 Y93.788 E.00648
G1 X103.677 Y94.301 E.01656
G1 X103.778 Y94.576 E.00919
G1 X104.012 Y95.037 E.01619
G1 X104.175 Y95.28 E.00919
G1 X104.518 Y95.682 E.01656
G1 X104.929 Y96.032 E.01692
G1 X105.379 Y96.308 E.01656
G1 X105.645 Y96.431 E.00919
G1 X106.136 Y96.59 E.01619
G1 X106.424 Y96.648 E.00919
G1 X106.951 Y96.689 E.01658
G1 X107.501 Y96.644 E.0173
G1 X108.002 Y96.523 E.01615
G1 X108.265 Y96.426 E.00881
G1 X108.521 Y96.308 E.00883
G1 X108.971 Y96.032 E.01656
G1 X109.373 Y95.689 E.01656
G1 X109.572 Y95.474 E.00919
G1 X109.883 Y95.046 E.01658
G1 X109.967 Y94.88 E.00584
G1 X109.968 Y107.089 E.38281
G1 X109.792 Y106.502 E.01921
G1 X109.675 Y106.247 E.00882
G1 X109.411 Y105.817 E.01582
G1 X109.082 Y105.432 E.01588
G1 X108.861 Y105.23 E.00939
G1 X108.468 Y104.945 E.01521
G1 X108.009 Y104.711 E.01617
G1 X107.529 Y104.555 E.01582
G1 X107.252 Y104.5 E.00886
G1 X106.73 Y104.462 E.01639
G1 X106.246 Y104.501 E.01522
G1 X105.971 Y104.555 E.0088
G1 X105.548 Y104.693 E.01394
M204 S1000
;WIPE_START
G1 F8640
G1 X105.031 Y104.946 E-.13289
G1 X104.623 Y105.242 E-.11647
G1 X104.417 Y105.433 E-.06494
G1 X104.089 Y105.817 E-.11651
G1 X103.825 Y106.247 E-.1165
G1 X103.708 Y106.502 E-.06496
G1 X103.555 Y106.971 E-.11381
G1 X103.527 Y107.115 E-.03391
;WIPE_END
G1 E-.04 F2100
G1 Z.6 F720
G1 X106.475 Y96.273 F10800
G1 Z.2 F720
G1 E.8 F2100
M204 S800
;TYPE:External perimeter
G1 F1200
G1 X106.232 Y96.225 E.00779
G1 X105.783 Y96.079 E.0148
G1 X105.557 Y95.975 E.00779
G1 X105.151 Y95.726 E.01493
G1 X104.786 Y95.414 E.01506
G1 X104.476 Y95.052 E.01493
G1 X104.338 Y94.846 E.00779
G1 X104.124 Y94.425 E.0148
G1 X104.038 Y94.192 E.00779
G1 X103.927 Y93.729 E.01493
G1 X103.889 Y93.25 E.01507
G1 X103.929 Y92.759 E.01544
M73 Q1 S42
G1 X104.038 Y92.308 E.01454
G1 X104.123 Y92.079 E.00766
G1 X104.225 Y91.857 E.00766
G1 X104.474 Y91.451 E.01493
G1 X104.787 Y91.085 E.0151
M73 P1 R42
G1 X105.156 Y90.777 E.01508
G1 X105.372 Y90.648 E.0079
G1 X105.607 Y90.543 E.00804
G1 X106.087 Y90.437 E.01542
G1 X106.323 Y90.449 E.00741
G1 X106.944 Y90.389 E.01955
G1 X107.393 Y90.424 E.01413
G1 X107.622 Y90.47 E.0073
G1 X108.646 Y90.831 E.03407
G1 X108.879 Y90.948 E.00816
G1 X109.262 Y91.258 E.01545
G1 X109.558 Y91.649 E.01538
G1 X109.775 Y92.076 E.01502
G1 X109.86 Y92.312 E.00785
G1 X109.964 Y92.778 E.01497
G1 X109.987 Y93.25 E.01483
G1 X109.964 Y93.722 E.01483
G1 X109.86 Y94.188 E.01497
G1 X109.776 Y94.424 E.00784
G1 X109.56 Y94.849 E.01495
G1 X109.28 Y95.234 E.01494
G1 X109.111 Y95.417 E.00779
G1 X108.749 Y95.726 E.01493
G1 X108.343 Y95.975 E.01493
G1 X107.892 Y96.162 E.01531
G1 X107.441 Y96.271 E.01454
G1 X106.95 Y96.311 E.01544
G1 X106.535 Y96.278 E.01306
M204 S1000
G1 X106.324 Y96.471 F10800
;WIPE_START
G1 F8640
G1 X106.232 Y96.225 E-.07118
G1 X105.783 Y96.079 E-.10898
G1 X105.557 Y95.975 E-.0574
G1 X105.151 Y95.726 E-.10995
G1 X104.786 Y95.414 E-.11091
G1 X104.476 Y95.052 E-.10994
G1 X104.338 Y94.846 E-.05739
G1 X104.124 Y94.425 E-.10899
G1 X104.086 Y94.322 E-.02526
;WIPE_END
G1 E-.04 F2100
G1 Z.6 F720
G1 X110.583 Y89.151 F10800
G1 Z.2 F720
G1 E.8 F2100
M204 S800
;TYPE:Perimeter
G1 F1200
G1 X110.614 Y89.055 E.00316
G1 X110.994 Y89.535 E.0192
G1 X111.448 Y89.879 E.01786
G1 X111.894 Y90.106 E.01568
G1 X111.695 Y90.169 E.00654
G1 X111.474 Y90.271 E.00762
G1 X111.111 Y90.494 E.01337
G1 X110.778 Y90.778 E.01373
G1 X110.494 Y91.111 E.01373
G1 X110.271 Y91.474 E.01337
G1 X110.101 Y91.885 E.01392
G1 X109.879 Y91.448 E.01535
G1 X109.535 Y90.994 E.01786
G1 X109.055 Y90.614 E.0192
G1 X109.605 Y90.363 E.01896
G1 X110.021 Y90.021 E.01689
G1 X110.363 Y89.605 E.01689
G1 X110.557 Y89.205 E.01394
M204 S1000
;WIPE_START
G1 F8640
G1 X110.614 Y89.055 E-.03708
G1 X110.994 Y89.535 E-.14137
G1 X111.448 Y89.879 E-.13153
G1 X111.894 Y90.106 E-.11546
G1 X111.695 Y90.169 E-.04815
G1 X111.474 Y90.271 E-.05612
G1 X111.111 Y90.494 E-.09847
G1 X110.778 Y90.778 E-.10108
G1 X110.691 Y90.879 E-.03073
;WIPE_END
G1 E-.04 F2100
G1 Z.6 F720
G1 X110.523 Y91.828 F10800
G1 Z.2 F720
G1 E.8 F2100
M204 S800
;TYPE:External perimeter
G1 F1200
G1 X110.604 Y91.652 E.00607
G1 X110.8 Y91.333 E.01174
G1 X111.045 Y91.045 E.01186
G1 X111.333 Y90.8 E.01186
G1 X111.652 Y90.604 E.01174
G1 X111.832 Y90.522 E.0062
G1 X112.189 Y90.407 E.01176
G1 X112.564 Y90.352 E.01189
G1 X142.938 Y90.352 E.95234
G1 X143.307 Y90.407 E.01169
G1 X143.498 Y90.459 E.00622
G1 X143.844 Y90.602 E.01175
G1 X144.163 Y90.797 E.01174
G1 X144.319 Y90.92 E.00619
G1 X144.583 Y91.184 E.01173
G1 X144.806 Y91.49 E.01186
G1 X144.977 Y91.828 E.01188
G1 X145.093 Y92.189 E.01188
G1 X145.148 Y92.562 E.01183
G1 X145.16 Y120.294 E.86951
G1 X145.136 Y122.259 E.06161
G1 X145.15 Y122.759 E.0157
G1 X145.128 Y123.124 E.01145
G1 X145.043 Y123.49 E.01177
G1 X144.975 Y123.676 E.00622
G1 X144.807 Y124.006 E.01161
G1 X144.58 Y124.319 E.01212
G1 X144.316 Y124.583 E.01173
G1 X144.01 Y124.806 E.01186
G1 X143.672 Y124.977 E.01188
G1 X143.311 Y125.093 E.01188
G1 X142.938 Y125.148 E.01183
G1 X115.206 Y125.16 E.8695
G1 X113.241 Y125.136 E.06161
G1 X112.741 Y125.15 E.0157
M73 C39
G1 X112.376 Y125.128 E.01145
G1 X112.021 Y125.047 E.01142
G1 X111.825 Y124.975 E.00656
G1 X111.494 Y124.807 E.01162
G1 X111.181 Y124.58 E.01212
G1 X110.917 Y124.316 E.01173
G1 X110.694 Y124.01 E.01187
G1 X110.523 Y123.672 E.01187
G1 X110.407 Y123.311 E.01189
G1 X110.352 Y122.938 E.01183
G1 X110.352 Y92.568 E.95221
G1 X110.373 Y92.371 E.00621
G1 X110.503 Y91.884 E.0158
M204 S1000
G1 X110.401 Y91.678 F10800
;WIPE_START
G1 F8640
G1 X110.604 Y91.652 E-.05851
G1 X110.8 Y91.333 E-.08642
G1 X111.045 Y91.045 E-.08736
G1 X111.333 Y90.8 E-.08736
G1 X111.652 Y90.604 E-.08642
G1 X111.832 Y90.522 E-.04569
G1 X112.189 Y90.407 E-.08657
G1 X112.564 Y90.352 E-.08756
G1 X113.145 Y90.352 E-.13411
;WIPE_END
G1 E-.04 F2100
G1 Z.6 F720
G1 X110.127 Y85.703 F10800
G1 Z.2 F720
G1 E.8 F2100
M204 S800
;TYPE:Perimeter
G1 F1200
G1 X110.041 Y85.562 E.00518
G1 X109.66 Y85.174 E.01704
G1 X109.214 Y84.89 E.01658
G1 X108.744 Y84.693 E.01598
G1 X108.252 Y84.575 E.01586
G1 X107.737 Y84.536 E.01619
G1 X107.258 Y84.575 E.01505
G1 X106.989 Y84.628 E.00862
G1 X106.531 Y84.777 E.01509
G1 X106.281 Y84.892 E.00863
G1 X105.871 Y85.144 E.01509
G1 X105.47 Y85.486 E.01653
G1 X105.15 Y85.861 E.01545
G1 X104.892 Y86.281 E.01545
G1 X104.777 Y86.531 E.00863
G1 X104.625 Y87 E.01545
G1 X104.548 Y87.486 E.01545
G1 X104.548 Y88.014 E.01653
G1 X104.625 Y88.5 E.01546
G1 X104.778 Y88.97 E.01548
G1 X104.896 Y89.224 E.0088
G1 X105.174 Y89.66 E.0162
G1 X105.571 Y90.05 E.01744
G1 X105.719 Y90.132 E.00532
G1 X105.488 Y90.183 E.00744
G1 X105.198 Y90.313 E.00996
G1 X104.937 Y90.468 E.00952
G1 X104.521 Y90.816 E.01701
G1 X104.168 Y91.228 E.01703
G1 X103.892 Y91.679 E.01656
G1 X103.774 Y91.934 E.00883
G1 X103.677 Y92.198 E.00881
G1 X103.556 Y92.699 E.01615
G1 X103.537 Y92.929 E.00723
G1 X103.537 Y84.787 E.25529
G1 X103.575 Y84.468 E.01006
G1 X103.673 Y84.201 E.00891
G1 X103.831 Y83.965 E.00891
G1 X104.04 Y83.772 E.00891
G1 X104.298 Y83.628 E.00927
G1 X104.467 Y83.573 E.00559
G1 X104.655 Y83.543 E.00596
G1 X112.877 Y83.54 E.25778
G1 X112.447 Y83.607 E.01362
M73 P1 R41
G1 X112.177 Y83.684 E.00883
G1 X111.689 Y83.886 E.01656
G1 X111.238 Y84.162 E.01656
G1 X111.007 Y84.344 E.00923
G1 X110.641 Y84.714 E.01633
G1 X110.462 Y84.948 E.00925
G1 X110.313 Y85.198 E.00911
G1 X110.189 Y85.475 E.00951
G1 X110.143 Y85.645 E.00552
M204 S1000
G1 X110.438 Y86.092 F10800
M204 S800
;TYPE:External perimeter
G1 F1200
G1 X110.545 Y85.602 E.01574
G1 X110.648 Y85.372 E.00788
G1 X110.775 Y85.16 E.00775
G1 X110.926 Y84.962 E.00781
G1 X111.259 Y84.626 E.01485
G1 X111.454 Y84.472 E.00781
G1 X111.86 Y84.223 E.01493
G1 X112.3 Y84.041 E.01493
G1 X112.536 Y83.974 E.00766
G1 X112.775 Y83.927 E.00766
G1 X113.238 Y83.89 E.01454
G1 X113.729 Y83.927 E.01544
G1 X114.196 Y84.039 E.01507
G1 X114.639 Y84.223 E.01506
G1 X115.035 Y84.465 E.01454
G1 X115.24 Y84.625 E.00817
G1 X115.575 Y84.959 E.01481
G1 X115.728 Y85.154 E.00779
G1 X115.975 Y85.557 E.0148
G1 X116.079 Y85.783 E.00779
G1 X116.226 Y86.235 E.01493
G1 X116.301 Y86.706 E.01493
G1 X116.31 Y86.954 E.00779
G1 X116.273 Y87.429 E.01493
G1 X116.161 Y87.896 E.01506
G1 X115.979 Y88.336 E.01493
G1 X115.857 Y88.553 E.00779
G1 X115.577 Y88.938 E.01493
G1 X115.241 Y89.275 E.01493
G1 X115.045 Y89.428 E.0078
G1 X114.639 Y89.677 E.01494
G1 X114.197 Y89.858 E.01497
G1 X113.954 Y89.922 E.00786
G1 X113.483 Y89.982 E.01491
G1 X112.78 Y89.964 E.02204
G1 X112.312 Y89.86 E.01505
G1 X112.076 Y89.775 E.00785
G1 X111.649 Y89.558 E.01502
G1 X111.258 Y89.262 E.01538
G1 X110.948 Y88.879 E.01545
G1 X110.831 Y88.646 E.00816
G1 X110.692 Y88.226 E.01388
