; generated by PrusaSlicer 2.4.2+win64 on 2022-06-02 at 09:32:27 UTC


;
;
; 

; external perimeters extrusion width = 0.45mm
; perimeters extrusion width = 0.45mm
; infill extrusion width = 0.45mm
; solid infill extrusion width = 0.45mm
; top infill extrusion width = 0.40mm
; first layer extrusion width = 0.42mm

M73 P0 R42
M73 Q0 S42
M201 X1000 Y1000 Z200 E5000 ; sets maximum accelerations, mm/sec^2
M203 X200 Y200 Z12 E120 ; sets maximum feedrates, mm / sec
M204 P1250 R1250 T1250 ; sets acceleration (P, T) and retract acceleration (R), mm/sec^2
M205 X8.00 Y8.00 Z0.40 E4.50 ; sets the jerk limits, mm/sec
M205 S0 T0 ; sets the minimum extruding and travel feed rate, mm/sec
M107
;TYPE:Custom
M862.3 P "MK3S" ; printer model check
M862.1 P0.4 ; nozzle diameter check
M115 U3.11.0 ; tell printer latest fw version
G90 ; use absolute coordinates
M83 ; extruder relative mode
M104 S205 ; set extruder temp
M140 S60 ; set bed temp
M190 S60 ; wait for bed temp
M109 S205 ; wait for extruder temp
G28 W ; home all without mesh bed level
G80 ; mesh bed leveling
G1 Z0.2 F720
G1 Y-3 F1000 ; go outside print area
G92 E0
G1 X60 E9 F1000 ; intro line
G1 X100 E12.5 F1000 ; intro line
G92 E0
M221 S95

; Don't change E values below. Excessive value can damage the printer.
M907 E430 ; set extruder motor current
G21 ; set units to millimeters
G90 ; use absolute coordinates
M83 ; use relative distances for extrusion
M900 K0.05 ; Filament gcode LA 1.5
M900 K30 ; Filament gcode LA 1.0
M107
;LAYER_CHANGE
;Z:0.2
;HEIGHT:0.2
;BEFORE_LAYER_CHANGE
G92 E0.0
;0.2


G1 E-.8 F2100
G1 Z.4 F720
;AFTER_LAYER_CHANGE
;0.2
G1 X98.419 Y86.319 F10800
G1 Z.2 F720
G1 E.8 F2100
M204 S800
;TYPE:Skirt/Brim
;WIDTH:0.42
G1 F1200
G1 X106.319 Y78.419 E.3503
G1 X108 Y77.723 E.05704
G1 X142 Y77.723 E1.06605
G1 X143.681 Y78.419 E.05704
G1 X151.581 Y86.319 E.3503
G1 X152.277 Y88 E.05704
G1 X152.277 Y122 E1.06605
G1 X151.581 Y123.681 E.05704
G1 X143.681 Y131.581 E.3503
G1 X142 Y132.277 E.05704
G1 X108 Y132.277 E1.06605
G1 X106.319 Y131.581 E.05704
G1 X98.419 Y123.681 E.3503
G1 X97.723 Y122 E.05704
G1 X97.723 Y88 E1.06605
G1 X98.396 Y86.375 E.05516
M204 S1000
; printing object 2_20_Cube_Insert_RaspiCam_v3.stl id:0 copy 0
;WIPE_START
G1 F8640
G1 X100.719 Y84.042 E-.76
;WIPE_END
G1 E-.04 F2100
G1 Z.6 F720
G1 X118.666 Y100.398 F10800
G1 Z.2 F720
G1 E.8 F2100
M204 S800
;TYPE:Perimeter
G1 F1200
G1 X118.967 Y100.009 E.01542
G1 X119.293 Y99.64 E.01542
G1 X119.641 Y99.293 E.01542
G1 X120.009 Y98.968 E.01542
G1 X120.398 Y98.666 E.01542
G1 X120.805 Y98.39 E.01542
G1 X121.228 Y98.139 E.01542
G1 X121.667 Y97.916 E.01542
G1 X122.118 Y97.721 E.01542
G1 X122.581 Y97.554 E.01542
G1 X123.053 Y97.417 E.01543
G1 X123.533 Y97.309 E.01542
G1 X124.019 Y97.233 E.01542
G1 X124.508 Y97.186 E.01542
G1 X124.978 Y97.171 E.01474
G1 X125.491 Y97.186 E.01608
G1 X125.981 Y97.233 E.01545
G1 X126.467 Y97.309 E.01542
G1 X126.947 Y97.417 E.01542
G1 X127.419 Y97.554 E.01542
G1 X127.882 Y97.721 E.01542
G1 X128.333 Y97.916 E.01542
G1 X128.772 Y98.139 E.01542
G1 X129.195 Y98.39 E.01542
G1 X129.602 Y98.666 E.01542
G1 X129.991 Y98.967 E.01542
G1 X130.359 Y99.293 E.01542
G1 X130.707 Y99.64 E.01541
G1 X131.032 Y100.009 E.01542
G1 X131.334 Y100.398 E.01542
G1 X131.61 Y100.805 E.01542
G1 X131.861 Y101.228 E.01542
G1 X132.084 Y101.666 E.01542
G1 X132.279 Y102.118 E.01542
G1 X132.446 Y102.581 E.01542
G1 X132.583 Y103.053 E.01542
G1 X132.69 Y103.533 E.01542
G1 X132.767 Y104.019 E.01542
G1 X132.814 Y104.508 E.01542
G1 X132.829 Y105 E.01542
G1 X132.814 Y105.492 E.01542
G1 X132.767 Y105.981 E.01542
G1 X132.69 Y106.467 E.01542
G1 X132.583 Y106.947 E.01542
G1 X132.446 Y107.419 E.01543
G1 X132.279 Y107.882 E.01542
G1 X132.084 Y108.333 E.01542
G1 X131.861 Y108.772 E.01542
G1 X131.61 Y109.195 E.01542
G1 X131.334 Y109.602 E.01542
G1 X131.032 Y109.991 E.01542
G1 X130.707 Y110.359 E.01542
G1 X130.359 Y110.707 E.01542
G1 X129.99 Y111.032 E.01542
G1 X129.602 Y111.334 E.01542
G1 X129.195 Y111.61 E.01542
G1 X128.772 Y111.861 E.01542
G1 X128.334 Y112.084 E.01542
G1 X127.882 Y112.279 E.01542
G1 X127.419 Y112.446 E.01542
G1 X126.947 Y112.583 E.01542
G1 X126.467 Y112.691 E.01542
G1 X125.981 Y112.767 E.01543
G1 X125.491 Y112.814 E.01542
G1 X125 Y112.829 E.01542
G1 X124.508 Y112.814 E.01542
G1 X124.019 Y112.767 E.01543
G1 X123.533 Y112.691 E.01542
G1 X123.053 Y112.583 E.01542
G1 X122.581 Y112.446 E.01542
G1 X122.118 Y112.279 E.01542
G1 X121.666 Y112.084 E.01542
G1 X121.228 Y111.861 E.01542
G1 X120.805 Y111.61 E.01542
G1 X120.398 Y111.334 E.01542
G1 X120.009 Y111.032 E.01542
G1 X119.641 Y110.707 E.01542
G1 X119.293 Y110.359 E.01543
G1 X118.968 Y109.99 E.01542
G1 X118.666 Y109.602 E.01542
G1 X118.39 Y109.195 E.01542
G1 X118.139 Y108.772 E.01542
G1 X117.916 Y108.333 E.01542
G1 X117.721 Y107.882 E.01542
G1 X117.554 Y107.419 E.01542
G1 X117.417 Y106.947 E.01542
G1 X117.309 Y106.467 E.01542
G1 X117.232 Y105.981 E.01542
G1 X117.186 Y105.491 E.01543
G1 X117.171 Y105 E.01542
G1 X117.186 Y104.509 E.01542
G1 X117.232 Y104.019 E.01542
G1 X117.309 Y103.533 E.01543
G1 X117.417 Y103.053 E.01542
G1 X117.548 Y102.602 E.01473
G1 X117.72 Y102.119 E.01608
G1 X117.916 Y101.666 E.01545
G1 X118.139 Y101.228 E.01542
G1 X118.39 Y100.805 E.01542
G1 X118.632 Y100.448 E.01354
M204 S1000
G1 X118.971 Y100.62 F10800
M204 S800
;TYPE:External perimeter
G1 F1200
G1 X119.258 Y100.25 E.01468
G1 X119.568 Y99.899 E.01468
G1 X119.899 Y99.568 E.01468
G1 X120.25 Y99.258 E.01468
G1 X120.62 Y98.971 E.01468
G1 X121.007 Y98.708 E.01468
G1 X121.41 Y98.47 E.01468
G1 X121.827 Y98.257 E.01468
G1 X122.257 Y98.071 E.01468
G1 X122.697 Y97.913 E.01468
G1 X123.147 Y97.782 E.01468
G1 X123.604 Y97.68 E.01468
G1 X124.066 Y97.607 E.01468
G1 X124.532 Y97.563 E.01468
G1 X124.979 Y97.549 E.01401
G1 X125.468 Y97.563 E.01534
G1 X125.934 Y97.607 E.01469
G1 X126.396 Y97.68 E.01468
G1 X126.853 Y97.782 E.01468
G1 X127.303 Y97.913 E.01468
G1 X127.743 Y98.071 E.01468
G1 X128.173 Y98.257 E.01468
G1 X128.59 Y98.47 E.01468
G1 X128.993 Y98.708 E.01468
G1 X129.38 Y98.971 E.01468
G1 X129.75 Y99.258 E.01468
G1 X130.101 Y99.568 E.01468
G1 X130.432 Y99.899 E.01467
G1 X130.742 Y100.25 E.01468
G1 X131.029 Y100.62 E.01468
G1 X131.292 Y101.007 E.01468
G1 X131.53 Y101.41 E.01468
G1 X131.743 Y101.827 E.01468
G1 X131.929 Y102.257 E.01468
G1 X132.087 Y102.697 E.01468
G1 X132.218 Y103.147 E.01468
G1 X132.32 Y103.604 E.01468
G1 X132.393 Y104.066 E.01468
G1 X132.437 Y104.532 E.01468
G1 X132.452 Y105 E.01468
G1 X132.437 Y105.468 E.01468
G1 X132.393 Y105.934 E.01468
G1 X132.32 Y106.396 E.01468
G1 X132.218 Y106.853 E.01468
G1 X132.087 Y107.303 E.01468
G1 X131.929 Y107.743 E.01468
G1 X131.743 Y108.173 E.01468
G1 X131.53 Y108.59 E.01468
G1 X131.292 Y108.993 E.01468
G1 X131.029 Y109.38 E.01468
G1 X130.742 Y109.75 E.01468
G1 X130.432 Y110.101 E.01468
G1 X130.101 Y110.432 E.01468
G1 X129.75 Y110.742 E.01468
G1 X129.38 Y111.029 E.01468
G1 X128.993 Y111.292 E.01468
G1 X128.59 Y111.53 E.01468
G1 X128.173 Y111.743 E.01468
G1 X127.743 Y111.929 E.01468
G1 X127.303 Y112.087 E.01468
G1 X126.853 Y112.218 E.01468
G1 X126.396 Y112.32 E.01468
G1 X125.934 Y112.393 E.01468
G1 X125.468 Y112.437 E.01468
G1 X125 Y112.452 E.01468
G1 X124.532 Y112.437 E.01468
G1 X124.066 Y112.393 E.01468
G1 X123.604 Y112.32 E.01468
G1 X123.147 Y112.218 E.01468
G1 X122.697 Y112.087 E.01468
G1 X122.257 Y111.929 E.01468
G1 X121.827 Y111.743 E.01468
G1 X121.41 Y111.53 E.01468
G1 X121.007 Y111.292 E.01468
G1 X120.62 Y111.029 E.01468
G1 X120.25 Y110.742 E.01468
G1 X119.899 Y110.432 E.01468
G1 X119.568 Y110.101 E.01468
G1 X119.258 Y109.75 E.01468
G1 X118.971 Y109.38 E.01468
G1 X118.708 Y108.993 E.01468
G1 X118.47 Y108.59 E.01468
G1 X118.257 Y108.173 E.01468
G1 X118.071 Y107.743 E.01468
G1 X117.913 Y107.303 E.01468
G1 X117.782 Y106.853 E.01468
G1 X117.68 Y106.396 E.01468
G1 X117.607 Y105.934 E.01468
G1 X117.563 Y105.468 E.01468
G1 X117.548 Y105 E.01468
G1 X117.563 Y104.532 E.01468
G1 X117.607 Y104.066 E.01468
G1 X117.68 Y103.604 E.01468
G1 X117.782 Y103.147 E.01468
G1 X117.907 Y102.718 E.01401
G1 X118.071 Y102.257 E.01534
G1 X118.257 Y101.827 E.01469
G1 X118.47 Y101.41 E.01468
G1 X118.708 Y101.007 E.01468
G1 X118.938 Y100.669 E.01279
M204 S1000
G1 X118.809 Y100.254 F10800
;WIPE_START
G1 F8640
G1 X119.258 Y100.25 E-.12193
G1 X119.568 Y99.899 E-.10809
G1 X119.899 Y99.568 E-.10809
G1 X120.25 Y99.258 E-.10809
G1 X120.62 Y98.971 E-.10809
G1 X121.007 Y98.708 E-.10811
G1 X121.371 Y98.493 E-.09759
;WIPE_END
G1 E-.04 F2100
G1 Z.6 F720
G1 X115.794 Y103.696 F10800
G1 Z.2 F720
G1 E.8 F2100
M204 S800
;TYPE:Perimeter
G1 F1200
G1 X115.971 Y103.895 E.00833
G1 X116.115 Y104.123 E.00847
G1 X116.244 Y104.413 E.00994
G1 X116.316 Y104.705 E.00942
G1 X116.34 Y105 E.00929
G1 X116.316 Y105.295 E.00929
G1 X116.245 Y105.583 E.00928
G1 X116.129 Y105.855 E.00927
G1 X115.971 Y106.105 E.00929
G1 X115.774 Y106.327 E.00928
G1 X115.545 Y106.514 E.00928
G1 X115.289 Y106.662 E.00929
G1 X115.012 Y106.767 E.00928
G1 X114.722 Y106.826 E.00929
G1 X114.426 Y106.838 E.00929
G1 X114.132 Y106.802 E.00927
G1 X113.848 Y106.72 E.00928
G1 X113.58 Y106.593 E.00928
G1 X113.337 Y106.425 E.00929
G1 X113.123 Y106.22 E.00929
G1 X112.945 Y105.983 E.00929
G1 X112.807 Y105.721 E.00929
G1 X112.714 Y105.44 E.00928
G1 X112.666 Y105.148 E.00928
G1 X112.666 Y104.852 E.00928
G1 X112.714 Y104.56 E.00928
G1 X112.799 Y104.304 E.00847
G1 X112.942 Y104.02 E.00996
G1 X113.123 Y103.78 E.00943
G1 X113.337 Y103.575 E.00928
G1 X113.58 Y103.407 E.00928
G1 X113.847 Y103.28 E.00928
G1 X114.132 Y103.198 E.00929
G1 X114.4 Y103.165 E.00846
G1 X114.717 Y103.173 E.00995
G1 X115.012 Y103.233 E.00942
G1 X115.289 Y103.338 E.00928
G1 X115.545 Y103.486 E.00928
G1 X115.751 Y103.654 E.00836
M204 S1000
G1 X115.512 Y103.946 F10800
M204 S800
;TYPE:External perimeter
G1 F1200
G1 X115.668 Y104.122 E.00737
G1 X115.782 Y104.301 E.00665
G1 X115.886 Y104.536 E.00804
G1 X115.942 Y104.766 E.00742
G1 X115.961 Y105 E.00738
G1 X115.942 Y105.234 E.00738
G1 X115.886 Y105.463 E.00737
G1 X115.794 Y105.679 E.00737
G1 X115.668 Y105.878 E.00738
G1 X115.512 Y106.054 E.00737
G1 X115.33 Y106.203 E.00737
G1 X115.126 Y106.32 E.00738
G1 X114.907 Y106.404 E.00737
G1 X114.676 Y106.451 E.00738
G1 X114.441 Y106.46 E.00737
G1 X114.208 Y106.432 E.00737
G1 X113.982 Y106.366 E.00737
G1 X113.769 Y106.266 E.00737
G1 X113.576 Y106.132 E.00738
G1 X113.406 Y105.969 E.00738
G1 X113.265 Y105.781 E.00738
G1 X113.156 Y105.573 E.00738
G1 X113.081 Y105.35 E.00737
G1 X113.043 Y105.118 E.00737
G1 X113.043 Y104.882 E.00737
G1 X113.081 Y104.65 E.00737
G1 X113.148 Y104.449 E.00665
G1 X113.264 Y104.22 E.00804
G1 X113.406 Y104.031 E.00742
G1 X113.576 Y103.868 E.00737
G1 X113.769 Y103.734 E.00737
G1 X113.982 Y103.634 E.00737
G1 X114.208 Y103.568 E.00738
G1 X114.418 Y103.543 E.00665
G1 X114.675 Y103.549 E.00804
G1 X114.907 Y103.596 E.00742
G1 X115.126 Y103.68 E.00737
G1 X115.33 Y103.797 E.00737
G1 X115.466 Y103.908 E.00549
M204 S1000
G1 X115.738 Y103.881 F10800
;WIPE_START
G1 F8640
G1 X115.668 Y104.122 E-.06801
G1 X115.782 Y104.301 E-.049
G1 X115.886 Y104.536 E-.05919
G1 X115.942 Y104.766 E-.05468
G1 X115.961 Y105 E-.05432
G1 X115.942 Y105.234 E-.05432
G1 X115.886 Y105.463 E-.0543
G1 X115.794 Y105.679 E-.05426
G1 X115.668 Y105.878 E-.05432
G1 X115.512 Y106.054 E-.05428
G1 X115.33 Y106.203 E-.05431
G1 X115.126 Y106.32 E-.05433
G1 X114.907 Y106.404 E-.05431
G1 X114.735 Y106.439 E-.04037
;WIPE_END
G1 E-.04 F2100
G1 Z.6 F720
G1 X114.75 Y115.68 F10800
G1 Z.2 F720
G1 E.8 F2100
M204 S800
;TYPE:Perimeter
G1 F1200
G1 X115.012 Y115.733 E.00838
G1 X115.289 Y115.838 E.00928
G1 X115.545 Y115.986 E.00928
G1 X115.774 Y116.173 E.00928
G1 X115.971 Y116.395 E.00928
G1 X116.115 Y116.623 E.00847
G1 X116.244 Y116.913 E.00994
G1 X116.316 Y117.205 E.00942
G1 X116.34 Y117.5 E.00929
G1 X116.316 Y117.795 E.00929
G1 X116.245 Y118.083 E.00928
G1 X116.129 Y118.355 E.00927
G1 X115.971 Y118.605 E.00929
G1 X115.774 Y118.827 E.00928
G1 X115.545 Y119.014 E.00928
G1 X115.289 Y119.162 E.00929
G1 X115.012 Y119.267 E.00928
G1 X114.722 Y119.326 E.00929
G1 X114.426 Y119.338 E.00928
G1 X114.132 Y119.302 E.00927
G1 X113.848 Y119.22 E.00928
G1 X113.58 Y119.093 E.00928
G1 X113.337 Y118.925 E.00929
G1 X113.123 Y118.72 E.00929
G1 X112.945 Y118.483 E.00929
G1 X112.807 Y118.221 E.00929
G1 X112.714 Y117.94 E.00928
G1 X112.666 Y117.648 E.00928
G1 X112.666 Y117.352 E.00928
G1 X112.714 Y117.06 E.00928
G1 X112.799 Y116.804 E.00847
G1 X112.942 Y116.52 E.00996
G1 X113.123 Y116.28 E.00943
G1 X113.337 Y116.075 E.00928
G1 X113.58 Y115.907 E.00928
G1 X113.847 Y115.78 E.00928
G1 X114.132 Y115.698 E.00929
G1 X114.4 Y115.665 E.00846
G1 X114.691 Y115.672 E.00912
M204 S1000
G1 X114.675 Y116.049 F10800
M204 S800
;TYPE:External perimeter
G1 F1200
G1 X114.907 Y116.096 E.00742
G1 X115.126 Y116.18 E.00737
G1 X115.33 Y116.297 E.00737
G1 X115.512 Y116.446 E.00737
G1 X115.668 Y116.622 E.00737
G1 X115.782 Y116.801 E.00665
G1 X115.886 Y117.036 E.00804
G1 X115.942 Y117.266 E.00742
G1 X115.961 Y117.5 E.00738
G1 X115.942 Y117.734 E.00738
G1 X115.886 Y117.963 E.00737
G1 X115.794 Y118.179 E.00737
G1 X115.668 Y118.378 E.00738
G1 X115.512 Y118.554 E.00737
G1 X115.33 Y118.703 E.00737
G1 X115.126 Y118.82 E.00738
G1 X114.907 Y118.904 E.00737
G1 X114.676 Y118.951 E.00738
G1 X114.441 Y118.96 E.00737
G1 X114.208 Y118.932 E.00737
G1 X113.982 Y118.866 E.00737
G1 X113.769 Y118.766 E.00737
G1 X113.576 Y118.632 E.00738
G1 X113.406 Y118.469 E.00738
G1 X113.265 Y118.281 E.00738
G1 X113.156 Y118.073 E.00738
G1 X113.081 Y117.85 E.00737
G1 X113.043 Y117.618 E.00737
G1 X113.043 Y117.382 E.00737
G1 X113.081 Y117.15 E.00737
G1 X113.148 Y116.949 E.00665
M73 Q1 S42
G1 X113.264 Y116.72 E.00804
G1 X113.406 Y116.531 E.00742
G1 X113.576 Y116.368 E.00737
G1 X113.769 Y116.234 E.00737
G1 X113.982 Y116.134 E.00737
G1 X114.208 Y116.068 E.00738
G1 X114.418 Y116.043 E.00665
G1 X114.615 Y116.047 E.00616
M204 S1000
G1 X114.817 Y115.86 F10800
;WIPE_START
G1 F8640
G1 X114.907 Y116.096 E-.06834
G1 X115.126 Y116.18 E-.05431
G1 X115.33 Y116.297 E-.0543
G1 X115.512 Y116.446 E-.05429
G1 X115.668 Y116.622 E-.0543
G1 X115.782 Y116.801 E-.049
G1 X115.886 Y117.036 E-.05919
G1 X115.942 Y117.266 E-.05467
G1 X115.961 Y117.5 E-.05432
G1 X115.942 Y117.734 E-.05432
G1 X115.886 Y117.963 E-.0543
G1 X115.794 Y118.179 E-.05426
G1 X115.668 Y118.378 E-.05432
G1 X115.553 Y118.508 E-.04006
;WIPE_END
G1 E-.04 F2100
G1 Z.6 F720
G1 X133.666 Y117.382 F10800
M73 P1 R42
G1 Z.2 F720
G1 E.8 F2100
M204 S800
;TYPE:Perimeter
G1 F1200
G1 X133.714 Y117.06 E.01022
G1 X133.799 Y116.804 E.00847
G1 X133.942 Y116.52 E.00996
G1 X134.123 Y116.28 E.00943
G1 X134.337 Y116.075 E.00928
G1 X134.58 Y115.907 E.00928
G1 X134.847 Y115.78 E.00928
G1 X135.132 Y115.698 E.00929
G1 X135.4 Y115.665 E.00846
G1 X135.717 Y115.673 E.00995
G1 X136.012 Y115.733 E.00942
G1 X136.289 Y115.838 E.00928
G1 X136.545 Y115.986 E.00928
G1 X136.774 Y116.173 E.00928
G1 X136.971 Y116.395 E.00928
G1 X137.115 Y116.623 E.00847
G1 X137.244 Y116.913 E.00994
G1 X137.316 Y117.205 E.00942
G1 X137.34 Y117.5 E.00929
G1 X137.316 Y117.795 E.00929
G1 X137.245 Y118.083 E.00928
G1 X137.129 Y118.355 E.00927
G1 X136.971 Y118.605 E.00929
G1 X136.774 Y118.827 E.00928
G1 X136.545 Y119.014 E.00928
G1 X136.289 Y119.162 E.00929
G1 X136.012 Y119.267 E.00928
G1 X135.722 Y119.326 E.00929
G1 X135.426 Y119.338 E.00928
G1 X135.132 Y119.302 E.00927
G1 X134.848 Y119.22 E.00928
G1 X134.58 Y119.093 E.00928
G1 X134.337 Y118.925 E.00929
G1 X134.123 Y118.72 E.00929
G1 X133.945 Y118.483 E.00929
G1 X133.807 Y118.221 E.00929
G1 X133.714 Y117.94 E.00928
G1 X133.666 Y117.648 E.00928
G1 X133.666 Y117.442 E.00645
M204 S1000
G1 X134.043 Y117.382 F10800
M204 S800
;TYPE:External perimeter
G1 F1200
G1 X134.081 Y117.15 E.00737
G1 X134.148 Y116.949 E.00665
G1 X134.264 Y116.72 E.00804
G1 X134.406 Y116.531 E.00742
G1 X134.576 Y116.368 E.00737
G1 X134.769 Y116.234 E.00737
G1 X134.982 Y116.134 E.00737
G1 X135.208 Y116.068 E.00738
G1 X135.418 Y116.043 E.00665
G1 X135.675 Y116.049 E.00804
G1 X135.907 Y116.096 E.00742
G1 X136.126 Y116.18 E.00737
G1 X136.33 Y116.297 E.00737
G1 X136.512 Y116.446 E.00737
G1 X136.668 Y116.622 E.00737
