; generated by PrusaSlicer 2.4.2+win64 on 2022-06-09 at 07:29:37 UTC


;
;
; 

; external perimeters extrusion width = 0.45mm
; perimeters extrusion width = 0.45mm
; infill extrusion width = 0.45mm
; solid infill extrusion width = 0.45mm
; top infill extrusion width = 0.40mm
; first layer extrusion width = 0.42mm

M73 P0 R37
M73 Q0 S37
M201 X1000 Y1000 Z200 E5000 ; sets maximum accelerations, mm/sec^2
M203 X200 Y200 Z12 E120 ; sets maximum feedrates, mm / sec
M204 P1250 R1250 T1250 ; sets acceleration (P, T) and retract acceleration (R), mm/sec^2
M205 X8.00 Y8.00 Z0.40 E4.50 ; sets the jerk limits, mm/sec
M205 S0 T0 ; sets the minimum extruding and travel feed rate, mm/sec
M107
;TYPE:Custom
M862.3 P "MK3S" ; printer model check
M862.1 P0.4 ; nozzle diameter check
M115 U3.11.0 ; tell printer latest fw version
G90 ; use absolute coordinates
M83 ; extruder relative mode
M104 S205 ; set extruder temp
M140 S60 ; set bed temp
M190 S60 ; wait for bed temp
M109 S205 ; wait for extruder temp
G28 W ; home all without mesh bed level
G80 ; mesh bed leveling
G1 Z0.2 F720
G1 Y-3 F1000 ; go outside print area
G92 E0
G1 X60 E9 F1000 ; intro line
G1 X100 E12.5 F1000 ; intro line
G92 E0
M221 S95

; Don't change E values below. Excessive value can damage the printer.
M907 E430 ; set extruder motor current
G21 ; set units to millimeters
G90 ; use absolute coordinates
M83 ; use relative distances for extrusion
M900 K0.05 ; Filament gcode LA 1.5
M900 K30 ; Filament gcode LA 1.0
M107
;LAYER_CHANGE
;Z:0.2
;HEIGHT:0.2
;BEFORE_LAYER_CHANGE
G92 E0.0
;0.2


G1 E-.8 F2100
G1 Z.4 F720
;AFTER_LAYER_CHANGE
;0.2
G1 X98.419 Y86.319 F10800
G1 Z.2 F720
G1 E.8 F2100
M204 S800
;TYPE:Skirt/Brim
;WIDTH:0.42
G1 F1200
G1 X106.319 Y78.419 E.3503
G1 X108 Y77.723 E.05704
G1 X142 Y77.723 E1.06605
G1 X143.681 Y78.419 E.05704
G1 X151.581 Y86.319 E.3503
G1 X152.277 Y88 E.05704
G1 X152.277 Y122 E1.06605
G1 X151.581 Y123.681 E.05704
G1 X143.681 Y131.581 E.3503
G1 X142 Y132.277 E.05704
G1 X108 Y132.277 E1.06605
G1 X106.319 Y131.581 E.05704
G1 X98.419 Y123.681 E.3503
G1 X97.723 Y122 E.05704
G1 X97.723 Y88 E1.06605
G1 X98.396 Y86.375 E.05516
M204 S1000
; printing object 0_20_Cube_Insert_Holder-okular+flashlight_v3.stl id:0 copy 0
;WIPE_START
G1 F8640
G1 X100.719 Y84.042 E-.76
;WIPE_END
G1 E-.04 F2100
G1 Z.6 F720
G1 X141.327 Y109.68 F10800
G1 Z.2 F720
G1 E.8 F2100
M204 S800
;TYPE:Perimeter
G1 F1200
G1 X142.505 Y110.335 E.04227
G1 X142.13 Y111.402 E.03547
G1 X141.862 Y112.079 E.02282
G1 X141.567 Y112.744 E.02282
G1 X141.245 Y113.397 E.02282
G1 X140.898 Y114.037 E.02282
G1 X140.526 Y114.662 E.02282
G1 X140.129 Y115.272 E.02281
G1 X139.709 Y115.866 E.02282
G1 X139.265 Y116.443 E.02282
G1 X138.798 Y117.001 E.02282
G1 X138.31 Y117.541 E.02282
G1 X137.8 Y118.06 E.02282
G1 X137.271 Y118.559 E.02282
G1 X136.721 Y119.037 E.02282
G1 X136.154 Y119.492 E.02282
G1 X135.568 Y119.924 E.02282
G1 X134.966 Y120.333 E.02282
G1 X134.348 Y120.717 E.02282
G1 X133.715 Y121.077 E.02282
G1 X133.069 Y121.411 E.02282
G1 X132.41 Y121.719 E.02282
G1 X131.738 Y122.001 E.02283
G1 X131.04 Y122.261 E.02338
G1 X130.365 Y122.482 E.02225
G1 X129.666 Y122.682 E.02282
G1 X128.958 Y122.854 E.02282
G1 X128.245 Y122.997 E.02282
G1 X127.526 Y123.112 E.02282
G1 X126.804 Y123.198 E.02282
G1 X126.078 Y123.255 E.02282
G1 X125.351 Y123.284 E.02282
G1 X124.623 Y123.283 E.02282
G1 X123.896 Y123.254 E.02282
G1 X123.171 Y123.196 E.02282
G1 X122.448 Y123.108 E.02282
G1 X121.73 Y122.992 E.02282
G1 X121.017 Y122.848 E.02282
G1 X120.31 Y122.676 E.02282
G1 X119.61 Y122.475 E.02282
G1 X118.919 Y122.247 E.02282
G1 X118.238 Y121.991 E.02282
G1 X117.567 Y121.709 E.02282
G1 X116.908 Y121.4 E.02282
G1 X116.262 Y121.065 E.02282
G1 X115.63 Y120.704 E.02282
G1 X114.929 Y120.267 E.02591
G1 X114.434 Y119.707 E.02343
G1 X114.024 Y119.202 E.02039
G1 X113.637 Y118.679 E.02039
G1 X113.274 Y118.14 E.02039
G1 X112.935 Y117.585 E.02039
G1 X112.62 Y117.015 E.02039
G1 X112.331 Y116.433 E.02039
G1 X112.123 Y115.963 E.01612
G1 X110.867 Y116.624 E.04451
G1 X110.188 Y115.725 E.03534
G1 X109.77 Y115.123 E.02297
G1 X109.377 Y114.505 E.02297
G1 X109.009 Y113.872 E.02297
G1 X108.666 Y113.224 E.02297
G1 X108.35 Y112.563 E.02297
G1 X108.061 Y111.89 E.02297
G1 X107.798 Y111.206 E.02297
G1 X107.563 Y110.513 E.02297
G1 X107.357 Y109.81 E.02297
G1 X107.178 Y109.099 E.02297
G1 X107.028 Y108.382 E.02297
G1 X106.907 Y107.66 E.02297
G1 X106.815 Y106.933 E.02297
G1 X106.752 Y106.203 E.02297
G1 X106.719 Y105.472 E.02297
G1 X106.715 Y104.739 E.02297
G1 X106.74 Y104.007 E.02297
G1 X106.794 Y103.276 E.02297
G1 X106.878 Y102.549 E.02297
G1 X106.99 Y101.825 E.02297
G1 X107.132 Y101.106 E.02297
G1 X107.302 Y100.394 E.02297
G1 X107.501 Y99.689 E.02297
G1 X107.728 Y98.992 E.02297
G1 X107.982 Y98.305 E.02297
G1 X108.264 Y97.629 E.02297
G1 X108.573 Y96.965 E.02297
G1 X108.908 Y96.313 E.02297
G1 X109.268 Y95.676 E.02297
G1 X109.655 Y95.053 E.02297
G1 X110.065 Y94.447 E.02297
G1 X110.5 Y93.857 E.02297
G1 X110.958 Y93.285 E.02297
G1 X111.438 Y92.732 E.02297
G1 X111.94 Y92.199 E.02297
G1 X112.463 Y91.686 E.02297
G1 X113.007 Y91.195 E.02297
G1 X113.569 Y90.726 E.02297
G1 X114.15 Y90.279 E.02297
G1 X114.748 Y89.856 E.02297
G1 X115.363 Y89.458 E.02297
G1 X116.076 Y89.036 E.02598
G1 X116.807 Y88.847 E.02367
G1 X117.453 Y88.71 E.02071
G1 X118.105 Y88.603 E.02071
G1 X118.761 Y88.525 E.02071
G1 X119.42 Y88.476 E.02071
G1 X120.08 Y88.456 E.02071
G1 X120.74 Y88.466 E.02071
G1 X121.4 Y88.506 E.02071
G1 X122.057 Y88.575 E.02071
G1 X122.71 Y88.673 E.02071
G1 X123.358 Y88.801 E.02071
G1 X124 Y88.957 E.02071
G1 X124.634 Y89.141 E.02071
G1 X125.26 Y89.354 E.02071
G1 X125.875 Y89.595 E.02071
G1 X126.479 Y89.863 E.02071
G1 X126.929 Y90.087 E.01578
G1 X125.917 Y89.565 E.03571
G1 X125.355 Y89.317 E.01925
G1 X124.784 Y89.093 E.01925
G1 X124.203 Y88.894 E.01925
G1 X123.62 Y88.721 E.01907
G1 X122 Y88.347 E.05214
G1 X122.059 Y86.938 E.04419
G1 X123.168 Y86.805 E.03502
G1 X123.891 Y86.746 E.02274
G1 X124.975 Y86.716 E.03402
G1 X126.046 Y86.743 E.03358
M73 Q1 S37
G1 X126.769 Y86.799 E.02274
G1 X127.485 Y86.882 E.02262
G1 X128.198 Y86.995 E.02261
G1 X128.906 Y87.135 E.02262
G1 X129.607 Y87.303 E.02262
G1 X130.301 Y87.498 E.02262
G1 X130.987 Y87.721 E.02262
G1 X131.665 Y87.97 E.02263
G1 X132.347 Y88.254 E.02317
M73 P1 R37
G1 X132.986 Y88.548 E.02205
G1 X133.628 Y88.876 E.02262
G1 X134.257 Y89.229 E.02262
G1 X134.872 Y89.606 E.02261
G1 X135.471 Y90.008 E.02262
G1 X136.055 Y90.432 E.02262
G1 X136.621 Y90.88 E.02262
G1 X137.168 Y91.349 E.02262
G1 X137.697 Y91.839 E.02262
G1 X138.206 Y92.35 E.02262
G1 X138.695 Y92.881 E.02262
G1 X139.162 Y93.43 E.02262
G1 X139.607 Y93.998 E.02262
G1 X140.03 Y94.583 E.02262
G1 X140.429 Y95.183 E.02262
G1 X140.804 Y95.799 E.02262
G1 X141.155 Y96.43 E.02262
G1 X141.48 Y97.074 E.02262
G1 X141.78 Y97.73 E.02262
G1 X142.054 Y98.397 E.02262
G1 X142.301 Y99.075 E.02261
G1 X142.521 Y99.762 E.02262
G1 X142.714 Y100.457 E.02262
G1 X142.879 Y101.159 E.02262
G1 X143.017 Y101.867 E.02261
G1 X143.126 Y102.58 E.02262
G1 X143.208 Y103.297 E.02262
G1 X143.261 Y104.016 E.02262
G1 X143.285 Y104.737 E.02262
G1 X143.281 Y105.566 E.02601
G1 X143.046 Y106.283 E.02366
G1 X142.817 Y106.89 E.02032
G1 X142.561 Y107.485 E.02032
G1 X142.28 Y108.069 E.02032
G1 X141.974 Y108.641 E.02032
G1 X141.643 Y109.198 E.02032
G1 X141.36 Y109.63 E.01619
M204 S1000
G1 X141.367 Y110.134 F10800
M204 S800
;TYPE:External perimeter
G1 F1200
G1 X142.044 Y110.51 E.02427
G1 X141.777 Y111.27 E.02527
G1 X141.514 Y111.933 E.02235
G1 X141.225 Y112.584 E.02235
G1 X140.91 Y113.224 E.02235
G1 X140.57 Y113.85 E.02235
G1 X140.206 Y114.463 E.02235
G1 X139.817 Y115.06 E.02235
G1 X139.405 Y115.642 E.02235
G1 X138.971 Y116.207 E.02235
G1 X138.514 Y116.754 E.02235
G1 X138.035 Y117.282 E.02235
G1 X137.536 Y117.791 E.02235
G1 X137.018 Y118.28 E.02235
G1 X136.48 Y118.747 E.02235
G1 X135.924 Y119.193 E.02234
G1 X135.35 Y119.616 E.02235
G1 X134.761 Y120.017 E.02235
G1 X134.155 Y120.393 E.02235
G1 X133.536 Y120.745 E.02235
G1 X132.902 Y121.072 E.02235
G1 X132.257 Y121.374 E.02235
G1 X131.599 Y121.65 E.02235
G1 X130.915 Y121.905 E.02291
G1 X130.255 Y122.122 E.02178
G1 X129.569 Y122.317 E.02235
G1 X128.877 Y122.485 E.02235
G1 X128.178 Y122.626 E.02235
G1 X127.474 Y122.738 E.02235
G1 X126.767 Y122.823 E.02235
G1 X126.056 Y122.879 E.02235
G1 X125.344 Y122.907 E.02235
G1 X124.631 Y122.906 E.02235
G1 X123.919 Y122.877 E.02235
G1 X123.209 Y122.82 E.02235
G1 X122.501 Y122.735 E.02235
G1 X121.797 Y122.621 E.02235
G1 X121.099 Y122.48 E.02235
G1 X120.406 Y122.311 E.02235
G1 X119.721 Y122.114 E.02235
G1 X119.045 Y121.891 E.02235
G1 X118.377 Y121.641 E.02235
G1 X117.721 Y121.364 E.02235
G1 X117.075 Y121.061 E.02235
G1 X116.442 Y120.733 E.02235
G1 X115.823 Y120.38 E.02235
G1 X115.175 Y119.976 E.02396
G1 X114.721 Y119.464 E.02146
G1 X114.322 Y118.971 E.01987
G1 X113.946 Y118.461 E.01987
G1 X113.591 Y117.936 E.01987
G1 X113.261 Y117.395 E.01987
G1 X112.954 Y116.84 E.01987
G1 X112.672 Y116.273 E.01987
G1 X112.416 Y115.693 E.01987
G1 X112.185 Y115.103 E.01987
G1 X111.98 Y114.503 E.01987
G1 X111.802 Y113.894 E.01987
G1 X111.651 Y113.279 E.01987
G1 X111.527 Y112.657 E.01987
G1 X111.43 Y112.031 E.01987
G1 X111.362 Y111.401 E.01987
G1 X111.32 Y110.768 E.01987
G1 X111.307 Y110.135 E.01987
G1 X111.322 Y109.501 E.01987
G1 X111.364 Y108.869 E.01987
G1 X111.435 Y108.239 E.01987
G1 X111.532 Y107.612 E.01987
G1 X111.658 Y106.991 E.01987
G1 X111.81 Y106.376 E.01987
G1 X111.99 Y105.768 E.01988
G1 X112.198 Y105.168 E.01991
G1 X112.436 Y104.58 E.01991
G1 X112.703 Y104.005 E.01987
G1 X112.994 Y103.443 E.01984
G1 X113.309 Y102.894 E.01983
G1 X113.647 Y102.36 E.01982
G1 X114.008 Y101.842 E.01981
G1 X114.391 Y101.34 E.01979
G1 X114.796 Y100.856 E.01978
G1 X115.221 Y100.389 E.01982
G1 X115.895 Y99.728 E.02959
G1 X116.608 Y99.11 E.02957
G1 X117.107 Y98.724 E.01978
G1 X117.603 Y98.374 E.01905
G1 X117.728 Y98.252 E.00548
G1 X117.491 Y98.002 E.01079
G1 X116.707 Y98.551 E.03001
G1 X116.208 Y98.949 E.02001
G1 X115.725 Y99.368 E.02004
G1 X115.261 Y99.808 E.02003
G1 X114.817 Y100.266 E.02002
G1 X114.393 Y100.743 E.02002
G1 X113.99 Y101.238 E.02
G1 X113.609 Y101.749 E.01999
G1 X113.25 Y102.276 E.01998
G1 X112.914 Y102.817 E.01997
G1 X112.602 Y103.372 E.01996
G1 X112.314 Y103.94 E.01995
G1 X112.051 Y104.518 E.01991
G1 X111.585 Y105.709 E.04012
G1 X111.389 Y106.312 E.01988
G1 X111.219 Y106.925 E.01993
G1 X111.075 Y107.544 E.01993
G1 X110.958 Y108.169 E.01993
G1 X110.867 Y108.798 E.01993
G1 X110.802 Y109.43 E.01993
G1 X110.765 Y110.064 E.01993
G1 X110.754 Y110.7 E.01993
G1 X110.771 Y111.335 E.01993
G1 X110.815 Y111.97 E.01993
G1 X110.885 Y112.601 E.01993
G1 X110.982 Y113.229 E.01993
G1 X111.106 Y113.853 E.01993
G1 X111.256 Y114.471 E.01993
G1 X111.432 Y115.081 E.01993
G1 X111.665 Y115.778 E.02302
G1 X110.975 Y116.141 E.02447
G1 X110.493 Y115.504 E.02506
G1 X110.084 Y114.914 E.02249
G1 X109.699 Y114.309 E.02249
G1 X109.339 Y113.689 E.02249
G1 X109.003 Y113.054 E.0225
G1 X108.694 Y112.407 E.02249
G1 X108.41 Y111.748 E.0225
G1 X108.153 Y111.078 E.02249
G1 X107.923 Y110.399 E.02249
G1 X107.721 Y109.711 E.02249
G1 X107.546 Y109.015 E.0225
G1 X107.399 Y108.313 E.02249
G1 X107.28 Y107.605 E.02249
G1 X107.19 Y106.893 E.02249
G1 X107.129 Y106.179 E.02249
G1 X107.096 Y105.462 E.0225
G1 X107.092 Y104.744 E.02249
G1 X107.116 Y104.027 E.02249
G1 X107.17 Y103.312 E.02249
G1 X107.252 Y102.599 E.02249
G1 X107.362 Y101.89 E.0225
G1 X107.501 Y101.187 E.02249
G1 X107.667 Y100.489 E.02249
G1 X107.862 Y99.798 E.02249
G1 X108.084 Y99.116 E.02249
G1 X108.333 Y98.443 E.02249
G1 X108.609 Y97.781 E.02249
G1 X108.911 Y97.13 E.02249
G1 X109.24 Y96.492 E.02249
G1 X109.593 Y95.868 E.02249
G1 X109.971 Y95.258 E.02249
G1 X110.373 Y94.664 E.02249
G1 X110.799 Y94.087 E.02249
G1 X111.247 Y93.527 E.0225
G1 X111.718 Y92.985 E.02249
G1 X112.21 Y92.463 E.0225
G1 X112.722 Y91.961 E.02249
G1 X113.254 Y91.479 E.0225
G1 X113.805 Y91.02 E.02249
G1 X114.374 Y90.583 E.0225
G1 X114.96 Y90.169 E.02249
G1 X115.562 Y89.779 E.02249
G1 X116.222 Y89.387 E.02406
G1 X116.893 Y89.214 E.02172
G1 X117.523 Y89.081 E.02019
G1 X118.158 Y88.976 E.02018
G1 X118.797 Y88.9 E.02018
G1 X119.439 Y88.852 E.02018
G1 X120.083 Y88.833 E.02019
G1 X120.726 Y88.843 E.02018
G1 X121.369 Y88.882 E.02018
G1 X122.009 Y88.949 E.02019
G1 X122.646 Y89.045 E.02018
G1 X123.277 Y89.169 E.02019
G1 X123.903 Y89.321 E.02018
G1 X124.521 Y89.501 E.02018
G1 X125.13 Y89.708 E.02019
G1 X125.73 Y89.943 E.02019
G1 X126.318 Y90.204 E.02018
G1 X126.895 Y90.491 E.02019
G1 X127.458 Y90.803 E.02018
G1 X128.006 Y91.14 E.02019
G1 X128.539 Y91.502 E.02019
G1 X129.055 Y91.887 E.02018
G1 X129.553 Y92.294 E.02018
G1 X130.033 Y92.724 E.02019
G1 X130.493 Y93.174 E.02018
G1 X130.932 Y93.644 E.02018
G1 X131.35 Y94.134 E.02018
G1 X131.746 Y94.642 E.02019
G1 X132.118 Y95.167 E.02018
G1 X132.467 Y95.708 E.02019
G1 X132.791 Y96.265 E.02022
G1 X133.086 Y96.841 E.02029
G1 X133.466 Y97.728 E.03023
G1 X133.79 Y98.633 E.03015
G1 X133.971 Y99.25 E.02016
G1 X134.124 Y99.874 E.02014
G1 X134.3 Y100.823 E.03026
G1 X134.413 Y101.746 E.02917
G1 X134.462 Y101.929 E.00593
G1 X134.793 Y101.85 E.01067
G1 X134.698 Y100.916 E.02943
G1 X134.596 Y100.293 E.01979
G1 X134.466 Y99.674 E.01983
G1 X134.311 Y99.061 E.01982
G1 X134.13 Y98.456 E.01981
G1 X133.924 Y97.86 E.01979
G1 X133.693 Y97.275 E.01972
G1 X133.16 Y96.123 E.03979
G1 X132.867 Y95.566 E.01974
G1 X132.551 Y95.02 E.01975
G1 X132.213 Y94.489 E.01975
G1 X131.852 Y93.973 E.01975
G1 X131.471 Y93.472 E.01975
G1 X131.068 Y92.987 E.01975
G1 X130.646 Y92.52 E.01975
G1 X130.204 Y92.071 E.01975
G1 X129.744 Y91.642 E.01975
G1 X129.266 Y91.231 E.01975
G1 X128.771 Y90.842 E.01975
G1 X128.26 Y90.473 E.01975
G1 X127.735 Y90.126 E.01975
G1 X127.195 Y89.802 E.01975
G1 X126.642 Y89.501 E.01975
G1 X126.076 Y89.223 E.01975
G1 X125.5 Y88.969 E.01975
G1 X124.914 Y88.739 E.01975
G1 X124.318 Y88.535 E.01975
G1 X123.716 Y88.356 E.01968
G1 X122.39 Y88.05 E.04269
G1 X122.422 Y87.274 E.02433
G1 X123.206 Y87.18 E.02474
G1 X123.911 Y87.123 E.0222
G1 X124.976 Y87.093 E.03339
G1 X126.027 Y87.119 E.03296
G1 X126.733 Y87.174 E.02219
G1 X127.434 Y87.256 E.02215
G1 X128.132 Y87.366 E.02215
G1 X128.825 Y87.503 E.02215
G1 X129.512 Y87.668 E.02215
G1 X130.192 Y87.859 E.02215
G1 X130.864 Y88.077 E.02215
G1 X131.527 Y88.322 E.02215
G1 X132.196 Y88.599 E.0227
G1 X132.821 Y88.888 E.02159
G1 X133.45 Y89.209 E.02215
G1 X134.066 Y89.554 E.02215
G1 X134.668 Y89.924 E.02215
G1 X135.256 Y90.317 E.02215
G1 X135.827 Y90.733 E.02215
G1 X136.381 Y91.171 E.02215
G1 X136.917 Y91.63 E.02215
G1 X137.435 Y92.111 E.02215
G1 X137.934 Y92.611 E.02215
G1 X138.412 Y93.131 E.02215
G1 X138.87 Y93.669 E.02215
G1 X139.306 Y94.225 E.02215
G1 X139.72 Y94.797 E.02215
G1 X140.111 Y95.386 E.02215
G1 X140.478 Y95.989 E.02215
G1 X140.822 Y96.607 E.02215
G1 X141.14 Y97.237 E.02215
G1 X141.434 Y97.88 E.02215
G1 X141.702 Y98.533 E.02215
G1 X141.944 Y99.197 E.02215
G1 X142.16 Y99.87 E.02215
G1 X142.349 Y100.55 E.02215
G1 X142.511 Y101.238 E.02215
G1 X142.645 Y101.931 E.02215
G1 X142.753 Y102.63 E.02215
G1 X142.832 Y103.332 E.02215
G1 X142.884 Y104.036 E.02215
G1 X142.908 Y104.742 E.02215
G1 X142.904 Y105.505 E.02392
G1 X142.69 Y106.158 E.02154
G1 X142.467 Y106.749 E.0198
G1 X142.218 Y107.329 E.01981
G1 X141.944 Y107.898 E.0198
G1 X141.645 Y108.455 E.0198
G1 X141.323 Y108.998 E.0198
G1 X140.976 Y109.526 E.0198
G1 X140.607 Y110.039 E.0198
G1 X140.216 Y110.535 E.01981
G1 X139.804 Y111.013 E.0198
G1 X139.371 Y111.473 E.01981
G1 X138.918 Y111.913 E.0198
G1 X138.446 Y112.333 E.0198
G1 X137.957 Y112.732 E.0198
G1 X137.45 Y113.109 E.0198
G1 X136.927 Y113.464 E.01981
G1 X136.375 Y113.804 E.02033
G1 X135.838 Y114.103 E.01928
G1 X135.273 Y114.386 E.0198
G1 X134.697 Y114.644 E.01981
G1 X134.109 Y114.876 E.0198
G1 X133.512 Y115.083 E.01982
G1 X132.904 Y115.26 E.01984
G1 X132.289 Y115.406 E.01982
G1 X131.668 Y115.524 E.01983
G1 X130.732 Y115.647 E.0296
G1 X129.791 Y115.715 E.02957
G1 X129.16 Y115.724 E.01978
G1 X128.53 Y115.705 E.01977
G1 X127.592 Y115.624 E.02952
G1 X126.661 Y115.488 E.0295
G1 X126.044 Y115.361 E.01973
