; generated by PrusaSlicer 2.4.2+win64 on 2022-06-15 at 11:05:52 UTC


;
;
; 

; external perimeters extrusion width = 0.45mm
; perimeters extrusion width = 0.45mm
; infill extrusion width = 0.45mm
; solid infill extrusion width = 0.45mm
; top infill extrusion width = 0.40mm
; support material extrusion width = 0.35mm
; first layer extrusion width = 0.42mm

; external perimeters extrusion width = 0.45mm
; perimeters extrusion width = 0.45mm
; infill extrusion width = 0.45mm
; solid infill extrusion width = 0.45mm
; top infill extrusion width = 0.40mm
; support material extrusion width = 0.35mm
; first layer extrusion width = 0.42mm

M73 P0 R67
M73 Q0 S67
M201 X1000 Y1000 Z200 E5000 ; sets maximum accelerations, mm/sec^2
M203 X200 Y200 Z12 E120 ; sets maximum feedrates, mm / sec
M204 P1250 R1250 T1250 ; sets acceleration (P, T) and retract acceleration (R), mm/sec^2
M205 X8.00 Y8.00 Z0.40 E4.50 ; sets the jerk limits, mm/sec
M205 S0 T0 ; sets the minimum extruding and travel feed rate, mm/sec
M107
;TYPE:Custom
M862.3 P "MK3S" ; printer model check
M862.1 P0.4 ; nozzle diameter check
M115 U3.11.0 ; tell printer latest fw version
G90 ; use absolute coordinates
M83 ; extruder relative mode
M104 S205 ; set extruder temp
M140 S60 ; set bed temp
M190 S60 ; wait for bed temp
M109 S205 ; wait for extruder temp
G28 W ; home all without mesh bed level
G80 ; mesh bed leveling
G1 Z0.2 F720
G1 Y-3 F1000 ; go outside print area
G92 E0
G1 X60 E9 F1000 ; intro line
G1 X100 E12.5 F1000 ; intro line
G92 E0
M221 S95

; Don't change E values below. Excessive value can damage the printer.

M907 E538 ; set extruder motor current
G21 ; set units to millimeters
G90 ; use absolute coordinates
M83 ; use relative distances for extrusion
M900 K0.05 ; Filament gcode LA 1.5
M900 K30 ; Filament gcode LA 1.0
M107
;LAYER_CHANGE
;Z:0.2
;HEIGHT:0.2
;BEFORE_LAYER_CHANGE
G92 E0.0
;0.2


G1 E-.8 F2100
G1 Z.4 F720
;AFTER_LAYER_CHANGE
;0.2
G1 X98.419 Y74.864 F10800
G1 Z.2 F720
G1 E.8 F2100
M204 S800
;TYPE:Skirt/Brim
;WIDTH:0.42
G1 F1200
G1 X106.319 Y66.964 E.3503
G1 X108 Y66.267 E.05704
G1 X142 Y66.267 E1.06605
G1 X143.681 Y66.964 E.05704
G1 X151.581 Y74.864 E.3503
G1 X152.277 Y76.544 E.05704
G1 X152.277 Y110.544 E1.06605
G1 X152.153 Y111.303 E.02409
G1 X142.712 Y139.35 E.92787
G1 X141.924 Y140.463 E.04278
G1 X140.748 Y140.951 E.03991
G1 X118.255 Y143.704 E.71053
G1 X117.403 Y143.654 E.02677
G1 X113.473 Y142.696 E.12681
G1 X112.465 Y142.169 E.03567
G1 X109.431 Y139.495 E.12681
G1 X108.797 Y138.597 E.03446
G1 X97.894 Y111.43 E.91785
G1 X97.723 Y110.544 E.02827
G1 X97.723 Y76.544 E1.06605
G1 X98.396 Y74.919 E.05516
M204 S1000
; printing object Holder_Fischer.stl id:1 copy 0
;WIPE_START
M73 P0 R66
G1 F8640
G1 X100.719 Y72.587 E-.76
;WIPE_END
G1 E-.04 F2100
G1 Z.6 F720
G1 X116.048 Y125.328 F10800
G1 Z.2 F720
G1 E.8 F2100
M204 S800
;TYPE:External perimeter
G1 F1200
G1 X117.882 Y125.09 E.05801
G1 X119.807 Y125.318 E.06078
G1 X123.107 Y127.042 E.1167
G1 X125.236 Y130.11 E.11711
G1 X125.695 Y133.817 E.1171
G1 X124.408 Y137.247 E.11487
G1 X124.328 Y137.363 E.00442
G1 X121.589 Y139.796 E.11487
G1 X117.964 Y140.698 E.1171
G1 X114.336 Y139.813 E.1171
G1 X111.585 Y137.394 E.11487
G1 X111.504 Y137.278 E.00442
G1 X110.202 Y133.854 E.11487
G1 X110.643 Y130.145 E.1171
G1 X112.757 Y127.066 E.11711
G1 X115.995 Y125.356 E.1148
M204 S1000
G1 X116.125 Y124.935 F10800
G1 X115.981 Y124.943
M204 S800
G1 F1200
G1 X117.96 Y124.709 E.06248
G1 X119.873 Y124.934 E.06039
G1 X123.363 Y126.751 E.12338
G1 X125.598 Y129.972 E.12292
G1 X126.08 Y133.863 E.12293
G1 X124.698 Y137.532 E.12293
G1 X121.771 Y140.138 E.12289
G1 X117.965 Y141.086 E.12297
G1 X114.155 Y140.157 E.12297
G1 X111.216 Y137.564 E.12289
G1 X109.817 Y133.902 E.12293
G1 X110.28 Y130.008 E.12293
G1 X112.499 Y126.777 E.12292
G1 X115.927 Y124.971 E.12148
M204 S1000
G1 X116.28 Y125.209 F10800
;WIPE_START
G1 F8640
G1 X117.96 Y124.709 E-.47311
G1 X119.194 Y124.854 E-.28689
;WIPE_END
G1 E-.04 F2100
G1 Z.6 F720
G1 X133.106 Y131.272 F10800
G1 Z.2 F720
G1 E.8 F2100
M204 S800
G1 F1200
G1 X139.778 Y131.256 E.20922
G1 X139.794 Y137.929 E.20922
G1 X133.121 Y137.945 E.20922
G1 X133.106 Y131.332 E.20734
M204 S1000
G1 X133.001 Y130.886 F10800
G1 X132.782 Y130.95
M204 S800
G1 F1200
G1 X133.392 Y130.895 E.01919
G1 X139.488 Y130.88 E.19116
G1 X140.101 Y130.938 E.0193
G1 X140.156 Y131.581 E.02022
G1 X140.17 Y137.447 E.18393
G1 X140.116 Y138.25 E.02525
G1 X139.45 Y138.307 E.02094
G1 X133.467 Y138.321 E.18759
G1 X132.798 Y138.269 E.02103
G1 X132.744 Y137.659 E.01919
G1 X132.729 Y131.56 E.19123
G1 X132.777 Y131.01 E.01731
M204 S1000
G1 X133.14 Y131.13 F10800
; stop printing object Holder_Fischer.stl id:1 copy 0
; printing object 3_20_Cube_Insert_Beamexpander_v3.stl id:0 copy 0
;WIPE_START
G1 F8640
G1 X133.392 Y130.895 E-.14442
G1 X136.058 Y130.888 E-.61558
;WIPE_END
G1 E-.04 F2100
G1 Z.6 F720
G1 X125.63 Y87.013 F10800
G1 Z.2 F720
G1 E.8 F2100
M204 S800
;TYPE:Support material
G1 F1200
G1 X126.047 Y87.067 E.01319
G1 X126.46 Y87.147 E.01319
G1 X126.867 Y87.254 E.01319
G1 X127.266 Y87.387 E.01319
G1 X127.656 Y87.544 E.01319
G1 X128.035 Y87.727 E.01319
G1 X128.401 Y87.933 E.01319
G1 X128.754 Y88.163 E.01319
G1 X129.091 Y88.414 E.01319
G1 X129.411 Y88.687 E.01319
G1 X129.713 Y88.98 E.01319
G1 X129.996 Y89.291 E.01319
G1 X130.258 Y89.62 E.01319
G1 X130.499 Y89.965 E.01319
G1 X130.717 Y90.324 E.01319
G1 X130.912 Y90.697 E.01319
G1 X131.082 Y91.082 E.01319
G1 X131.227 Y91.477 E.01319
G1 X131.347 Y91.88 E.01319
G1 X131.441 Y92.29 E.01319
G1 X131.508 Y92.705 E.01319
G1 X131.548 Y93.124 E.01319
G1 X131.562 Y93.544 E.01319
G1 X131.548 Y93.965 E.01319
G1 X131.508 Y94.383 E.01319
G1 X131.441 Y94.799 E.01319
G1 X131.347 Y95.209 E.01319
G1 X131.227 Y95.612 E.01319
G1 X131.082 Y96.007 E.01319
G1 X130.912 Y96.391 E.01319
G1 X130.717 Y96.764 E.01319
G1 X130.499 Y97.124 E.01319
G1 X130.259 Y97.469 E.01319
G1 X129.996 Y97.798 E.01319
G1 X129.714 Y98.109 E.01319
G1 X129.411 Y98.402 E.01319
G1 X129.091 Y98.674 E.01319
G1 X128.754 Y98.926 E.01319
G1 X128.402 Y99.155 E.01319
G1 X128.035 Y99.362 E.01319
G1 X127.656 Y99.544 E.01319
G1 X127.266 Y99.702 E.01319
G1 X126.867 Y99.835 E.01319
G1 X126.46 Y99.941 E.01319
G1 X126.047 Y100.022 E.01319
G1 X125.63 Y100.076 E.01319
G1 X125.21 Y100.103 E.01319
G1 X124.79 Y100.103 E.01319
G1 X124.37 Y100.076 E.01319
G1 X123.953 Y100.022 E.01319
G1 X123.54 Y99.941 E.01319
G1 X123.133 Y99.835 E.01319
G1 X122.734 Y99.702 E.01319
G1 X122.344 Y99.544 E.01319
G1 X121.965 Y99.362 E.01319
G1 X121.599 Y99.156 E.01319
G1 X121.246 Y98.926 E.01319
G1 X120.909 Y98.675 E.01319
G1 X120.589 Y98.402 E.01319
G1 X120.287 Y98.109 E.01319
G1 X120.004 Y97.798 E.01319
G1 X119.742 Y97.469 E.01319
G1 X119.501 Y97.124 E.01319
G1 X119.283 Y96.764 E.01319
G1 X119.088 Y96.391 E.01319
G1 X118.918 Y96.007 E.01319
G1 X118.773 Y95.612 E.01319
G1 X118.653 Y95.209 E.01319
G1 X118.56 Y94.799 E.01319
G1 X118.492 Y94.384 E.01319
G1 X118.452 Y93.965 E.01319
G1 X118.438 Y93.545 E.01319
G1 X118.452 Y93.124 E.01319
G1 X118.492 Y92.705 E.01319
G1 X118.559 Y92.29 E.01319
G1 X118.653 Y91.88 E.01319
G1 X118.773 Y91.477 E.01319
G1 X118.918 Y91.082 E.01319
G1 X119.088 Y90.698 E.01319
G1 X119.283 Y90.325 E.01319
G1 X119.501 Y89.965 E.01319
G1 X119.741 Y89.62 E.01319
G1 X120.004 Y89.291 E.01319
G1 X120.286 Y88.98 E.01319
G1 X120.589 Y88.687 E.01319
G1 X120.909 Y88.414 E.01319
G1 X121.246 Y88.163 E.01319
G1 X121.598 Y87.933 E.01319
G1 X121.965 Y87.727 E.01319
G1 X122.344 Y87.545 E.01319
G1 X122.734 Y87.387 E.01319
G1 X123.133 Y87.254 E.01319
G1 X123.54 Y87.147 E.01319
G1 X123.953 Y87.067 E.01319
G1 X124.37 Y87.013 E.01319
G1 X124.79 Y86.986 E.01319
G1 X125.21 Y86.986 E.0132
G1 X125.573 Y87.01 E.01141
M204 S1000
G1 X130.866 Y96.076 F10800
M204 S800
G1 F1200
G1 X130.866 Y91.477 E.14421
G1 X130.606 Y90.845 E.02143
G1 X130.447 Y90.54 E.01078
G1 X130.447 Y96.549 E.18842
G1 X130.215 Y96.939 E.01422
G1 X130.028 Y97.207 E.01024
G1 X130.028 Y89.882 E.22965
G1 X129.609 Y89.369 E.02077
G1 X129.609 Y97.72 E.26183
G1 X129.19 Y98.144 E.01869
G1 X129.19 Y88.945 E.28843
G1 X128.771 Y88.599 E.01704
G1 X128.771 Y98.49 E.31013
G1 X128.352 Y98.783 E.01603
G1 X128.352 Y88.306 E.3285
G1 X127.933 Y88.059 E.01525
G1 X127.933 Y99.03 E.34399
G1 X127.514 Y99.236 E.01464
G1 X127.514 Y87.853 E.3569
G1 X127.095 Y87.687 E.01413
G1 X127.095 Y99.401 E.36729
G1 X126.676 Y99.534 E.01378
G1 X126.676 Y87.555 E.3756
G1 X126.257 Y87.454 E.01351
G1 X126.257 Y99.635 E.38195
G1 X125.838 Y99.707 E.01333
G1 X125.838 Y87.382 E.38643
G1 X125.419 Y87.34 E.0132
G1 X125.419 Y99.749 E.38909
G1 X125 Y99.763 E.01314
G1 X125 Y87.326 E.38997
G1 X124.581 Y87.34 E.01314
G1 X124.581 Y99.749 E.38909
G1 X124.162 Y99.707 E.0132
G1 X124.162 Y87.382 E.38643
G1 X123.743 Y87.454 E.01333
M73 Q1 S67
G1 X123.743 Y99.635 E.38195
G1 X123.324 Y99.534 E.01351
M73 P1 R66
G1 X123.324 Y87.555 E.3756
G1 X122.905 Y87.687 E.01378
G1 X122.905 Y99.401 E.36729
G1 X122.486 Y99.236 E.01413
G1 X122.486 Y87.853 E.3569
G1 X122.067 Y88.059 E.01464
G1 X122.067 Y99.03 E.34399
G1 X121.648 Y98.783 E.01525
G1 X121.648 Y88.306 E.32849
G1 X121.229 Y88.599 E.01603
G1 X121.229 Y98.49 E.31013
G1 X120.81 Y98.144 E.01704
G1 X120.81 Y88.945 E.28843
G1 X120.391 Y89.369 E.01869
G1 X120.391 Y97.72 E.26183
G1 X119.972 Y97.207 E.02077
G1 X119.972 Y89.882 E.22965
M73 Q1 S66
G1 X119.785 Y90.15 E.01024
G1 X119.553 Y90.54 E.01422
G1 X119.553 Y96.549 E.18842
G1 X119.394 Y96.244 E.01078
G1 X119.134 Y95.612 E.02144
G1 X119.134 Y91.013 E.14421
M204 S1000
;WIPE_START
G1 F8640
G1 X119.134 Y94.304 E-.76
;WIPE_END
G1 E-.04 F2100
G1 Z.6 F720
G1 X117.82 Y90.431 F10800
G1 Z.2 F720
G1 E.8 F2100
M204 S800
;TYPE:Perimeter
G1 F1200
G1 X118.174 Y89.71 E.0252
G1 X118.443 Y89.267 E.01624
G1 X118.73 Y88.855 E.01573
G1 X119.034 Y88.475 E.01524
G1 X119.382 Y88.092 E.01623
G1 X119.742 Y87.743 E.01574
G1 X120.113 Y87.428 E.01525
G1 X120.527 Y87.119 E.01622
G1 X120.935 Y86.854 E.01524
G1 X121.372 Y86.607 E.01574
G1 X121.838 Y86.382 E.01624
G1 X122.304 Y86.194 E.01573
G1 X122.765 Y86.041 E.01525
G1 X123.265 Y85.91 E.01622
G1 X123.743 Y85.817 E.01524
G1 X124.24 Y85.752 E.01574
G1 X124.757 Y85.719 E.01624
G1 X125.259 Y85.72 E.01573
G1 X125.744 Y85.751 E.01525
G1 X126.257 Y85.817 E.01622
G1 X126.734 Y85.91 E.01524
G1 X127.22 Y86.037 E.01573
G1 X127.711 Y86.2 E.01623
G1 X128.162 Y86.382 E.01524
G1 X128.614 Y86.599 E.01573
G1 X129.051 Y86.845 E.01573
G1 X129.473 Y87.119 E.01575
G1 X129.887 Y87.428 E.01623
G1 X130.258 Y87.743 E.01524
G1 X130.618 Y88.092 E.01574
G1 X130.966 Y88.475 E.01623
G1 X131.27 Y88.855 E.01524
G1 X131.557 Y89.267 E.01573
G1 X131.826 Y89.71 E.01624
G1 X132.057 Y90.155 E.01574
G1 X132.254 Y90.599 E.01524
G1 X132.433 Y91.085 E.01622
G1 X132.571 Y91.551 E.01525
G1 X132.683 Y92.04 E.01574
G1 X132.766 Y92.551 E.01624
G1 X132.813 Y93.051 E.01574
G1 X132.829 Y93.537 E.01524
G1 X132.812 Y94.054 E.01622
G1 X132.766 Y94.538 E.01525
G1 X132.686 Y95.033 E.01574
G1 X132.571 Y95.538 E.01623
G1 X132.433 Y96.004 E.01525
G1 X132.26 Y96.475 E.01574
G1 X132.05 Y96.948 E.01623
G1 X131.818 Y97.393 E.01574
G1 X131.566 Y97.809 E.01525
G1 X131.27 Y98.233 E.01622
G1 X130.967 Y98.613 E.01524
G1 X130.63 Y98.985 E.01573
G1 X130.27 Y99.334 E.01574
G1 X129.888 Y99.66 E.01574
G1 X129.473 Y99.97 E.01623
G1 X129.065 Y100.235 E.01525
G1 X128.628 Y100.482 E.01573
G1 X128.162 Y100.706 E.01623
G1 X127.711 Y100.889 E.01525
G1 X127.235 Y101.048 E.01574
G1 X126.734 Y101.179 E.01624
G1 X126.242 Y101.274 E.01574
G1 X125.759 Y101.337 E.01524
G1 X125.243 Y101.37 E.01623
G1 X124.741 Y101.369 E.01573
G1 X124.256 Y101.338 E.01525
G1 X123.743 Y101.272 E.01623
G1 X123.25 Y101.175 E.01574
G1 X122.78 Y101.052 E.01524
G1 X122.289 Y100.889 E.01622
G1 X121.838 Y100.707 E.01525
G1 X121.386 Y100.489 E.01574
G1 X120.935 Y100.235 E.01624
G1 X120.514 Y99.961 E.01573
G1 X120.125 Y99.67 E.01524
G1 X119.743 Y99.346 E.01573
G1 X119.382 Y98.997 E.01575
G1 X119.033 Y98.613 E.01624
G1 X118.721 Y98.221 E.01574
G1 X118.443 Y97.822 E.01524
G1 X118.174 Y97.379 E.01623
G1 X117.943 Y96.934 E.01574
G1 X117.746 Y96.489 E.01525
G1 X117.567 Y96.004 E.01622
G1 X117.429 Y95.538 E.01524
G1 X117.317 Y95.049 E.01574
G1 X117.234 Y94.538 E.01623
G1 X117.187 Y94.038 E.01574
G1 X117.171 Y93.552 E.01525
G1 X117.188 Y93.035 E.01623
G1 X117.236 Y92.535 E.01574
G1 X117.314 Y92.055 E.01525
G1 X117.429 Y91.551 E.01623
G1 X117.572 Y91.069 E.01575
G1 X117.796 Y90.486 E.01959
M204 S1000
G1 X118.165 Y90.584 F10800
M204 S800
;TYPE:External perimeter
G1 F1200
G1 X118.503 Y89.895 E.02407
G1 X118.759 Y89.473 E.01547
G1 X119.033 Y89.081 E.01498
G1 X119.321 Y88.72 E.01449
G1 X119.652 Y88.355 E.01546
G1 X119.996 Y88.023 E.01498
G1 X120.348 Y87.723 E.01449
G1 X120.743 Y87.428 E.01546
G1 X121.13 Y87.176 E.01449
G1 X121.546 Y86.941 E.01498
G1 X121.991 Y86.727 E.01547
G1 X122.434 Y86.548 E.01498
G1 X122.872 Y86.403 E.01449
G1 X123.349 Y86.278 E.01546
G1 X123.803 Y86.189 E.01449
G1 X124.277 Y86.128 E.01498
G1 X124.769 Y86.096 E.01547
G1 X125.247 Y86.097 E.01498
G1 X125.708 Y86.126 E.01449
G1 X126.197 Y86.189 E.01546
G1 X126.651 Y86.278 E.01449
G1 X127.113 Y86.398 E.01498
G1 X127.581 Y86.554 E.01546
G1 X128.009 Y86.727 E.01449
G1 X128.44 Y86.934 E.01497
G1 X128.856 Y87.168 E.01498
G1 X129.257 Y87.428 E.01498
G1 X129.652 Y87.723 E.01546
G1 X130.004 Y88.023 E.01449
G1 X130.348 Y88.355 E.01498
G1 X130.679 Y88.72 E.01546
G1 X130.967 Y89.081 E.01449
G1 X131.241 Y89.473 E.01498
G1 X131.497 Y89.895 E.01547
G1 X131.717 Y90.318 E.01498
G1 X131.904 Y90.741 E.01449
G1 X132.075 Y91.204 E.01546
G1 X132.206 Y91.647 E.01449
G1 X132.313 Y92.112 E.01498
G1 X132.392 Y92.599 E.01546
G1 X132.437 Y93.075 E.01498
G1 X132.452 Y93.537 E.01449
G1 X132.436 Y94.029 E.01546
G1 X132.392 Y94.49 E.01449
G1 X132.316 Y94.961 E.01498
G1 X132.206 Y95.442 E.01546
G1 X132.075 Y95.885 E.01449
G1 X131.91 Y96.334 E.01498
G1 X131.71 Y96.785 E.01546
G1 X131.489 Y97.208 E.01498
G1 X131.249 Y97.603 E.01449
G1 X130.967 Y98.008 E.01546
G1 X130.679 Y98.369 E.01449
G1 X130.358 Y98.723 E.01497
G1 X130.016 Y99.055 E.01498
G1 X129.652 Y99.366 E.01498
G1 X129.257 Y99.661 E.01546
G1 X128.87 Y99.913 E.0145
G1 X128.454 Y100.148 E.01498
G1 X128.009 Y100.362 E.01546
G1 X127.581 Y100.535 E.01449
G1 X127.128 Y100.686 E.01498
G1 X126.651 Y100.811 E.01547
G1 X126.182 Y100.902 E.01498
G1 X125.723 Y100.961 E.01449
G1 X125.231 Y100.993 E.01546
G1 X124.753 Y100.992 E.01498
G1 X124.292 Y100.962 E.01449
G1 X123.803 Y100.899 E.01546
G1 X123.334 Y100.808 E.01498
G1 X122.887 Y100.69 E.01449
G1 X122.419 Y100.535 E.01546
G1 X121.991 Y100.362 E.01449
G1 X121.56 Y100.155 E.01498
G1 X121.13 Y99.913 E.01546
G1 X120.73 Y99.652 E.01498
G1 X120.36 Y99.375 E.01449
G1 X119.996 Y99.066 E.01497
G1 X119.652 Y98.734 E.01498
G1 X119.321 Y98.369 E.01547
G1 X119.023 Y97.995 E.01498
G1 X118.759 Y97.616 E.01449
G1 X118.503 Y97.194 E.01546
G1 X118.283 Y96.771 E.01498
G1 X118.096 Y96.348 E.01449
G1 X117.925 Y95.885 E.01546
G1 X117.794 Y95.442 E.01449
G1 X117.687 Y94.977 E.01498
G1 X117.608 Y94.49 E.01546
G1 X117.563 Y94.014 E.01498
G1 X117.548 Y93.552 E.01449
G1 X117.564 Y93.059 E.01546
G1 X117.61 Y92.584 E.01498
G1 X117.684 Y92.127 E.01449
G1 X117.794 Y91.647 E.01546
G1 X117.93 Y91.189 E.01498
G1 X118.141 Y90.639 E.01847
M204 S1000
G1 X117.929 Y90.261 F10800
;WIPE_START
G1 F8640
G1 X118.503 Y89.895 E-.1911
G1 X118.759 Y89.473 E-.11389
G1 X119.033 Y89.081 E-.11029
G1 X119.321 Y88.72 E-.10673
G1 X119.652 Y88.355 E-.11387
G1 X119.996 Y88.023 E-.1103
G1 X120.041 Y87.984 E-.01382
;WIPE_END
G1 E-.04 F2100
G1 Z.6 F720
G1 X104.111 Y109.868 F10800
G1 Z.2 F720
G1 E.8 F2100
M204 S800
;TYPE:Perimeter
G1 F1200
G1 X104.001 Y109.757 E.0049
G1 X100.887 Y109.757 E.09763
G1 X100.887 Y77.331 E1.01669
G1 X104.001 Y77.331 E.09763
G1 X108.787 Y72.545 E.21223
G1 X108.787 Y69.431 E.09763
G1 X141.213 Y69.431 E1.01669
G1 X141.213 Y72.545 E.09763
G1 X145.999 Y77.331 E.21223
G1 X149.113 Y77.331 E.09763
G1 X149.113 Y109.757 E1.01669
G1 X145.999 Y109.757 E.09763
G1 X141.213 Y114.544 E.21223
G1 X141.213 Y117.657 E.09763
G1 X108.787 Y117.657 E1.01669
G1 X108.787 Y114.544 E.09763
G1 X104.154 Y109.91 E.20545
