; generated by PrusaSlicer 2.4.2+win64 on 2022-05-24 at 14:53:33 UTC


;
;
; 

; external perimeters extrusion width = 0.45mm
; perimeters extrusion width = 0.45mm
; infill extrusion width = 0.45mm
; solid infill extrusion width = 0.45mm
; top infill extrusion width = 0.40mm
; support material extrusion width = 0.35mm
; first layer extrusion width = 0.42mm

M73 P0 R63
M73 Q0 S64
M201 X1000 Y1000 Z200 E5000 ; sets maximum accelerations, mm/sec^2
M203 X200 Y200 Z12 E120 ; sets maximum feedrates, mm / sec
M204 P1250 R1250 T1250 ; sets acceleration (P, T) and retract acceleration (R), mm/sec^2
M205 X8.00 Y8.00 Z0.40 E4.50 ; sets the jerk limits, mm/sec
M205 S0 T0 ; sets the minimum extruding and travel feed rate, mm/sec
M107
;TYPE:Custom
M862.3 P "MK3S" ; printer model check
M862.1 P0.4 ; nozzle diameter check
M115 U3.11.0 ; tell printer latest fw version
G90 ; use absolute coordinates
M83 ; extruder relative mode
M104 S205 ; set extruder temp
M140 S60 ; set bed temp
M190 S60 ; wait for bed temp
M109 S205 ; wait for extruder temp
G28 W ; home all without mesh bed level
G80 ; mesh bed leveling
G1 Z0.2 F720
G1 Y-3 F1000 ; go outside print area
G92 E0
G1 X60 E9 F1000 ; intro line
G1 X100 E12.5 F1000 ; intro line
G92 E0
M221 S95

; Don't change E values below. Excessive value can damage the printer.

M907 E538 ; set extruder motor current
G21 ; set units to millimeters
G90 ; use absolute coordinates
M83 ; use relative distances for extrusion
M900 K0.05 ; Filament gcode LA 1.5
M900 K30 ; Filament gcode LA 1.0
M107
;LAYER_CHANGE
;Z:0.2
;HEIGHT:0.2
;BEFORE_LAYER_CHANGE
G92 E0.0
;0.2


G1 E-.8 F2100
G1 Z.4 F720
;AFTER_LAYER_CHANGE
;0.2
G1 X98.419 Y86.319 F10800
G1 Z.2 F720
G1 E.8 F2100
M204 S800
;TYPE:Skirt/Brim
;WIDTH:0.42
G1 F1200
G1 X106.319 Y78.419 E.3503
G1 X108 Y77.723 E.05704
G1 X142 Y77.723 E1.06605
G1 X143.681 Y78.419 E.05704
M73 Q0 S63
G1 X151.581 Y86.319 E.3503
G1 X152.277 Y88 E.05704
G1 X152.277 Y122 E1.06605
G1 X151.581 Y123.681 E.05704
G1 X143.681 Y131.581 E.3503
G1 X142 Y132.277 E.05704
G1 X108 Y132.277 E1.06605
G1 X106.319 Y131.581 E.05704
G1 X98.419 Y123.681 E.3503
G1 X97.723 Y122 E.05704
G1 X97.723 Y88 E1.06605
G1 X98.396 Y86.375 E.05516
M204 S1000
; printing object 3_20_Cube_Insert_Beamexpander_v3.stl id:0 copy 0
;WIPE_START
G1 F8640
G1 X100.719 Y84.042 E-.76
;WIPE_END
G1 E-.04 F2100
G1 Z.6 F720
G1 X125.63 Y98.469 F10800
G1 Z.2 F720
G1 E.8 F2100
M204 S800
;TYPE:Support material
G1 F1200
G1 X126.047 Y98.523 E.01319
G1 X126.46 Y98.603 E.01319
G1 X126.867 Y98.71 E.01319
G1 X127.266 Y98.842 E.01319
G1 X127.656 Y99 E.01319
G1 X128.035 Y99.182 E.01319
G1 X128.401 Y99.389 E.01319
G1 X128.754 Y99.618 E.01319
G1 X129.091 Y99.87 E.01319
G1 X129.411 Y100.143 E.01319
G1 X129.713 Y100.435 E.01319
G1 X129.996 Y100.746 E.01319
G1 X130.258 Y101.075 E.01319
G1 X130.499 Y101.42 E.01319
G1 X130.717 Y101.78 E.01319
G1 X130.912 Y102.153 E.01319
G1 X131.082 Y102.538 E.01319
G1 X131.227 Y102.932 E.01319
G1 X131.347 Y103.335 E.01319
G1 X131.441 Y103.746 E.01319
G1 X131.508 Y104.161 E.01319
G1 X131.548 Y104.58 E.01319
G1 X131.562 Y105 E.01319
G1 X131.548 Y105.42 E.01319
G1 X131.508 Y105.839 E.01319
G1 X131.441 Y106.254 E.01319
G1 X131.347 Y106.664 E.01319
G1 X131.227 Y107.067 E.01319
G1 X131.082 Y107.462 E.01319
G1 X130.912 Y107.847 E.01319
G1 X130.717 Y108.22 E.01319
G1 X130.499 Y108.579 E.01319
G1 X130.259 Y108.924 E.01319
G1 X129.996 Y109.253 E.01319
G1 X129.714 Y109.565 E.01319
G1 X129.411 Y109.857 E.01319
G1 X129.091 Y110.13 E.01319
G1 X128.754 Y110.382 E.01319
G1 X128.402 Y110.611 E.01319
G1 X128.035 Y110.817 E.01319
G1 X127.656 Y111 E.01319
G1 X127.266 Y111.158 E.01319
G1 X126.867 Y111.29 E.01319
G1 X126.46 Y111.397 E.01319
G1 X126.047 Y111.477 E.01319
G1 X125.63 Y111.531 E.01319
G1 X125.21 Y111.558 E.01319
G1 X124.79 Y111.558 E.01319
G1 X124.37 Y111.531 E.01319
G1 X123.953 Y111.477 E.01319
G1 X123.54 Y111.397 E.01319
G1 X123.133 Y111.29 E.01319
G1 X122.734 Y111.158 E.01319
G1 X122.344 Y111 E.01319
G1 X121.965 Y110.818 E.01319
G1 X121.599 Y110.611 E.01319
G1 X121.246 Y110.382 E.01319
G1 X120.909 Y110.13 E.01319
G1 X120.589 Y109.857 E.01319
G1 X120.287 Y109.565 E.01319
G1 X120.004 Y109.253 E.01319
G1 X119.742 Y108.925 E.01319
G1 X119.501 Y108.58 E.01319
G1 X119.283 Y108.22 E.01319
G1 X119.088 Y107.847 E.01319
G1 X118.918 Y107.462 E.01319
G1 X118.773 Y107.068 E.01319
G1 X118.653 Y106.665 E.01319
G1 X118.56 Y106.254 E.01319
G1 X118.492 Y105.839 E.01319
G1 X118.452 Y105.421 E.01319
G1 X118.438 Y105 E.01319
G1 X118.452 Y104.58 E.01319
G1 X118.492 Y104.161 E.01319
G1 X118.559 Y103.746 E.01319
G1 X118.653 Y103.336 E.01319
G1 X118.773 Y102.933 E.01319
G1 X118.918 Y102.538 E.01319
G1 X119.088 Y102.153 E.01319
G1 X119.283 Y101.78 E.01319
G1 X119.501 Y101.421 E.01319
G1 X119.741 Y101.076 E.01319
G1 X120.004 Y100.747 E.01319
G1 X120.286 Y100.435 E.01319
G1 X120.589 Y100.143 E.01319
G1 X120.909 Y99.87 E.01319
G1 X121.246 Y99.618 E.01319
G1 X121.598 Y99.389 E.01319
G1 X121.965 Y99.183 E.01319
G1 X122.344 Y99 E.01319
G1 X122.734 Y98.842 E.01319
G1 X123.133 Y98.71 E.01319
G1 X123.54 Y98.603 E.01319
G1 X123.953 Y98.523 E.01319
G1 X124.37 Y98.469 E.01319
G1 X124.79 Y98.442 E.01319
G1 X125.21 Y98.442 E.0132
G1 X125.573 Y98.465 E.01141
M204 S1000
G1 X130.866 Y107.532 F10800
M204 S800
G1 F1200
G1 X130.866 Y102.932 E.14421
G1 X130.606 Y102.3 E.02143
G1 X130.447 Y101.995 E.01078
G1 X130.447 Y108.005 E.18842
G1 X130.215 Y108.394 E.01422
G1 X130.028 Y108.662 E.01024
G1 X130.028 Y101.338 E.22965
G1 X129.609 Y100.825 E.02077
G1 X129.609 Y109.175 E.26183
G1 X129.19 Y109.6 E.01869
G1 X129.19 Y100.4 E.28843
G1 X128.771 Y100.054 E.01704
G1 X128.771 Y109.946 E.31013
G1 X128.352 Y110.238 E.01603
G1 X128.352 Y99.762 E.32849
G1 X127.933 Y99.515 E.01525
G1 X127.933 Y110.485 E.34399
G1 X127.514 Y110.691 E.01464
G1 X127.514 Y99.309 E.3569
G1 X127.095 Y99.143 E.01413
G1 X127.095 Y110.857 E.36729
G1 X126.676 Y110.99 E.01378
G1 X126.676 Y99.01 E.3756
G1 X126.257 Y98.909 E.01351
G1 X126.257 Y111.091 E.38195
G1 X125.838 Y111.162 E.01333
G1 X125.838 Y98.838 E.38643
G1 X125.419 Y98.795 E.0132
G1 X125.419 Y111.205 E.38909
G1 X125 Y111.219 E.01314
G1 X125 Y98.781 E.38997
G1 X124.581 Y98.795 E.01314
G1 X124.581 Y111.205 E.38909
G1 X124.162 Y111.162 E.0132
G1 X124.162 Y98.838 E.38643
G1 X123.743 Y98.909 E.01333
G1 X123.743 Y111.091 E.38195
G1 X123.324 Y110.99 E.01351
G1 X123.324 Y99.01 E.3756
G1 X122.905 Y99.143 E.01378
G1 X122.905 Y110.857 E.36729
G1 X122.486 Y110.691 E.01413
G1 X122.486 Y99.309 E.3569
G1 X122.067 Y99.515 E.01464
G1 X122.067 Y110.485 E.34399
G1 X121.648 Y110.238 E.01525
G1 X121.648 Y99.762 E.32849
G1 X121.229 Y100.054 E.01603
G1 X121.229 Y109.946 E.31013
G1 X120.81 Y109.599 E.01704
G1 X120.81 Y100.4 E.28843
G1 X120.391 Y100.825 E.01869
G1 X120.391 Y109.175 E.26183
G1 X119.972 Y108.662 E.02077
G1 X119.972 Y101.338 E.22965
G1 X119.785 Y101.606 E.01024
G1 X119.553 Y101.995 E.01422
G1 X119.553 Y108.005 E.18842
G1 X119.394 Y107.7 E.01078
G1 X119.134 Y107.067 E.02144
G1 X119.134 Y102.468 E.14421
M204 S1000
;WIPE_START
G1 F8640
G1 X119.134 Y105.76 E-.76
;WIPE_END
G1 E-.04 F2100
G1 Z.6 F720
G1 X117.82 Y101.887 F10800
G1 Z.2 F720
G1 E.8 F2100
M204 S800
;TYPE:Perimeter
G1 F1200
G1 X118.174 Y101.165 E.0252
G1 X118.443 Y100.723 E.01623
G1 X118.721 Y100.324 E.01524
G1 X119.033 Y99.931 E.01574
G1 X119.382 Y99.548 E.01624
G1 X119.742 Y99.199 E.01574
G1 X120.113 Y98.884 E.01525
G1 X120.527 Y98.574 E.01622
G1 X120.935 Y98.309 E.01524
G1 X121.372 Y98.062 E.01574
G1 X121.838 Y97.838 E.01624
G1 X122.304 Y97.65 E.01573
G1 X122.765 Y97.497 E.01525
G1 X123.265 Y97.366 E.01622
G1 X123.743 Y97.273 E.01524
G1 X124.24 Y97.208 E.01573
G1 X124.757 Y97.175 E.01624
G1 X125.259 Y97.175 E.01573
G1 X125.744 Y97.206 E.01525
G1 X126.257 Y97.273 E.01623
G1 X126.75 Y97.369 E.01574
G1 X127.22 Y97.492 E.01524
G1 X127.711 Y97.655 E.01623
G1 X128.176 Y97.844 E.01573
G1 X128.614 Y98.055 E.01523
G1 X129.051 Y98.301 E.01572
G1 X129.473 Y98.574 E.01575
G1 X129.887 Y98.884 E.01623
G1 X130.258 Y99.199 E.01524
G1 X130.618 Y99.548 E.01574
G1 X130.967 Y99.931 E.01624
G1 X131.279 Y100.324 E.01574
G1 X131.557 Y100.723 E.01524
G1 X131.826 Y101.165 E.01623
G1 X132.057 Y101.61 E.01574
G1 X132.254 Y102.055 E.01524
G1 X132.433 Y102.54 E.01622
G1 X132.571 Y103.006 E.01525
G1 X132.683 Y103.496 E.01574
G1 X132.766 Y104.007 E.01624
G1 X132.813 Y104.506 E.01574
G1 X132.829 Y104.992 E.01524
G1 X132.812 Y105.51 E.01623
G1 X132.764 Y106.009 E.01574
G1 X132.683 Y106.505 E.01574
G1 X132.571 Y106.994 E.01573
G1 X132.433 Y107.46 E.01525
G1 X132.254 Y107.945 E.01622
G1 X132.057 Y108.39 E.01524
G1 X131.826 Y108.835 E.01574
G1 X131.557 Y109.278 E.01624
G1 X131.27 Y109.689 E.01573
G1 X130.966 Y110.069 E.01525
G1 X130.618 Y110.452 E.01623
G1 X130.258 Y110.801 E.01574
G1 X129.887 Y111.116 E.01524
G1 X129.473 Y111.426 E.01622
G1 X129.065 Y111.691 E.01525
G1 X128.628 Y111.938 E.01573
G1 X128.162 Y112.162 E.01623
G1 X127.711 Y112.345 E.01525
G1 X127.235 Y112.503 E.01574
G1 X126.734 Y112.635 E.01624
G1 X126.242 Y112.73 E.01573
G1 X125.759 Y112.792 E.01524
G1 X125.243 Y112.825 E.01623
G1 X124.741 Y112.825 E.01573
G1 X124.256 Y112.794 E.01525
G1 X123.743 Y112.727 E.01623
G1 X123.25 Y112.631 E.01574
G1 X122.78 Y112.508 E.01524
G1 X122.289 Y112.345 E.01622
G1 X121.838 Y112.162 E.01525
G1 X121.386 Y111.945 E.01574
G1 X120.935 Y111.691 E.01624
G1 X120.514 Y111.416 E.01574
G1 X120.113 Y111.116 E.01572
G1 X119.742 Y110.801 E.01524
G1 X119.382 Y110.452 E.01574
G1 X119.034 Y110.069 E.01623
G1 X118.73 Y109.689 E.01525
G1 X118.443 Y109.278 E.01573
G1 X118.174 Y108.835 E.01624
G1 X117.943 Y108.39 E.01574
G1 X117.746 Y107.945 E.01525
G1 X117.567 Y107.46 E.01622
G1 X117.429 Y106.994 E.01524
G1 X117.317 Y106.504 E.01574
G1 X117.234 Y105.993 E.01623
G1 X117.187 Y105.494 E.01574
G1 X117.171 Y105.008 E.01525
M73 Q1 S63
G1 X117.188 Y104.49 E.01623
G1 X117.236 Y103.991 E.01574
G1 X117.314 Y103.511 E.01525
G1 X117.429 Y103.006 E.01623
G1 X117.572 Y102.525 E.01575
M73 P1 R63
G1 X117.796 Y101.942 E.01959
M204 S1000
G1 X118.165 Y102.039 F10800
M204 S800
;TYPE:External perimeter
G1 F1200
G1 X118.503 Y101.35 E.02407
G1 X118.759 Y100.928 E.01546
G1 X119.023 Y100.549 E.01449
G1 X119.321 Y100.175 E.01498
G1 X119.652 Y99.81 E.01547
G1 X119.996 Y99.478 E.01498
G1 X120.348 Y99.179 E.01449
G1 X120.743 Y98.884 E.01546
G1 X121.13 Y98.632 E.01449
G1 X121.546 Y98.397 E.01498
G1 X121.991 Y98.183 E.01547
G1 X122.434 Y98.004 E.01498
G1 X122.872 Y97.858 E.01449
G1 X123.349 Y97.733 E.01546
G1 X123.803 Y97.645 E.01449
G1 X124.277 Y97.583 E.01498
G1 X124.769 Y97.552 E.01547
G1 X125.247 Y97.552 E.01498
G1 X125.708 Y97.582 E.01449
G1 X126.197 Y97.645 E.01546
G1 X126.666 Y97.737 E.01498
G1 X127.113 Y97.854 E.01449
G1 X127.581 Y98.009 E.01546
G1 X128.023 Y98.189 E.01498
G1 X128.44 Y98.39 E.01449
G1 X128.856 Y98.624 E.01497
G1 X129.257 Y98.884 E.01498
G1 X129.652 Y99.179 E.01546
G1 X130.004 Y99.478 E.01449
G1 X130.348 Y99.81 E.01498
G1 X130.679 Y100.175 E.01547
G1 X130.977 Y100.549 E.01498
G1 X131.241 Y100.928 E.01449
G1 X131.497 Y101.35 E.01546
G1 X131.717 Y101.774 E.01498
G1 X131.904 Y102.196 E.01449
G1 X132.075 Y102.659 E.01546
G1 X132.206 Y103.102 E.01449
G1 X132.313 Y103.568 E.01498
G1 X132.392 Y104.055 E.01546
G1 X132.437 Y104.53 E.01498
G1 X132.452 Y104.992 E.01449
G1 X132.436 Y105.485 E.01546
G1 X132.39 Y105.961 E.01498
G1 X132.313 Y106.432 E.01498
G1 X132.206 Y106.898 E.01497
G1 X132.075 Y107.341 E.01449
G1 X131.904 Y107.803 E.01546
G1 X131.717 Y108.226 E.01449
G1 X131.497 Y108.65 E.01498
G1 X131.241 Y109.072 E.01547
G1 X130.967 Y109.463 E.01498
G1 X130.679 Y109.825 E.01449
G1 X130.348 Y110.19 E.01546
G1 X130.004 Y110.522 E.01498
G1 X129.652 Y110.821 E.01449
G1 X129.257 Y111.116 E.01546
G1 X128.87 Y111.368 E.0145
G1 X128.454 Y111.603 E.01498
G1 X128.009 Y111.817 E.01546
G1 X127.581 Y111.991 E.01449
G1 X127.128 Y112.142 E.01498
G1 X126.651 Y112.267 E.01547
G1 X126.182 Y112.357 E.01498
G1 X125.723 Y112.417 E.01449
G1 X125.231 Y112.448 E.01546
G1 X124.753 Y112.448 E.01498
G1 X124.292 Y112.418 E.01449
G1 X123.803 Y112.355 E.01546
G1 X123.334 Y112.263 E.01498
G1 X122.887 Y112.146 E.01449
G1 X122.419 Y111.991 E.01546
G1 X121.991 Y111.817 E.01449
G1 X121.56 Y111.61 E.01498
G1 X121.13 Y111.368 E.01546
G1 X120.73 Y111.107 E.01498
G1 X120.348 Y110.821 E.01497
G1 X119.996 Y110.522 E.01449
G1 X119.652 Y110.19 E.01498
G1 X119.321 Y109.825 E.01546
G1 X119.033 Y109.463 E.01449
G1 X118.759 Y109.072 E.01498
G1 X118.503 Y108.65 E.01547
G1 X118.283 Y108.226 E.01498
G1 X118.096 Y107.803 E.01449
G1 X117.925 Y107.341 E.01546
G1 X117.794 Y106.898 E.01449
G1 X117.687 Y106.432 E.01498
G1 X117.608 Y105.945 E.01546
G1 X117.563 Y105.47 E.01498
G1 X117.548 Y105.008 E.01449
G1 X117.564 Y104.515 E.01546
G1 X117.61 Y104.039 E.01498
G1 X117.684 Y103.583 E.01449
G1 X117.794 Y103.102 E.01546
G1 X117.93 Y102.644 E.01498
G1 X118.141 Y102.094 E.01847
M204 S1000
G1 X117.929 Y101.716 F10800
;WIPE_START
G1 F8640
G1 X118.503 Y101.35 E-.1911
G1 X118.759 Y100.928 E-.11387
G1 X119.023 Y100.549 E-.10672
G1 X119.321 Y100.175 E-.1103
G1 X119.652 Y99.81 E-.1139
G1 X119.996 Y99.478 E-.1103
G1 X120.041 Y99.44 E-.01382
;WIPE_END
G1 E-.04 F2100
G1 Z.6 F720
G1 X104.111 Y121.323 F10800
G1 Z.2 F720
G1 E.8 F2100
M204 S800
;TYPE:Perimeter
G1 F1200
G1 X104.001 Y121.213 E.0049
G1 X100.887 Y121.213 E.09763
G1 X100.887 Y88.787 E1.01669
G1 X104.001 Y88.787 E.09763
G1 X108.787 Y84.001 E.21223
G1 X108.787 Y80.887 E.09763
G1 X141.213 Y80.887 E1.01669
G1 X141.213 Y84.001 E.09763
G1 X145.999 Y88.787 E.21223
G1 X149.113 Y88.787 E.09763
M73 P1 R62
G1 X149.113 Y121.213 E1.01669
G1 X145.999 Y121.213 E.09763
G1 X141.213 Y125.999 E.21223
G1 X141.213 Y129.113 E.09763
G1 X108.787 Y129.113 E1.01669
G1 X108.787 Y125.999 E.09763
G1 X104.154 Y121.366 E.20545
M204 S1000
G1 X103.845 Y121.59 F10800
M204 S800
;TYPE:External perimeter
G1 F1200
G1 X100.51 Y121.59 E.10456
G1 X100.51 Y88.41 E1.04034
G1 X103.845 Y88.41 E.10456
G1 X108.41 Y83.845 E.20244
G1 X108.41 Y80.51 E.10456
G1 X141.59 Y80.51 E1.04034
G1 X141.59 Y83.845 E.10456
G1 X146.155 Y88.41 E.20243
G1 X149.49 Y88.41 E.10456
G1 X149.49 Y121.59 E1.04034
G1 X146.155 Y121.59 E.10456
G1 X141.59 Y126.155 E.20243
G1 X141.59 Y129.49 E.10456
G1 X108.41 Y129.49 E1.04034
G1 X108.41 Y126.155 E.10456
G1 X103.887 Y121.632 E.20055
M204 S1000
G1 X103.775 Y121.196 F10800
;WIPE_START
G1 F8640
G1 X100.596 Y121.591 E-.76
;WIPE_END
G1 E-.04 F2100
G1 Z.6 F720
G1 X148.235 Y88.9 F10800
G1 Z.2 F720
G1 E.8 F2100
M204 S800
;TYPE:Solid infill
;WIDTH:0.421338
G1 F1200
G1 X148.83 Y89.496 E.02649
G1 X148.83 Y90.031 E.01684
G1 X147.869 Y89.07 E.04276
G1 X147.334 Y89.07 E.01684
G1 X148.83 Y90.566 E.06657
G1 X148.83 Y91.101 E.01684
G1 X146.629 Y88.9 E.09794
M204 S1000
;WIPE_START
G1 F8640
G1 X148.83 Y91.101 E-.71869
G1 X148.83 Y90.922 E-.04131
;WIPE_END
G1 E-.04 F2100
G1 Z.6 F720
G1 X141.1 Y81.765 F10800
G1 Z.2 F720
G1 E.8 F2100
M204 S800
G1 F1200
G1 X140.504 Y81.17 E.0265
G1 X139.969 Y81.17 E.01684
G1 X140.93 Y82.131 E.04276
G1 X140.93 Y82.666 E.01684
G1 X139.434 Y81.17 E.06657
G1 X138.899 Y81.17 E.01684
G1 X141.1 Y83.371 E.09794
M204 S1000
;WIPE_START
G1 F8640
G1 X138.899 Y81.17 E-.7187
G1 X139.078 Y81.17 E-.0413
;WIPE_END
G1 E-.04 F2100
G1 Z.6 F720
G1 X138.194 Y81 F10800
G1 Z.2 F720
G1 E.8 F2100
M204 S800
G1 F1200
G1 X140.93 Y83.736 E.12175
G1 X140.93 Y84.118 E.01201
G1 X145.882 Y89.07 E.22035
G1 X146.264 Y89.07 E.01201
G1 X148.83 Y91.636 E.1142
G1 X148.83 Y92.171 E.01684
G1 X137.829 Y81.17 E.48956
G1 X137.293 Y81.17 E.01684
G1 X148.83 Y92.707 E.51337
G1 X148.83 Y93.242 E.01684
G1 X136.758 Y81.17 E.53719
G1 X136.223 Y81.17 E.01684
G1 X148.83 Y93.777 E.561
G1 X148.83 Y94.312 E.01684
G1 X135.688 Y81.17 E.58481
G1 X135.153 Y81.17 E.01684
M73 Q1 S62
G1 X148.83 Y94.847 E.60863
G1 X148.83 Y95.382 E.01684
G1 X134.618 Y81.17 E.63244
G1 X134.082 Y81.17 E.01684
G1 X148.83 Y95.918 E.65626
G1 X148.83 Y96.453 E.01684
G1 X133.547 Y81.17 E.68007
G1 X133.012 Y81.17 E.01684
G1 X148.83 Y96.988 E.70389
G1 X148.83 Y97.523 E.01684
G1 X132.477 Y81.17 E.7277
G1 X131.942 Y81.17 E.01684
G1 X148.83 Y98.058 E.75151
