; generated by PrusaSlicer 2.4.2+win64 on 2022-06-15 at 10:43:13 UTC


;
;
; 

; external perimeters extrusion width = 0.45mm
; perimeters extrusion width = 0.45mm
; infill extrusion width = 0.45mm
; solid infill extrusion width = 0.45mm
; top infill extrusion width = 0.40mm
; support material extrusion width = 0.35mm
; first layer extrusion width = 0.42mm

; external perimeters extrusion width = 0.45mm
; perimeters extrusion width = 0.45mm
; infill extrusion width = 0.45mm
; solid infill extrusion width = 0.45mm
; top infill extrusion width = 0.40mm
; support material extrusion width = 0.35mm
; first layer extrusion width = 0.42mm

M73 P0 R66
M73 Q0 S66
M201 X1000 Y1000 Z200 E5000 ; sets maximum accelerations, mm/sec^2
M203 X200 Y200 Z12 E120 ; sets maximum feedrates, mm / sec
M204 P1250 R1250 T1250 ; sets acceleration (P, T) and retract acceleration (R), mm/sec^2
M205 X8.00 Y8.00 Z0.40 E4.50 ; sets the jerk limits, mm/sec
M205 S0 T0 ; sets the minimum extruding and travel feed rate, mm/sec
M107
;TYPE:Custom
M862.3 P "MK3S" ; printer model check
M862.1 P0.4 ; nozzle diameter check
M115 U3.11.0 ; tell printer latest fw version
G90 ; use absolute coordinates
M83 ; extruder relative mode
M104 S205 ; set extruder temp
M140 S60 ; set bed temp
M190 S60 ; wait for bed temp
M109 S205 ; wait for extruder temp
G28 W ; home all without mesh bed level
G80 ; mesh bed leveling
G1 Z0.2 F720
G1 Y-3 F1000 ; go outside print area
G92 E0
G1 X60 E9 F1000 ; intro line
G1 X100 E12.5 F1000 ; intro line
G92 E0
M221 S95

; Don't change E values below. Excessive value can damage the printer.

M907 E538 ; set extruder motor current
G21 ; set units to millimeters
G90 ; use absolute coordinates
M83 ; use relative distances for extrusion
M900 K0.05 ; Filament gcode LA 1.5
M900 K30 ; Filament gcode LA 1.0
M107
;LAYER_CHANGE
;Z:0.2
;HEIGHT:0.2
;BEFORE_LAYER_CHANGE
G92 E0.0
;0.2


G1 E-.8 F2100
G1 Z.4 F720
;AFTER_LAYER_CHANGE
;0.2
G1 X98.878 Y72.064 F10800
G1 Z.2 F720
G1 E.8 F2100
M204 S800
;TYPE:Skirt/Brim
;WIDTH:0.42
G1 F1200
G1 X106.778 Y64.164 E.3503
G1 X108.459 Y63.468 E.05704
G1 X142.459 Y63.468 E1.06605
G1 X144.14 Y64.164 E.05704
G1 X152.04 Y72.064 E.3503
G1 X152.736 Y73.745 E.05704
G1 X152.736 Y107.745 E1.06605
G1 X152.621 Y108.474 E.02314
G1 X143.601 Y136.467 E.92213
G1 X143.268 Y137.125 E.02311
G1 X140.908 Y140.409 E.12681
G1 X140.042 Y141.147 E.03567
G1 X136.426 Y142.958 E.12681
G1 X135.603 Y143.198 E.02687
G1 X133.577 Y143.405 E.06387
G1 X133.004 Y143.394 E.01797
G1 X130.611 Y143.026 E.07591
G1 X110.25 Y136.684 E.66866
G1 X109.119 Y135.921 E.04278
G1 X108.742 Y135.278 E.02337
G1 X98.344 Y108.609 E.8975
G1 X98.182 Y107.745 E.02755
G1 X98.182 Y73.745 E1.06605
G1 X98.855 Y72.12 E.05516
M204 S1000
; printing object 3_20_Cube_Insert_Beamexpander_v3.stl id:1 copy 0
;WIPE_START
G1 F8640
G1 X101.178 Y69.788 E-.76
;WIPE_END
G1 E-.04 F2100
G1 Z.6 F720
G1 X126.089 Y84.214 F10800
G1 Z.2 F720
G1 E.8 F2100
M204 S800
;TYPE:Support material
G1 F1200
G1 X126.506 Y84.268 E.01319
G1 X126.919 Y84.348 E.01319
G1 X127.326 Y84.455 E.01319
G1 X127.725 Y84.587 E.01319
G1 X128.115 Y84.745 E.01319
G1 X128.494 Y84.928 E.01319
G1 X128.86 Y85.134 E.01319
G1 X129.213 Y85.363 E.01319
G1 X129.55 Y85.615 E.01319
G1 X129.87 Y85.888 E.01319
G1 X130.172 Y86.18 E.01319
G1 X130.455 Y86.492 E.01319
G1 X130.717 Y86.82 E.01319
G1 X130.958 Y87.165 E.01319
G1 X131.176 Y87.525 E.01319
G1 X131.371 Y87.898 E.01319
G1 X131.541 Y88.283 E.01319
G1 X131.686 Y88.677 E.01319
G1 X131.806 Y89.081 E.01319
G1 X131.899 Y89.491 E.01319
G1 X131.967 Y89.906 E.01319
G1 X132.007 Y90.325 E.01319
G1 X132.02 Y90.745 E.01319
G1 X132.007 Y91.165 E.01319
G1 X131.967 Y91.584 E.01319
G1 X131.9 Y91.999 E.01319
G1 X131.806 Y92.409 E.01319
G1 X131.686 Y92.813 E.01319
G1 X131.541 Y93.207 E.01319
G1 X131.371 Y93.592 E.01319
G1 X131.176 Y93.965 E.01319
G1 X130.958 Y94.325 E.01319
G1 X130.718 Y94.67 E.01319
G1 X130.455 Y94.998 E.01319
G1 X130.173 Y95.31 E.01319
G1 X129.87 Y95.602 E.01319
G1 X129.55 Y95.875 E.01319
G1 X129.213 Y96.127 E.01319
G1 X128.861 Y96.356 E.01319
G1 X128.494 Y96.563 E.01319
G1 X128.115 Y96.745 E.01319
G1 X127.725 Y96.903 E.01319
G1 X127.326 Y97.035 E.01319
G1 X126.919 Y97.142 E.01319
G1 X126.506 Y97.223 E.01319
G1 X126.089 Y97.276 E.01319
G1 X125.669 Y97.303 E.01319
G1 X125.249 Y97.303 E.01319
G1 X124.829 Y97.276 E.01319
G1 X124.412 Y97.223 E.01319
G1 X123.999 Y97.142 E.01319
G1 X123.592 Y97.035 E.01319
G1 X123.193 Y96.903 E.01319
G1 X122.803 Y96.745 E.01319
G1 X122.424 Y96.563 E.01319
G1 X122.058 Y96.356 E.01319
G1 X121.705 Y96.127 E.01319
G1 X121.368 Y95.875 E.01319
G1 X121.048 Y95.603 E.01319
G1 X120.746 Y95.31 E.01319
G1 X120.463 Y94.999 E.01319
G1 X120.201 Y94.67 E.01319
G1 X119.96 Y94.325 E.01319
G1 X119.742 Y93.965 E.01319
G1 X119.547 Y93.592 E.01319
G1 X119.377 Y93.208 E.01319
G1 X119.232 Y92.813 E.01319
G1 X119.112 Y92.41 E.01319
G1 X119.018 Y92 E.01319
G1 X118.951 Y91.584 E.01319
G1 X118.911 Y91.166 E.01319
G1 X118.897 Y90.745 E.01319
G1 X118.911 Y90.325 E.01319
G1 X118.951 Y89.906 E.01319
G1 X119.018 Y89.491 E.01319
G1 X119.112 Y89.081 E.01319
G1 X119.232 Y88.678 E.01319
G1 X119.377 Y88.283 E.01319
G1 X119.547 Y87.898 E.01319
G1 X119.742 Y87.525 E.01319
G1 X119.96 Y87.166 E.01319
G1 X120.2 Y86.821 E.01319
G1 X120.463 Y86.492 E.01319
G1 X120.745 Y86.18 E.01319
G1 X121.048 Y85.888 E.01319
G1 X121.368 Y85.615 E.01319
G1 X121.705 Y85.364 E.01319
G1 X122.057 Y85.134 E.01319
G1 X122.424 Y84.928 E.01319
G1 X122.803 Y84.745 E.01319
G1 X123.193 Y84.587 E.01319
G1 X123.592 Y84.455 E.01319
G1 X123.999 Y84.348 E.01319
G1 X124.412 Y84.268 E.01319
G1 X124.829 Y84.214 E.01319
G1 X125.249 Y84.187 E.01319
G1 X125.669 Y84.187 E.0132
G1 X126.032 Y84.21 E.01141
M204 S1000
G1 X131.325 Y93.277 F10800
M204 S800
G1 F1200
G1 X131.325 Y88.678 E.14421
G1 X131.065 Y88.045 E.02143
G1 X130.906 Y87.74 E.01078
G1 X130.906 Y93.75 E.18842
G1 X130.674 Y94.139 E.01422
G1 X130.487 Y94.407 E.01024
G1 X130.487 Y87.083 E.22965
G1 X130.068 Y86.57 E.02077
G1 X130.068 Y94.92 E.26183
G1 X129.649 Y95.345 E.01869
G1 X129.649 Y86.146 E.28843
G1 X129.23 Y85.8 E.01704
G1 X129.23 Y95.691 E.31013
G1 X128.811 Y95.984 E.01603
G1 X128.811 Y85.507 E.3285
G1 X128.392 Y85.26 E.01525
G1 X128.392 Y96.231 E.34399
G1 X127.973 Y96.436 E.01464
G1 X127.973 Y85.054 E.3569
G1 X127.554 Y84.888 E.01413
G1 X127.554 Y96.602 E.36729
G1 X127.135 Y96.735 E.01378
M73 P0 R65
G1 X127.135 Y84.756 E.3756
G1 X126.716 Y84.654 E.01351
G1 X126.716 Y96.836 E.38195
G1 X126.297 Y96.907 E.01333
G1 X126.297 Y84.583 E.38643
G1 X125.878 Y84.54 E.0132
G1 X125.878 Y96.95 E.38909
G1 X125.459 Y96.964 E.01314
G1 X125.459 Y84.526 E.38997
G1 X125.04 Y84.54 E.01314
G1 X125.04 Y96.95 E.38909
G1 X124.621 Y96.907 E.0132
G1 X124.621 Y84.583 E.38643
G1 X124.202 Y84.654 E.01333
G1 X124.202 Y96.836 E.38195
G1 X123.783 Y96.735 E.01351
G1 X123.783 Y84.756 E.3756
G1 X123.364 Y84.888 E.01378
G1 X123.364 Y96.602 E.36729
G1 X122.945 Y96.437 E.01413
G1 X122.945 Y85.054 E.3569
G1 X122.526 Y85.26 E.01464
G1 X122.526 Y96.231 E.34399
G1 X122.107 Y95.984 E.01525
G1 X122.107 Y85.507 E.32849
G1 X121.688 Y85.8 E.01603
G1 X121.688 Y95.691 E.31013
G1 X121.269 Y95.345 E.01704
G1 X121.269 Y86.146 E.28843
G1 X120.85 Y86.57 E.01869
G1 X120.85 Y94.92 E.26183
G1 X120.431 Y94.407 E.02077
G1 X120.431 Y87.083 E.22965
G1 X120.244 Y87.351 E.01024
G1 X120.012 Y87.74 E.01422
G1 X120.012 Y93.75 E.18842
G1 X119.853 Y93.445 E.01078
G1 X119.593 Y92.813 E.02144
G1 X119.593 Y88.213 E.14421
M204 S1000
;WIPE_START
G1 F8640
G1 X119.593 Y91.505 E-.76
;WIPE_END
G1 E-.04 F2100
G1 Z.6 F720
G1 X118.279 Y87.632 F10800
G1 Z.2 F720
G1 E.8 F2100
M204 S800
;TYPE:Perimeter
G1 F1200
G1 X118.633 Y86.91 E.0252
G1 X118.902 Y86.467 E.01624
G1 X119.189 Y86.056 E.01573
G1 X119.493 Y85.676 E.01524
G1 X119.84 Y85.293 E.01623
G1 X120.201 Y84.944 E.01574
G1 X120.572 Y84.629 E.01525
G1 X120.986 Y84.32 E.01622
G1 X121.394 Y84.054 E.01524
G1 X121.831 Y83.808 E.01574
G1 X122.297 Y83.583 E.01624
G1 X122.763 Y83.395 E.01573
G1 X123.224 Y83.242 E.01525
G1 X123.724 Y83.111 E.01622
G1 X124.202 Y83.018 E.01524
G1 X124.699 Y82.953 E.01574
G1 X125.216 Y82.92 E.01624
G1 X125.718 Y82.92 E.01573
G1 X126.203 Y82.952 E.01525
G1 X126.716 Y83.018 E.01622
G1 X127.193 Y83.111 E.01524
G1 X127.679 Y83.237 E.01573
G1 X128.17 Y83.4 E.01623
G1 X128.621 Y83.583 E.01524
G1 X129.073 Y83.8 E.01573
G1 X129.51 Y84.046 E.01573
G1 X129.932 Y84.319 E.01575
G1 X130.346 Y84.629 E.01623
G1 X130.716 Y84.944 E.01524
G1 X131.077 Y85.293 E.01574
G1 X131.425 Y85.676 E.01623
G1 X131.728 Y86.056 E.01524
G1 X132.016 Y86.467 E.01573
G1 X132.284 Y86.91 E.01624
G1 X132.516 Y87.355 E.01574
G1 X132.713 Y87.8 E.01524
G1 X132.892 Y88.285 E.01622
G1 X133.03 Y88.752 E.01525
G1 X133.142 Y89.241 E.01574
G1 X133.225 Y89.752 E.01624
G1 X133.272 Y90.251 E.01574
G1 X133.288 Y90.737 E.01524
G1 X133.271 Y91.254 E.01622
G1 X133.225 Y91.738 E.01525
G1 X133.145 Y92.234 E.01574
G1 X133.03 Y92.738 E.01623
G1 X132.892 Y93.205 E.01525
G1 X132.719 Y93.676 E.01574
G1 X132.509 Y94.149 E.01623
G1 X132.277 Y94.594 E.01574
G1 X132.025 Y95.01 E.01525
G1 X131.729 Y95.434 E.01622
G1 X131.426 Y95.814 E.01524
G1 X131.089 Y96.186 E.01573
G1 X130.729 Y96.535 E.01574
G1 X130.347 Y96.861 E.01574
G1 X129.932 Y97.171 E.01623
G1 X129.524 Y97.436 E.01525
G1 X129.087 Y97.683 E.01573
G1 X128.621 Y97.907 E.01623
G1 X128.17 Y98.09 E.01525
G1 X127.694 Y98.248 E.01574
G1 X127.193 Y98.38 E.01624
G1 X126.701 Y98.475 E.01574
G1 X126.218 Y98.537 E.01524
G1 X125.702 Y98.57 E.01623
G1 X125.2 Y98.57 E.01573
G1 X124.715 Y98.539 E.01525
G1 X124.202 Y98.473 E.01623
G1 X123.709 Y98.376 E.01574
G1 X123.239 Y98.253 E.01524
G1 X122.748 Y98.09 E.01622
G1 X122.297 Y97.907 E.01525
G1 X121.845 Y97.69 E.01574
G1 X121.394 Y97.436 E.01624
G1 X120.973 Y97.162 E.01573
G1 X120.584 Y96.871 E.01524
G1 X120.202 Y96.546 E.01573
G1 X119.84 Y96.197 E.01575
G1 X119.492 Y95.814 E.01624
G1 X119.18 Y95.421 E.01574
G1 X118.902 Y95.023 E.01524
G1 X118.633 Y94.58 E.01623
G1 X118.402 Y94.135 E.01574
G1 X118.205 Y93.69 E.01525
G1 X118.026 Y93.205 E.01622
G1 X117.888 Y92.739 E.01524
G1 X117.776 Y92.25 E.01574
G1 X117.693 Y91.738 E.01623
G1 X117.645 Y91.239 E.01574
G1 X117.63 Y90.753 E.01525
G1 X117.647 Y90.236 E.01623
M73 Q1 S66
G1 X117.695 Y89.736 E.01574
M73 P1 R65
G1 X117.773 Y89.256 E.01525
G1 X117.888 Y88.751 E.01623
G1 X118.031 Y88.27 E.01575
G1 X118.255 Y87.687 E.01959
M204 S1000
G1 X118.624 Y87.784 F10800
M204 S800
;TYPE:External perimeter
G1 F1200
G1 X118.962 Y87.095 E.02407
G1 X119.218 Y86.673 E.01547
G1 X119.492 Y86.282 E.01498
G1 X119.78 Y85.921 E.01449
G1 X120.111 Y85.555 E.01546
G1 X120.455 Y85.224 E.01498
G1 X120.807 Y84.924 E.01449
G1 X121.202 Y84.629 E.01546
G1 X121.589 Y84.377 E.01449
G1 X122.005 Y84.142 E.01498
G1 X122.45 Y83.928 E.01547
G1 X122.893 Y83.749 E.01498
G1 X123.331 Y83.604 E.01449
G1 X123.808 Y83.479 E.01546
G1 X124.262 Y83.39 E.01449
G1 X124.736 Y83.329 E.01498
G1 X125.228 Y83.297 E.01547
G1 X125.706 Y83.297 E.01498
G1 X126.167 Y83.327 E.01449
G1 X126.656 Y83.39 E.01546
G1 X127.11 Y83.478 E.01449
G1 X127.572 Y83.599 E.01498
G1 X128.04 Y83.755 E.01546
G1 X128.468 Y83.928 E.01449
G1 X128.899 Y84.135 E.01497
G1 X129.315 Y84.369 E.01498
G1 X129.716 Y84.629 E.01498
G1 X130.111 Y84.924 E.01546
G1 X130.463 Y85.224 E.01449
G1 X130.807 Y85.555 E.01498
G1 X131.138 Y85.921 E.01546
G1 X131.426 Y86.282 E.01449
G1 X131.7 Y86.673 E.01498
G1 X131.956 Y87.095 E.01547
G1 X132.176 Y87.519 E.01498
G1 X132.363 Y87.942 E.01449
G1 X132.534 Y88.404 E.01546
G1 X132.665 Y88.847 E.01449
G1 X132.772 Y89.313 E.01498
G1 X132.851 Y89.8 E.01546
G1 X132.896 Y90.275 E.01498
G1 X132.911 Y90.737 E.01449
G1 X132.895 Y91.23 E.01546
G1 X132.851 Y91.69 E.01449
G1 X132.775 Y92.162 E.01498
G1 X132.665 Y92.643 E.01546
G1 X132.534 Y93.086 E.01449
G1 X132.369 Y93.534 E.01498
G1 X132.169 Y93.985 E.01546
G1 X131.948 Y94.409 E.01498
G1 X131.708 Y94.804 E.01449
G1 X131.426 Y95.208 E.01546
G1 X131.138 Y95.57 E.01449
G1 X130.817 Y95.924 E.01497
G1 X130.475 Y96.256 E.01498
G1 X130.111 Y96.566 E.01498
G1 X129.716 Y96.861 E.01546
G1 X129.329 Y97.113 E.0145
G1 X128.913 Y97.348 E.01498
G1 X128.468 Y97.562 E.01546
G1 X128.04 Y97.736 E.01449
G1 X127.587 Y97.887 E.01498
G1 X127.11 Y98.012 E.01547
G1 X126.641 Y98.103 E.01498
G1 X126.182 Y98.162 E.01449
G1 X125.69 Y98.193 E.01546
G1 X125.212 Y98.193 E.01498
G1 X124.751 Y98.163 E.01449
G1 X124.262 Y98.1 E.01546
G1 X123.793 Y98.008 E.01498
G1 X123.346 Y97.891 E.01449
G1 X122.878 Y97.736 E.01546
G1 X122.45 Y97.562 E.01449
G1 X122.019 Y97.355 E.01498
G1 X121.589 Y97.113 E.01546
G1 X121.189 Y96.852 E.01498
G1 X120.819 Y96.576 E.01449
G1 X120.455 Y96.267 E.01497
G1 X120.111 Y95.935 E.01498
G1 X119.78 Y95.57 E.01547
G1 X119.482 Y95.196 E.01498
G1 X119.218 Y94.817 E.01449
G1 X118.962 Y94.395 E.01546
G1 X118.742 Y93.971 E.01498
G1 X118.555 Y93.549 E.01449
G1 X118.384 Y93.086 E.01546
G1 X118.253 Y92.643 E.01449
G1 X118.146 Y92.177 E.01498
G1 X118.067 Y91.69 E.01546
G1 X118.022 Y91.215 E.01498
G1 X118.007 Y90.753 E.01449
G1 X118.023 Y90.26 E.01546
G1 X118.069 Y89.784 E.01498
G1 X118.143 Y89.328 E.01449
G1 X118.253 Y88.847 E.01546
G1 X118.389 Y88.389 E.01498
G1 X118.6 Y87.839 E.01847
M204 S1000
G1 X118.388 Y87.462 F10800
;WIPE_START
G1 F8640
G1 X118.962 Y87.095 E-.1911
G1 X119.218 Y86.673 E-.11389
G1 X119.492 Y86.282 E-.11029
G1 X119.78 Y85.921 E-.10673
G1 X120.111 Y85.555 E-.11387
G1 X120.455 Y85.224 E-.1103
G1 X120.5 Y85.185 E-.01382
;WIPE_END
G1 E-.04 F2100
G1 Z.6 F720
G1 X104.57 Y107.068 F10800
G1 Z.2 F720
G1 E.8 F2100
M204 S800
;TYPE:Perimeter
G1 F1200
G1 X104.46 Y106.958 E.0049
G1 X101.346 Y106.958 E.09763
G1 X101.346 Y74.532 E1.01669
G1 X104.46 Y74.532 E.09763
G1 X109.246 Y69.746 E.21223
G1 X109.246 Y66.632 E.09763
G1 X141.672 Y66.632 E1.01669
G1 X141.672 Y69.746 E.09763
G1 X146.458 Y74.532 E.21223
G1 X149.572 Y74.532 E.09763
G1 X149.572 Y106.958 E1.01669
G1 X146.458 Y106.958 E.09763
G1 X141.672 Y111.744 E.21223
G1 X141.672 Y114.858 E.09763
G1 X109.246 Y114.858 E1.01669
G1 X109.246 Y111.744 E.09763
G1 X104.613 Y107.111 E.20545
M204 S1000
G1 X104.304 Y107.335 F10800
M204 S800
;TYPE:External perimeter
G1 F1200
G1 X100.969 Y107.335 E.10456
G1 X100.969 Y74.155 E1.04034
G1 X104.304 Y74.155 E.10456
M73 Q1 S65
G1 X108.869 Y69.59 E.20244
G1 X108.869 Y66.255 E.10456
G1 X142.049 Y66.255 E1.04034
G1 X142.049 Y69.59 E.10456
G1 X146.614 Y74.155 E.20243
G1 X149.949 Y74.155 E.10456
G1 X149.949 Y107.335 E1.04034
G1 X146.614 Y107.335 E.10456
G1 X142.049 Y111.9 E.20243
G1 X142.049 Y115.235 E.10456
G1 X108.869 Y115.235 E1.04034
G1 X108.869 Y111.9 E.10456
G1 X104.346 Y107.378 E.20055
M204 S1000
G1 X104.234 Y106.941 F10800
;WIPE_START
G1 F8640
G1 X101.055 Y107.336 E-.76
;WIPE_END
G1 E-.04 F2100
G1 Z.6 F720
G1 X148.694 Y74.645 F10800
G1 Z.2 F720
G1 E.8 F2100
M204 S800
;TYPE:Solid infill
;WIDTH:0.421338
G1 F1200
G1 X149.289 Y75.241 E.02649
G1 X149.289 Y75.776 E.01684
G1 X148.328 Y74.815 E.04276
G1 X147.793 Y74.815 E.01684
G1 X149.289 Y76.311 E.06657
G1 X149.289 Y76.846 E.01684
G1 X147.088 Y74.645 E.09794
M204 S1000
;WIPE_START
G1 F8640
G1 X149.289 Y76.846 E-.71869
G1 X149.289 Y76.667 E-.04131
;WIPE_END
G1 E-.04 F2100
G1 Z.6 F720
G1 X141.559 Y67.51 F10800
G1 Z.2 F720
G1 E.8 F2100
M204 S800
G1 F1200
G1 X140.963 Y66.915 E.0265
G1 X140.428 Y66.915 E.01684
G1 X141.389 Y67.876 E.04276
G1 X141.389 Y68.411 E.01684
G1 X139.893 Y66.915 E.06657
G1 X139.358 Y66.915 E.01684
G1 X141.559 Y69.116 E.09794
M204 S1000
;WIPE_START
G1 F8640
G1 X139.358 Y66.915 E-.7187
G1 X139.537 Y66.915 E-.0413
;WIPE_END
G1 E-.04 F2100
G1 Z.6 F720
G1 X138.653 Y66.745 F10800
G1 Z.2 F720
G1 E.8 F2100
M204 S800
G1 F1200
G1 X141.389 Y69.481 E.12175
G1 X141.389 Y69.863 E.01201
G1 X146.341 Y74.815 E.22035
G1 X146.723 Y74.815 E.01201
G1 X149.289 Y77.381 E.1142
G1 X149.289 Y77.917 E.01684
G1 X138.288 Y66.915 E.48956
G1 X137.752 Y66.915 E.01684
G1 X149.289 Y78.452 E.51337
G1 X149.289 Y78.987 E.01684
G1 X137.217 Y66.915 E.53719
G1 X136.682 Y66.915 E.01684
G1 X149.289 Y79.522 E.561
G1 X149.289 Y80.057 E.01684
G1 X136.147 Y66.915 E.58481
G1 X135.612 Y66.915 E.01684
G1 X149.289 Y80.592 E.60863
