; generated by PrusaSlicer 2.4.2+win64 on 2022-06-15 at 12:27:28 UTC


;
;
; 

; external perimeters extrusion width = 0.45mm
; perimeters extrusion width = 0.45mm
; infill extrusion width = 0.45mm
; solid infill extrusion width = 0.45mm
; top infill extrusion width = 0.40mm
; support material extrusion width = 0.35mm
; first layer extrusion width = 0.42mm

M73 P0 R2
M73 Q0 S2
M201 X1000 Y1000 Z200 E5000 ; sets maximum accelerations, mm/sec^2
M203 X200 Y200 Z12 E120 ; sets maximum feedrates, mm / sec
M204 P1250 R1250 T1250 ; sets acceleration (P, T) and retract acceleration (R), mm/sec^2
M205 X8.00 Y8.00 Z0.40 E4.50 ; sets the jerk limits, mm/sec
M205 S0 T0 ; sets the minimum extruding and travel feed rate, mm/sec
M107
;TYPE:Custom
M862.3 P "MK3S" ; printer model check
M862.1 P0.4 ; nozzle diameter check
M115 U3.11.0 ; tell printer latest fw version
G90 ; use absolute coordinates
M83 ; extruder relative mode
M104 S205 ; set extruder temp
M140 S60 ; set bed temp
M190 S60 ; wait for bed temp
M109 S205 ; wait for extruder temp
G28 W ; home all without mesh bed level
G80 ; mesh bed leveling
G1 Z0.2 F720
G1 Y-3 F1000 ; go outside print area
G92 E0
G1 X60 E9 F1000 ; intro line
G1 X100 E12.5 F1000 ; intro line
G92 E0
M221 S95

; Don't change E values below. Excessive value can damage the printer.

M907 E538 ; set extruder motor current
G21 ; set units to millimeters
G90 ; use absolute coordinates
M83 ; use relative distances for extrusion
M900 K0.05 ; Filament gcode LA 1.5
M900 K30 ; Filament gcode LA 1.0
M107
;LAYER_CHANGE
;Z:0.2
;HEIGHT:0.2
;BEFORE_LAYER_CHANGE
G92 E0.0
;0.2


M73 P2 R2
M73 Q2 S2
G1 E-.8 F2100
M73 P3 R2
M73 Q3 S2
G1 Z.4 F720
;AFTER_LAYER_CHANGE
;0.2
G1 X118.639 Y92.583 F10800
G1 Z.2 F720
M73 Q4 S2
G1 E.8 F2100
M204 S800
;TYPE:Skirt/Brim
;WIDTH:0.42
G1 F900
M73 P4 R2
G1 X119.705 Y91.569 E.04612
G1 X121 Y91.246 E.04186
G1 X129 Y91.246 E.25083
G1 X130.417 Y91.639 E.04612
G1 X131.431 Y92.705 E.04612
G1 X131.754 Y94 E.04186
G1 X131.754 Y116 E.68979
G1 X131.361 Y117.417 E.04612
M73 P5 R2
M73 Q5 S2
G1 X130.295 Y118.431 E.04612
G1 X129 Y118.754 E.04186
G1 X121 Y118.754 E.25083
G1 X119.583 Y118.361 E.04612
M73 Q6 S2
G1 X118.569 Y117.295 E.04612
G1 X118.246 Y116 E.04186
G1 X118.246 Y94 E.68979
M73 P6 R2
G1 X118.623 Y92.64 E.04424
M204 S1000
M73 Q7 S2
G1 X118.997 Y92.752 F10800
M204 S800
G1 F900
G1 X119.015 Y92.693 E.00195
G1 X120.06 Y91.817 E.04278
G1 X121 Y91.623 E.03008
G1 X129 Y91.623 E.25083
M73 P7 R2
G1 X130.307 Y92.015 E.04278
G1 X131.183 Y93.06 E.04278
G1 X131.377 Y94 E.03008
G1 X131.377 Y116 E.68979
G1 X130.985 Y117.307 E.04278
M73 P8 R2
M73 Q8 S2
G1 X129.94 Y118.183 E.04278
G1 X129 Y118.377 E.03008
G1 X121 Y118.377 E.25083
G1 X119.693 Y117.985 E.04278
G1 X118.817 Y116.94 E.04278
G1 X118.623 Y116 E.03008
M73 Q9 S2
G1 X118.623 Y94 E.68979
G1 X118.979 Y92.81 E.03895
M204 S1000
; printing object Handy_Kamera_Holder.stl id:0 copy 1
;WIPE_START
M73 P9 R2
G1 F8640
G1 X119.015 Y92.693 E-.0282
G1 X120.06 Y91.817 E-.31505
G1 X121 Y91.623 E-.22155
G1 X121.845 Y91.623 E-.1952
;WIPE_END
G1 E-.04 F2100
G1 Z.6 F720
G1 X121.54 Y94.54 F10800
M73 Q10 S2
G1 Z.2 F720
G1 E.8 F2100
M204 S800
;TYPE:External perimeter
G1 F900
G1 X128.46 Y94.54 E.21697
G1 X128.46 Y101.46 E.21697
M73 P10 R2
G1 X121.54 Y101.46 E.21697
G1 X121.54 Y94.6 E.21509
M204 S1000
G1 X121.436 Y94.154 F10800
M73 P11 R2
M73 Q11 S2
G1 X121.235 Y94.235
M204 S800
G1 F900
G1 X121.509 Y94.21 E.00865
G1 X128.491 Y94.21 E.21889
G1 X128.765 Y94.235 E.00865
G1 X128.79 Y94.509 E.00865
G1 X128.79 Y101.491 E.21889
G1 X128.765 Y101.765 E.00865
G1 X128.491 Y101.79 E.00865
G1 X121.509 Y101.79 E.21889
G1 X121.235 Y101.765 E.00865
M73 Q12 S2
G1 X121.21 Y101.491 E.00865
G1 X121.21 Y94.509 E.21889
G1 X121.229 Y94.295 E.00677
M204 S1000
M73 P12 R2
G1 X121.481 Y94.358 F10800
; stop printing object Handy_Kamera_Holder.stl id:0 copy 1
; printing object Handy_Kamera_Holder.stl id:0 copy 0
;WIPE_START
G1 F8640
G1 X121.509 Y94.21 E-.06755
G1 X124.508 Y94.21 E-.69245
;WIPE_END
G1 E-.04 F2100
G1 Z.6 F720
G1 X121.54 Y108.54 F10800
G1 Z.2 F720
G1 E.8 F2100
M204 S800
G1 F900
G1 X128.46 Y108.54 E.21697
G1 X128.46 Y115.46 E.21697
G1 X121.54 Y115.46 E.21697
M73 P13 R2
M73 Q13 S2
G1 X121.54 Y108.6 E.21509
M204 S1000
G1 X121.436 Y108.154 F10800
G1 X121.235 Y108.235
M204 S800
G1 F900
G1 X121.509 Y108.21 E.00865
G1 X128.491 Y108.21 E.21889
G1 X128.765 Y108.235 E.00865
M73 Q14 S2
G1 X128.79 Y108.509 E.00865
G1 X128.79 Y115.491 E.21889
G1 X128.765 Y115.765 E.00865
M73 P14 R2
G1 X128.491 Y115.79 E.00865
G1 X121.509 Y115.79 E.21889
G1 X121.235 Y115.765 E.00865
G1 X121.21 Y115.491 E.00865
G1 X121.21 Y108.509 E.21889
G1 X121.229 Y108.295 E.00677
M204 S1000
G1 X121.481 Y108.358 F10800
; stop printing object Handy_Kamera_Holder.stl id:0 copy 0
M106 S229.5
;LAYER_CHANGE
;Z:0.4
;HEIGHT:0.2
;BEFORE_LAYER_CHANGE
G92 E0.0
;0.4


;WIPE_START
G1 F8640
G1 X121.509 Y108.21 E-.06755
G1 X124.508 Y108.21 E-.69245
;WIPE_END
G1 E-.04 F2100
G1 Z.6 F720
;AFTER_LAYER_CHANGE
;0.4
G1 X118.246 Y108.21 F10800
G1 Z.4 F720
M73 Q15 S2
G1 E.8 F2100
;TYPE:Skirt/Brim
G1 F900
G1 X118.246 Y94 E.44554
G1 X118.639 Y92.583 E.04612
M73 P15 R2
G1 X119.705 Y91.569 E.04612
G1 X121 Y91.246 E.04186
G1 X129 Y91.246 E.25083
G1 X130.417 Y91.639 E.04612
M73 Q16 S2
G1 X131.431 Y92.705 E.04612
M73 P16 R2
G1 X131.754 Y94 E.04186
G1 X131.754 Y116 E.68979
G1 X131.361 Y117.417 E.04612
M73 Q17 S2
G1 X130.295 Y118.431 E.04612
G1 X129 Y118.754 E.04186
M73 P17 R2
G1 X121 Y118.754 E.25083
G1 X119.583 Y118.361 E.04612
G1 X118.569 Y117.295 E.04612
G1 X118.246 Y116 E.04186
G1 X118.246 Y108.27 E.24237
G1 X118.623 Y108.27 F10800
M73 Q18 S2
G1 F900
G1 X118.623 Y94 E.44743
G1 X119.015 Y92.693 E.04278
M73 P18 R2
G1 X120.06 Y91.817 E.04278
G1 X121 Y91.623 E.03008
G1 X129 Y91.623 E.25083
G1 X130.307 Y92.015 E.04278
M73 Q19 S2
G1 X131.183 Y93.06 E.04278
G1 X131.377 Y94 E.03008
G1 X131.377 Y116 E.68979
G1 X130.985 Y117.307 E.04278
M73 P19 R2
G1 X129.94 Y118.183 E.04278
M73 Q20 S2
G1 X129 Y118.377 E.03008
G1 X121 Y118.377 E.25083
G1 X119.693 Y117.985 E.04278
M73 P20 R2
G1 X118.817 Y116.94 E.04278
G1 X118.623 Y116 E.03008
G1 X118.623 Y108.33 E.24049
; printing object Handy_Kamera_Holder.stl id:0 copy 1
;WIPE_START
G1 F8640
G1 X118.623 Y105.039 E-.76
;WIPE_END
G1 E-.04 F2100
G1 Z.8 F720
G1 X121.525 Y101.475 F10800
G1 Z.4 F720
M73 Q21 S2
G1 E.8 F2100
M204 S800
;TYPE:External perimeter
;WIDTH:0.45
G1 F900
G1 X121.525 Y94.525 E.23525
G1 X128.475 Y94.525 E.23525
M73 P21 R2
G1 X128.475 Y101.475 E.23525
G1 X121.585 Y101.475 E.23322
M204 S1000
G1 X121.139 Y101.579 F10800
M73 Q22 S2
G1 X121.225 Y101.775
M204 S800
G1 F900
G1 X121.225 Y94.225 E.25556
G1 X128.775 Y94.225 E.25556
M73 P22 R2
G1 X128.775 Y101.775 E.25556
G1 X121.285 Y101.775 E.25353
M204 S1000
G1 X121.329 Y101.389 F10800
; stop printing object Handy_Kamera_Holder.stl id:0 copy 1
; printing object Handy_Kamera_Holder.stl id:0 copy 0
;WIPE_START
M73 P23 R2
M73 Q23 S2
G1 F8640
G1 X121.259 Y98.484 E-.76
;WIPE_END
G1 E-.04 F2100
G1 Z.8 F720
G1 X121.525 Y108.525 F10800
G1 Z.4 F720
G1 E.8 F2100
M204 S800
G1 F900
G1 X128.475 Y108.525 E.23525
G1 X128.475 Y115.475 E.23525
G1 X121.525 Y115.475 E.23525
M73 Q24 S2
G1 X121.525 Y108.585 E.23322
M204 S1000
M73 P24 R2
G1 X121.421 Y108.139 F10800
G1 X121.225 Y108.225
M204 S800
G1 F900
G1 X128.775 Y108.225 E.25556
G1 X128.775 Y115.775 E.25556
G1 X121.225 Y115.775 E.25556
M73 P25 R2
M73 Q25 S2
G1 X121.225 Y108.285 E.25353
M204 S1000
G1 X121.611 Y108.329 F10800
; stop printing object Handy_Kamera_Holder.stl id:0 copy 0
;LAYER_CHANGE
;Z:0.6
;HEIGHT:0.2
;BEFORE_LAYER_CHANGE
G92 E0.0
;0.6


;WIPE_START
G1 F8640
G1 X124.516 Y108.259 E-.76
;WIPE_END
G1 E-.04 F2100
G1 Z.8 F720
;AFTER_LAYER_CHANGE
;0.6
G1 X118.246 Y108.259 F10800
G1 Z.6 F720
G1 E.8 F2100
;TYPE:Skirt/Brim
;WIDTH:0.42
G1 F900
M73 Q26 S2
G1 X118.246 Y94 E.44708
G1 X118.639 Y92.583 E.04612
M73 P26 R2
G1 X119.705 Y91.569 E.04612
G1 X121 Y91.246 E.04186
G1 X129 Y91.246 E.25083
G1 X130.417 Y91.639 E.04612
M73 Q27 S2
G1 X131.431 Y92.705 E.04612
G1 X131.754 Y94 E.04186
G1 X131.754 Y116 E.68979
M73 P27 R2
G1 X131.361 Y117.417 E.04612
G1 X130.295 Y118.431 E.04612
M73 Q28 S2
G1 X129 Y118.754 E.04186
G1 X121 Y118.754 E.25083
M73 P28 R2
G1 X119.583 Y118.361 E.04612
G1 X118.569 Y117.295 E.04612
G1 X118.246 Y116 E.04186
G1 X118.246 Y108.319 E.24084
G1 X118.623 Y108.319 F10800
G1 F900
G1 X118.623 Y94 E.44896
G1 X119.015 Y92.693 E.04278
M73 P29 R2
M73 Q29 S2
G1 X120.06 Y91.817 E.04278
G1 X121 Y91.623 E.03008
G1 X129 Y91.623 E.25083
G1 X130.307 Y92.015 E.04278
G1 X131.183 Y93.06 E.04278
G1 X131.377 Y94 E.03008
G1 X131.377 Y116 E.68979
M73 Q30 S2
G1 X130.985 Y117.307 E.04278
M73 P30 R2
G1 X129.94 Y118.183 E.04278
G1 X129 Y118.377 E.03008
G1 X121 Y118.377 E.25083
G1 X119.693 Y117.985 E.04278
M73 P31 R2
M73 Q31 S2
G1 X118.817 Y116.94 E.04278
G1 X118.623 Y116 E.03008
G1 X118.623 Y108.379 E.23896
; printing object Handy_Kamera_Holder.stl id:0 copy 1
;WIPE_START
G1 F8640
G1 X118.623 Y105.087 E-.76
;WIPE_END
G1 E-.04 F2100
G1 Z1 F720
G1 X121.525 Y101.475 F10800
G1 Z.6 F720
G1 E.8 F2100
M204 S800
;TYPE:External perimeter
;WIDTH:0.45
G1 F900
G1 X121.525 Y94.525 E.23525
G1 X128.475 Y94.525 E.23525
M73 P32 R2
M73 Q32 S2
G1 X128.475 Y101.475 E.23525
G1 X121.585 Y101.475 E.23322
M204 S1000
G1 X121.139 Y101.579 F10800
M73 P32 R1
M73 Q33 S1
G1 X121.225 Y101.775
M204 S800
G1 F900
G1 X121.225 Y94.225 E.25556
G1 X128.775 Y94.225 E.25556
M73 P33 R1
G1 X128.775 Y101.775 E.25556
G1 X121.285 Y101.775 E.25353
M204 S1000
G1 X121.329 Y101.389 F10800
; stop printing object Handy_Kamera_Holder.stl id:0 copy 1
; printing object Handy_Kamera_Holder.stl id:0 copy 0
;WIPE_START
M73 P34 R1
M73 Q34 S1
G1 F8640
G1 X121.259 Y98.484 E-.76
;WIPE_END
G1 E-.04 F2100
G1 Z1 F720
G1 X121.525 Y108.525 F10800
G1 Z.6 F720
G1 E.8 F2100
M204 S800
G1 F900
G1 X128.475 Y108.525 E.23525
G1 X128.475 Y115.475 E.23525
G1 X121.525 Y115.475 E.23525
G1 X121.525 Y108.585 E.23322
M204 S1000
M73 P35 R1
M73 Q35 S1
G1 X121.421 Y108.139 F10800
G1 X121.225 Y108.225
M204 S800
G1 F900
G1 X128.775 Y108.225 E.25556
G1 X128.775 Y115.775 E.25556
G1 X121.225 Y115.775 E.25556
M73 Q36 S1
G1 X121.225 Y108.285 E.25353
M204 S1000
M73 P36 R1
G1 X121.611 Y108.329 F10800
; stop printing object Handy_Kamera_Holder.stl id:0 copy 0
;LAYER_CHANGE
;Z:0.8
;HEIGHT:0.2
;BEFORE_LAYER_CHANGE
G92 E0.0
;0.8


;WIPE_START
G1 F8640
G1 X124.516 Y108.259 E-.76
;WIPE_END
G1 E-.04 F2100
G1 Z1 F720
;AFTER_LAYER_CHANGE
;0.8
; printing object Handy_Kamera_Holder.stl id:0 copy 1
G1 X121.525 Y101.475 F10800
G1 Z.8 F720
G1 E.8 F2100
M204 S800
G1 F900
G1 X121.525 Y94.525 E.23525
G1 X128.475 Y94.525 E.23525
M73 P37 R1
M73 Q37 S1
G1 X128.475 Y101.475 E.23525
G1 X121.585 Y101.475 E.23322
M204 S1000
G1 X121.139 Y101.579 F10800
G1 X121.225 Y101.775
M204 S800
G1 F900
G1 X121.225 Y94.225 E.25556
G1 X128.775 Y94.225 E.25556
M73 P38 R1
M73 Q38 S1
G1 X128.775 Y101.775 E.25556
G1 X121.285 Y101.775 E.25353
M204 S1000
G1 X121.329 Y101.389 F10800
; stop printing object Handy_Kamera_Holder.stl id:0 copy 1
; printing object Handy_Kamera_Holder.stl id:0 copy 0
;WIPE_START
M73 P39 R1
M73 Q39 S1
G1 F8640
G1 X121.259 Y98.484 E-.76
;WIPE_END
G1 E-.04 F2100
G1 Z1.2 F720
G1 X121.525 Y108.525 F10800
G1 Z.8 F720
G1 E.8 F2100
M204 S800
G1 F900
G1 X128.475 Y108.525 E.23525
G1 X128.475 Y115.475 E.23525
G1 X121.525 Y115.475 E.23525
G1 X121.525 Y108.585 E.23322
M204 S1000
M73 P40 R1
M73 Q40 S1
G1 X121.421 Y108.139 F10800
G1 X121.225 Y108.225
M204 S800
G1 F900
G1 X128.775 Y108.225 E.25556
G1 X128.775 Y115.775 E.25556
G1 X121.225 Y115.775 E.25556
M73 Q41 S1
G1 X121.225 Y108.285 E.25353
M204 S1000
M73 P41 R1
G1 X121.611 Y108.329 F10800
; stop printing object Handy_Kamera_Holder.stl id:0 copy 0
;LAYER_CHANGE
;Z:1
;HEIGHT:0.2
;BEFORE_LAYER_CHANGE
G92 E0.0
;1


;WIPE_START
G1 F8640
G1 X124.516 Y108.259 E-.76
;WIPE_END
G1 E-.04 F2100
G1 Z1.2 F720
;AFTER_LAYER_CHANGE
;1
; printing object Handy_Kamera_Holder.stl id:0 copy 1
G1 X121.525 Y101.475 F10800
G1 Z1 F720
G1 E.8 F2100
M204 S800
G1 F900
G1 X121.525 Y94.525 E.23525
G1 X128.475 Y94.525 E.23525
M73 P42 R1
M73 Q42 S1
G1 X128.475 Y101.475 E.23525
G1 X121.585 Y101.475 E.23322
M204 S1000
G1 X121.139 Y101.579 F10800
G1 X121.225 Y101.775
M204 S800
G1 F900
G1 X121.225 Y94.225 E.25556
G1 X128.775 Y94.225 E.25556
M73 P43 R1
M73 Q43 S1
G1 X128.775 Y101.775 E.25556
G1 X121.285 Y101.775 E.25353
M204 S1000
G1 X121.329 Y101.389 F10800
; stop printing object Handy_Kamera_Holder.stl id:0 copy 1
; printing object Handy_Kamera_Holder.stl id:0 copy 0
;WIPE_START
M73 Q44 S1
G1 F8640
G1 X121.259 Y98.484 E-.76
;WIPE_END
G1 E-.04 F2100
M73 P44 R1
G1 Z1.4 F720
G1 X121.525 Y108.525 F10800
G1 Z1 F720
G1 E.8 F2100
M204 S800
G1 F900
G1 X128.475 Y108.525 E.23525
G1 X128.475 Y115.475 E.23525
G1 X121.525 Y115.475 E.23525
G1 X121.525 Y108.585 E.23322
M204 S1000
M73 P45 R1
M73 Q45 S1
G1 X121.421 Y108.139 F10800
G1 X121.225 Y108.225
M204 S800
G1 F900
G1 X128.775 Y108.225 E.25556
G1 X128.775 Y115.775 E.25556
G1 X121.225 Y115.775 E.25556
M73 Q46 S1
G1 X121.225 Y108.285 E.25353
M204 S1000
M73 P46 R1
G1 X121.611 Y108.329 F10800
; stop printing object Handy_Kamera_Holder.stl id:0 copy 0
;LAYER_CHANGE
;Z:1.2
;HEIGHT:0.2
;BEFORE_LAYER_CHANGE
G92 E0.0
;1.2


;WIPE_START
G1 F8640
G1 X124.516 Y108.259 E-.76
;WIPE_END
G1 E-.04 F2100
G1 Z1.4 F720
;AFTER_LAYER_CHANGE
;1.2
; printing object Handy_Kamera_Holder.stl id:0 copy 1
G1 X121.525 Y101.475 F10800
G1 Z1.2 F720
G1 E.8 F2100
M204 S800
G1 F900
G1 X121.525 Y94.525 E.23525
G1 X128.475 Y94.525 E.23525
M73 Q47 S1
G1 X128.475 Y101.475 E.23525
M73 P47 R1
G1 X121.585 Y101.475 E.23322
M204 S1000
G1 X121.139 Y101.579 F10800
G1 X121.225 Y101.775
M204 S800
G1 F900
G1 X121.225 Y94.225 E.25556
G1 X128.775 Y94.225 E.25556
M73 P48 R1
M73 Q48 S1
G1 X128.775 Y101.775 E.25556
G1 X121.285 Y101.775 E.25353
M204 S1000
G1 X121.329 Y101.389 F10800
; stop printing object Handy_Kamera_Holder.stl id:0 copy 1
; printing object Handy_Kamera_Holder.stl id:0 copy 0
;WIPE_START
M73 Q49 S1
G1 F8640
G1 X121.259 Y98.484 E-.76
;WIPE_END
G1 E-.04 F2100
M73 P49 R1
G1 Z1.6 F720
G1 X121.525 Y108.525 F10800
G1 Z1.2 F720
G1 E.8 F2100
M204 S800
G1 F900
G1 X128.475 Y108.525 E.23525
G1 X128.475 Y115.475 E.23525
G1 X121.525 Y115.475 E.23525
G1 X121.525 Y108.585 E.23322
M204 S1000
M73 P50 R1
M73 Q50 S1
G1 X121.421 Y108.139 F10800
G1 X121.225 Y108.225
M204 S800
G1 F900
G1 X128.775 Y108.225 E.25556
G1 X128.775 Y115.775 E.25556
G1 X121.225 Y115.775 E.25556
G1 X121.225 Y108.285 E.25353
M204 S1000
M73 P51 R1
M73 Q51 S1
G1 X121.611 Y108.329 F10800
; stop printing object Handy_Kamera_Holder.stl id:0 copy 0
;LAYER_CHANGE
;Z:1.4
;HEIGHT:0.2
;BEFORE_LAYER_CHANGE
G92 E0.0
;1.4


;WIPE_START
G1 F8640
G1 X124.516 Y108.259 E-.76
;WIPE_END
G1 E-.04 F2100
G1 Z1.6 F720
;AFTER_LAYER_CHANGE
;1.4
; printing object Handy_Kamera_Holder.stl id:0 copy 1
G1 X121.525 Y101.475 F10800
G1 Z1.4 F720
G1 E.8 F2100
M204 S800
G1 F900
G1 X121.525 Y94.525 E.23525
G1 X128.475 Y94.525 E.23525
M73 Q52 S1
G1 X128.475 Y101.475 E.23525
M73 P52 R1
G1 X121.585 Y101.475 E.23322
M204 S1000
G1 X121.139 Y101.579 F10800
G1 X121.225 Y101.775
M204 S800
G1 F900
G1 X121.225 Y94.225 E.25556
G1 X128.775 Y94.225 E.25556
M73 P53 R1
M73 Q53 S1
G1 X128.775 Y101.775 E.25556
G1 X121.285 Y101.775 E.25353
M204 S1000
G1 X121.329 Y101.389 F10800
; stop printing object Handy_Kamera_Holder.stl id:0 copy 1
; printing object Handy_Kamera_Holder.stl id:0 copy 0
;WIPE_START
G1 F8640
M73 Q54 S1
G1 X121.259 Y98.484 E-.76
;WIPE_END
G1 E-.04 F2100
G1 Z1.8 F720
G1 X121.525 Y108.525 F10800
M73 P54 R1
G1 Z1.4 F720
G1 E.8 F2100
M204 S800
G1 F900
G1 X128.475 Y108.525 E.23525
G1 X128.475 Y115.475 E.23525
G1 X121.525 Y115.475 E.23525
G1 X121.525 Y108.585 E.23322
M204 S1000
M73 Q55 S1
G1 X121.421 Y108.139 F10800
M73 P55 R1
G1 X121.225 Y108.225
M204 S800
G1 F900
G1 X128.775 Y108.225 E.25556
G1 X128.775 Y115.775 E.25556
G1 X121.225 Y115.775 E.25556
G1 X121.225 Y108.285 E.25353
M204 S1000
M73 P56 R1
M73 Q56 S1
G1 X121.611 Y108.329 F10800
; stop printing object Handy_Kamera_Holder.stl id:0 copy 0
;LAYER_CHANGE
;Z:1.6
;HEIGHT:0.2
